(G-CODE GENERATED BY FLATCAM v8.992 - www.flatcam.org - Version Date: 2020/05/03)

(Name: NPN Tracer V1-F_Cu_deeper_faster.gbr_iso_1_cnc)
(Type: G-code from Geometry)
(Units: MM)

(Created on Thursday, 23 February 2023 at 16:39)

(This preprocessor is the default preprocessor used by FlatCAM.)
(It is made to work with MACH3 compatible motion controllers.)

(TOOL DIAMETER: 0.2458 mm)
(Feedrate_XY: 80.0 mm/min)
(Feedrate_Z: 50.0 mm/min)
(Feedrate rapids 1500.0 mm/min)

(Z_Cut: -0.13 mm)
(Z_Move: 2.0 mm)
(Z Start: None mm)
(Z End: 10.0 mm)
(Steps per circle: 64)
(Preprocessor Geometry: default)

(X range:    0.0859 ...   94.2636  mm)
(Y range:    0.6644 ...   59.7266  mm)

(Spindle Speed: None RPM)
G21
G90
G94



G01 F80.00
G00 Z2.0000

M03
G00 X0.1005 Y1.2937
G01 F50.00
G01 Z-0.1300
G01 F80.00
G01 X0.1155 Y1.2258
G01 X0.1238 Y1.1949
G01 X0.1337 Y1.1645
G01 X0.1451 Y1.1347
G01 X0.1579 Y1.1055
G01 X0.1722 Y1.0769
G01 X0.1879 Y1.0491
G01 X0.2050 Y1.0221
G01 X0.2234 Y0.9960
G01 X0.2331 Y0.9833
G01 X0.2534 Y0.9587
G01 X0.2999 Y0.9050
G01 X0.3213 Y0.8815
G01 X0.3438 Y0.8592
G01 X0.3674 Y0.8379
G01 X0.3920 Y0.8179
G01 X0.4176 Y0.7991
G01 X0.4307 Y0.7902
G01 X0.4576 Y0.7734
G01 X0.4853 Y0.7579
G01 X0.5138 Y0.7438
G01 X0.5429 Y0.7312
G01 X0.5726 Y0.7200
G01 X0.6028 Y0.7103
G01 X0.6856 Y0.6862
G01 X0.7152 Y0.6790
G01 X0.7301 Y0.6760
G01 X0.7601 Y0.6709
G01 X0.7903 Y0.6673
G01 X0.8206 Y0.6651
G01 X0.8510 Y0.6644
G01 X93.4985 Y0.6644
G01 X93.5289 Y0.6651
G01 X93.5441 Y0.6660
G01 X93.5744 Y0.6689
G01 X93.5894 Y0.6709
G01 X93.6045 Y0.6733
G01 X93.6343 Y0.6790
G01 X93.6867 Y0.6904
G01 X93.7177 Y0.6980
G01 X93.7331 Y0.7023
G01 X93.7635 Y0.7122
G01 X93.7933 Y0.7236
G01 X93.8080 Y0.7298
G01 X93.8369 Y0.7434
G01 X93.8511 Y0.7507
G01 X93.8651 Y0.7584
G01 X93.8925 Y0.7748
G01 X93.9059 Y0.7835
G01 X93.9320 Y0.8019
G01 X93.9572 Y0.8216
G01 X94.0230 Y0.8784
G01 X94.0349 Y0.8889
G01 X94.0578 Y0.9109
G01 X94.0796 Y0.9339
G01 X94.0901 Y0.9459
G01 X94.1101 Y0.9705
G01 X94.1197 Y0.9832
G01 X94.1378 Y1.0092
G01 X94.1464 Y1.0226
G01 X94.1625 Y1.0499
G01 X94.1773 Y1.0780
G01 X94.1842 Y1.0923
G01 X94.1907 Y1.1068
G01 X94.2026 Y1.1362
G01 X94.2130 Y1.1662
G01 X94.2177 Y1.1813
G01 X94.2418 Y1.2641
G01 X94.2490 Y1.2937
G01 X94.2520 Y1.3086
G01 X94.2571 Y1.3386
G01 X94.2591 Y1.3536
G01 X94.2620 Y1.3839
G01 X94.2629 Y1.3991
G01 X94.2636 Y1.4295
G01 X94.2636 Y58.9615
G01 X94.2629 Y58.9919
G01 X94.2620 Y59.0071
G01 X94.2591 Y59.0374
G01 X94.2571 Y59.0524
G01 X94.2520 Y59.0824
G01 X94.2490 Y59.0973
G01 X94.2376 Y59.1497
G01 X94.2300 Y59.1807
G01 X94.2209 Y59.2113
G01 X94.2158 Y59.2265
G01 X94.2103 Y59.2414
G01 X94.1982 Y59.2710
G01 X94.1916 Y59.2855
G01 X94.1773 Y59.3141
G01 X94.1616 Y59.3419
G01 X94.1532 Y59.3555
G01 X94.1355 Y59.3821
G01 X94.1261 Y59.3950
G01 X94.1064 Y59.4202
G01 X94.0496 Y59.4860
G01 X94.0282 Y59.5095
G01 X94.0057 Y59.5318
G01 X93.9821 Y59.5531
G01 X93.9575 Y59.5731
G01 X93.9319 Y59.5919
G01 X93.9188 Y59.6008
G01 X93.8919 Y59.6176
G01 X93.8642 Y59.6331
G01 X93.8357 Y59.6472
G01 X93.8066 Y59.6598
G01 X93.7769 Y59.6710
G01 X93.7467 Y59.6807
G01 X93.6639 Y59.7048
G01 X93.6343 Y59.7120
G01 X93.6045 Y59.7177
G01 X93.5744 Y59.7221
G01 X93.5441 Y59.7250
G01 X93.5137 Y59.7264
G01 X92.8731 Y59.7264
G01 X92.8427 Y59.7250
G01 X92.8096 Y59.7224
G01 X92.7794 Y59.7188
G01 X92.7494 Y59.7137
G01 X92.7345 Y59.7107
G01 X92.7049 Y59.7035
G01 X92.6757 Y59.6949
G01 X92.6470 Y59.6850
G01 X92.6188 Y59.6737
G01 X92.5403 Y59.6381
G01 X92.5117 Y59.6242
G01 X92.4839 Y59.6089
G01 X92.4569 Y59.5922
G01 X92.4308 Y59.5742
G01 X92.4055 Y59.5550
G01 X92.3813 Y59.5345
G01 X92.3696 Y59.5238
G01 X92.3469 Y59.5016
G01 X92.3254 Y59.4782
G01 X92.3050 Y59.4539
G01 X92.2859 Y59.4285
G01 X92.2681 Y59.4022
G01 X92.2213 Y59.3291
G01 X92.2055 Y59.3015
G01 X92.1911 Y59.2733
G01 X92.1781 Y59.2443
G01 X92.1665 Y59.2147
G01 X92.1613 Y59.1998
G01 X92.1520 Y59.1694
G01 X92.1442 Y59.1387
G01 X92.1379 Y59.1075
G01 X92.1332 Y59.0762
G01 X92.1301 Y59.0446
G01 X92.1291 Y59.0287
G01 X92.1283 Y58.9970
G01 X92.1285 Y58.9108
G01 X92.1299 Y58.8804
G01 X92.1328 Y58.8501
G01 X92.1371 Y58.8200
G01 X92.1421 Y58.7939
G01 X92.1421 Y58.6103
G01 X92.0952 Y58.6336
G01 X92.0575 Y58.6503
G01 X92.0437 Y58.6558
G01 X92.0159 Y58.6659
G01 X91.9908 Y58.6742
G01 X91.9766 Y58.6784
G01 X91.9623 Y58.6823
G01 X91.9367 Y58.6885
G01 X91.9077 Y58.6947
G01 X91.8931 Y58.6972
G01 X91.8669 Y58.7011
G01 X91.8375 Y58.7045
G01 X91.8228 Y58.7057
G01 X91.7964 Y58.7071
G01 X91.7668 Y58.7078
G01 X91.3858 Y58.7078
G01 X91.3545 Y58.7070
G01 X91.3265 Y58.7054
G01 X91.3109 Y58.7041
G01 X91.2798 Y58.7002
G01 X91.2522 Y58.6960
G01 X91.2214 Y58.6898
G01 X91.1942 Y58.6832
G01 X91.1715 Y58.6770
G01 X91.1488 Y58.6832
G01 X91.1217 Y58.6898
G01 X91.0909 Y58.6960
G01 X91.0633 Y58.7002
G01 X91.0321 Y58.7041
G01 X91.0165 Y58.7054
G01 X90.9886 Y58.7070
G01 X90.9572 Y58.7078
G01 X90.4810 Y58.7078
G01 X90.4497 Y58.7070
G01 X90.4218 Y58.7054
G01 X90.3906 Y58.7024
G01 X90.3474 Y58.6960
G01 X90.3166 Y58.6898
G01 X90.2743 Y58.6792
G01 X90.2443 Y58.6701
G01 X90.2032 Y58.6554
G01 X90.1763 Y58.6443
G01 X90.1036 Y58.6685
G01 X90.0873 Y58.6737
G01 X90.0579 Y58.6821
G01 X90.0414 Y58.6864
G01 X90.0079 Y58.6937
G01 X89.9608 Y58.7013
G01 X89.9267 Y58.7050
G01 X89.8791 Y58.7075
G01 X89.7496 Y58.7075
G01 X89.7020 Y58.7050
G01 X89.6850 Y58.7034
G01 X89.6510 Y58.6988
G01 X89.6209 Y58.6937
G01 X89.6041 Y58.6902
G01 X89.5874 Y58.6864
G01 X89.5579 Y58.6785
G01 X89.5251 Y58.6685
G01 X89.3823 Y58.6209
G01 X89.3544 Y58.6109
G01 X89.3298 Y58.6012
G01 X89.3027 Y58.5893
G01 X89.2790 Y58.5777
G01 X89.2571 Y58.5663
G01 X89.2270 Y58.5867
G01 X89.2135 Y58.5952
G01 X89.1859 Y58.6112
G01 X89.1608 Y58.6247
G01 X89.1321 Y58.6386
G01 X89.1174 Y58.6450
G01 X89.0911 Y58.6558
G01 X89.0611 Y58.6668
G01 X89.0340 Y58.6754
G01 X89.0033 Y58.6840
G01 X88.9878 Y58.6878
G01 X88.9599 Y58.6936
G01 X88.9442 Y58.6966
G01 X88.9127 Y58.7014
G01 X88.8844 Y58.7044
G01 X88.8525 Y58.7068
G01 X88.8206 Y58.7076
G01 X88.7922 Y58.7074
G01 X88.7603 Y58.7058
G01 X88.7320 Y58.7032
G01 X88.7003 Y58.6992
G01 X88.6845 Y58.6966
G01 X88.6566 Y58.6912
G01 X88.6255 Y58.6840
G01 X88.5947 Y58.6754
G01 X88.5676 Y58.6668
G01 X88.5376 Y58.6558
G01 X88.5113 Y58.6450
G01 X88.4967 Y58.6386
G01 X88.4680 Y58.6247
G01 X88.4429 Y58.6112
G01 X88.4131 Y58.5939
G01 X88.3466 Y58.6271
G01 X88.3333 Y58.6336
G01 X88.3092 Y58.6444
G01 X88.2956 Y58.6503
G01 X88.2680 Y58.6610
G01 X88.2289 Y58.6742
G01 X88.2147 Y58.6784
G01 X88.1860 Y58.6859
G01 X88.1603 Y58.6918
G01 X88.1458 Y58.6947
G01 X88.1312 Y58.6972
G01 X88.1050 Y58.7011
G01 X88.0756 Y58.7045
G01 X88.0608 Y58.7057
G01 X88.0345 Y58.7071
G01 X88.0049 Y58.7078
G01 X87.6082 Y58.7076
G01 X87.5646 Y58.7054
G01 X87.5334 Y58.7024
G01 X87.4902 Y58.6960
G01 X87.4572 Y58.6893
G01 X87.4242 Y58.6960
G01 X87.3811 Y58.7024
G01 X87.3498 Y58.7054
G01 X87.3063 Y58.7076
G01 X86.7035 Y58.7076
G01 X86.6599 Y58.7054
G01 X86.6287 Y58.7024
G01 X86.5855 Y58.6960
G01 X86.5547 Y58.6898
G01 X86.5124 Y58.6792
G01 X86.4824 Y58.6701
G01 X86.4413 Y58.6554
G01 X86.4123 Y58.6434
G01 X86.3729 Y58.6248
G01 X86.3452 Y58.6100
G01 X86.3078 Y58.5875
G01 X86.2817 Y58.5701
G01 X86.2466 Y58.5441
G01 X86.2224 Y58.5242
G01 X86.1900 Y58.4949
G01 X86.1701 Y58.4750
G01 X86.1602 Y58.4834
G01 X86.1383 Y58.5008
G01 X86.1132 Y58.5196
G01 X86.0872 Y58.5371
G01 X86.0635 Y58.5519
G01 X86.0362 Y58.5675
G01 X86.0114 Y58.5803
G01 X85.9831 Y58.5938
G01 X85.9541 Y58.6058
G01 X85.9275 Y58.6159
G01 X85.9132 Y58.6209
G01 X85.7703 Y58.6685
G01 X85.7540 Y58.6737
G01 X85.7246 Y58.6821
G01 X85.6913 Y58.6902
G01 X85.6577 Y58.6966
G01 X85.6275 Y58.7013
G01 X85.6105 Y58.7034
G01 X85.5763 Y58.7061
G01 X85.5458 Y58.7075
G01 X85.5287 Y58.7078
G01 X85.2758 Y58.7076
G01 X85.2494 Y58.7065
G01 X85.2198 Y58.7045
G01 X85.1904 Y58.7011
G01 X85.1643 Y58.6972
G01 X85.1351 Y58.6918
G01 X85.0950 Y58.6823
G01 X85.0665 Y58.6742
G01 X85.0275 Y58.6610
G01 X84.9998 Y58.6503
G01 X84.9622 Y58.6336
G01 X84.8858 Y58.5956
G01 X84.8228 Y58.6271
G01 X84.8095 Y58.6336
G01 X84.7854 Y58.6444
G01 X84.7718 Y58.6503
G01 X84.7442 Y58.6610
G01 X84.7051 Y58.6742
G01 X84.6909 Y58.6784
G01 X84.6622 Y58.6859
G01 X84.6365 Y58.6918
G01 X84.6220 Y58.6947
G01 X84.5927 Y58.6994
G01 X84.5665 Y58.7029
G01 X84.5518 Y58.7045
G01 X84.5222 Y58.7065
G01 X84.4959 Y58.7076
G01 X84.4810 Y58.7078
G01 X84.2906 Y58.7078
G01 X84.2679 Y58.7074
G01 X84.2434 Y58.7063
G01 X84.2243 Y58.7049
G01 X84.1932 Y58.7015
G01 X84.1688 Y58.6980
G01 X84.1346 Y58.6917
G01 X84.0955 Y58.6824
G01 X84.0771 Y58.6773
G01 X84.0621 Y58.6728
G01 X84.0388 Y58.6650
G01 X84.0094 Y58.6541
G01 X83.9917 Y58.6469
G01 X83.9572 Y58.6311
G01 X83.9296 Y58.6440
G01 X83.9153 Y58.6500
G01 X83.8897 Y58.6599
G01 X83.8606 Y58.6702
G01 X83.8459 Y58.6748
G01 X83.8194 Y58.6822
G01 X83.8044 Y58.6861
G01 X83.7743 Y58.6928
G01 X83.7472 Y58.6976
G01 X83.7167 Y58.7021
G01 X83.7013 Y58.7038
G01 X83.6739 Y58.7060
G01 X83.6431 Y58.7075
G01 X83.6277 Y58.7077
G01 X83.6001 Y58.7073
G01 X83.5693 Y58.7058
G01 X83.5386 Y58.7029
G01 X83.5113 Y58.6994
G01 X83.4960 Y58.6970
G01 X83.4809 Y58.6942
G01 X83.4540 Y58.6885
G01 X83.4240 Y58.6811
G01 X83.3944 Y58.6724
G01 X83.3683 Y58.6637
G01 X83.3538 Y58.6584
G01 X83.3252 Y58.6468
G01 X83.2906 Y58.6312
G01 X83.2671 Y58.6420
G01 X83.2417 Y58.6528
G01 X83.2129 Y58.6637
G01 X83.1720 Y58.6769
G01 X83.1422 Y58.6850
G01 X83.1003 Y58.6942
G01 X83.0851 Y58.6970
G01 X83.0545 Y58.7014
G01 X83.0272 Y58.7045
G01 X83.0118 Y58.7058
G01 X82.9964 Y58.7067
G01 X82.9689 Y58.7076
G01 X82.9381 Y58.7075
G01 X82.9072 Y58.7060
G01 X82.8798 Y58.7038
G01 X82.8492 Y58.7001
G01 X82.8220 Y58.6956
G01 X82.7917 Y58.6896
G01 X82.7767 Y58.6861
G01 X82.7501 Y58.6790
G01 X82.7191 Y58.6697
G01 X82.6878 Y58.6792
G01 X82.6455 Y58.6898
G01 X82.6147 Y58.6960
G01 X82.5715 Y58.7024
G01 X82.5403 Y58.7054
G01 X82.4967 Y58.7076
G01 X82.4654 Y58.7076
G01 X82.4218 Y58.7054
G01 X82.4061 Y58.7041
G01 X82.3750 Y58.7002
G01 X82.3474 Y58.6960
G01 X82.3166 Y58.6898
G01 X82.2895 Y58.6832
G01 X82.2592 Y58.6749
G01 X82.2294 Y58.6650
G01 X82.1953 Y58.6523
G01 X82.1727 Y58.6610
G01 X82.1580 Y58.6661
G01 X82.1317 Y58.6747
G01 X82.1168 Y58.6791
G01 X82.1019 Y58.6832
G01 X82.0749 Y58.6895
G01 X82.0445 Y58.6958
G01 X82.0292 Y58.6983
G01 X81.9864 Y58.7039
G01 X81.9710 Y58.7053
G01 X81.9400 Y58.7070
G01 X81.9123 Y58.7077
G01 X81.8968 Y58.7077
G01 X81.8813 Y58.7072
G01 X81.8484 Y58.7052
G01 X81.8123 Y58.7180
G01 X81.7823 Y58.7271
G01 X81.7399 Y58.7376
G01 X81.7092 Y58.7437
G01 X81.6660 Y58.7501
G01 X81.6348 Y58.7531
G01 X81.5912 Y58.7552
G01 X81.5598 Y58.7552
G01 X81.5319 Y58.7540
G01 X81.5006 Y58.7516
G01 X81.4850 Y58.7499
G01 X81.4573 Y58.7459
G01 X81.4264 Y58.7405
G01 X81.4111 Y58.7373
G01 X81.3688 Y58.7266
G01 X81.3537 Y58.7222
G01 X81.3239 Y58.7124
G01 X81.2977 Y58.7027
G01 X81.2831 Y58.6969
G01 X81.2687 Y58.6907
G01 X81.2434 Y58.6789
G01 X81.2154 Y58.6648
G01 X81.2016 Y58.6572
G01 X81.1642 Y58.6347
G01 X81.1382 Y58.6173
G01 X81.1255 Y58.6081
G01 X81.1031 Y58.5912
G01 X81.0909 Y58.5814
G01 X81.0672 Y58.5609
G01 X81.0466 Y58.5420
G01 X81.0244 Y58.5198
G01 X81.0138 Y58.5083
G01 X80.9952 Y58.4874
G01 X80.9851 Y58.4754
G01 X80.9658 Y58.4506
G01 X80.9493 Y58.4281
G01 X80.9242 Y58.3907
G01 X80.8662 Y58.4483
G01 X80.8308 Y58.4801
G01 X80.8041 Y58.5016
G01 X80.7795 Y58.5197
G01 X80.7511 Y58.5390
G01 X80.7218 Y58.5567
G01 X80.6952 Y58.5716
G01 X80.6799 Y58.5795
G01 X80.5714 Y58.6336
G01 X80.5337 Y58.6503
G01 X80.5199 Y58.6558
G01 X80.4921 Y58.6659
G01 X80.4670 Y58.6742
G01 X80.4528 Y58.6784
G01 X80.4241 Y58.6859
G01 X80.3984 Y58.6918
G01 X80.3839 Y58.6947
G01 X80.3546 Y58.6994
G01 X80.3284 Y58.7029
G01 X80.3137 Y58.7045
G01 X80.2989 Y58.7057
G01 X80.2726 Y58.7071
G01 X80.2430 Y58.7078
G01 X79.8620 Y58.7078
G01 X79.8463 Y58.7076
G01 X79.8184 Y58.7064
G01 X79.7871 Y58.7041
G01 X79.7715 Y58.7024
G01 X79.7438 Y58.6984
G01 X79.7129 Y58.6931
G01 X79.6976 Y58.6898
G01 X79.6704 Y58.6832
G01 X79.6402 Y58.6749
G01 X79.6239 Y58.6697
G01 X79.5926 Y58.6792
G01 X79.5502 Y58.6898
G01 X79.5195 Y58.6960
G01 X79.4918 Y58.7002
G01 X79.4607 Y58.7041
G01 X79.4294 Y58.7064
G01 X79.4015 Y58.7076
G01 X79.3858 Y58.7078
G01 X79.3545 Y58.7070
G01 X79.3265 Y58.7054
G01 X79.2953 Y58.7024
G01 X79.2522 Y58.6960
G01 X79.2214 Y58.6898
G01 X79.1942 Y58.6832
G01 X79.1640 Y58.6749
G01 X79.1342 Y58.6650
G01 X79.1001 Y58.6523
G01 X79.0774 Y58.6610
G01 X79.0628 Y58.6661
G01 X79.0365 Y58.6747
G01 X79.0216 Y58.6791
G01 X78.9915 Y58.6868
G01 X78.9645 Y58.6928
G01 X78.9493 Y58.6958
G01 X78.9340 Y58.6983
G01 X78.9066 Y58.7021
G01 X78.8757 Y58.7053
G01 X78.8602 Y58.7064
G01 X78.8326 Y58.7074
G01 X78.8016 Y58.7077
G01 X78.7861 Y58.7072
G01 X78.7430 Y58.7044
G01 X78.7122 Y58.7009
G01 X78.6695 Y58.6939
G01 X78.6392 Y58.6874
G01 X78.5973 Y58.6763
G01 X78.5675 Y58.6668
G01 X78.5274 Y58.6518
G01 X78.5048 Y58.6422
G01 X78.4861 Y58.6503
G01 X78.4584 Y58.6610
G01 X78.4194 Y58.6742
G01 X78.3909 Y58.6823
G01 X78.3508 Y58.6918
G01 X78.3216 Y58.6972
G01 X78.2808 Y58.7029
G01 X78.2513 Y58.7057
G01 X78.2101 Y58.7076
G01 X77.8144 Y58.7078
G01 X77.7987 Y58.7076
G01 X77.7708 Y58.7064
G01 X77.7551 Y58.7054
G01 X77.7239 Y58.7024
G01 X77.6807 Y58.6960
G01 X77.6500 Y58.6898
G01 X77.6347 Y58.6862
G01 X77.6076 Y58.6792
G01 X77.5847 Y58.6724
G01 X77.5848 Y58.7942
G01 X77.5891 Y58.8135
G01 X77.5922 Y58.8291
G01 X77.5971 Y58.8605
G01 X77.6004 Y58.8920
G01 X77.6022 Y58.9237
G01 X77.6025 Y58.9396
G01 X77.6019 Y58.9713
G01 X77.5997 Y59.0030
G01 X77.5960 Y59.0345
G01 X77.5859 Y59.1048
G01 X77.5806 Y59.1361
G01 X77.5738 Y59.1671
G01 X77.5654 Y59.1977
G01 X77.5555 Y59.2279
G01 X77.5500 Y59.2427
G01 X77.5441 Y59.2575
G01 X77.5313 Y59.2865
G01 X77.5171 Y59.3149
G01 X77.5014 Y59.3425
G01 X77.4844 Y59.3693
G01 X77.4754 Y59.3824
G01 X77.4565 Y59.4079
G01 X77.4465 Y59.4202
G01 X77.3898 Y59.4860
G01 X77.3684 Y59.5095
G01 X77.3459 Y59.5318
G01 X77.3223 Y59.5531
G01 X77.2977 Y59.5731
G01 X77.2850 Y59.5827
G01 X77.2590 Y59.6008
G01 X77.2456 Y59.6094
G01 X77.2183 Y59.6255
G01 X77.2044 Y59.6331
G01 X77.1759 Y59.6472
G01 X77.1614 Y59.6537
G01 X77.1320 Y59.6656
G01 X77.1020 Y59.6760
G01 X77.0869 Y59.6807
G01 X77.0041 Y59.7048
G01 X76.9746 Y59.7120
G01 X76.9597 Y59.7150
G01 X76.9297 Y59.7201
G01 X76.9146 Y59.7221
G01 X76.8843 Y59.7250
G01 X76.8539 Y59.7264
G01 X0.8510 Y59.7266
G01 X0.8358 Y59.7264
G01 X0.8054 Y59.7250
G01 X0.7751 Y59.7221
G01 X0.7601 Y59.7201
G01 X0.7301 Y59.7150
G01 X0.7152 Y59.7120
G01 X0.6628 Y59.7006
G01 X0.6318 Y59.6930
G01 X0.6164 Y59.6887
G01 X0.5860 Y59.6788
G01 X0.5711 Y59.6733
G01 X0.5415 Y59.6612
G01 X0.5270 Y59.6546
G01 X0.4984 Y59.6403
G01 X0.4844 Y59.6326
G01 X0.4570 Y59.6162
G01 X0.4304 Y59.5985
G01 X0.4175 Y59.5891
G01 X0.3923 Y59.5694
G01 X0.3265 Y59.5126
G01 X0.3146 Y59.5021
G01 X0.2917 Y59.4801
G01 X0.2699 Y59.4571
G01 X0.2493 Y59.4329
G01 X0.2394 Y59.4205
G01 X0.2206 Y59.3949
G01 X0.2117 Y59.3818
G01 X0.2031 Y59.3684
G01 X0.1870 Y59.3411
G01 X0.1722 Y59.3130
G01 X0.1653 Y59.2987
G01 X0.1527 Y59.2696
G01 X0.1469 Y59.2548
G01 X0.1365 Y59.2248
G01 X0.1318 Y59.2097
G01 X0.1077 Y59.1269
G01 X0.1039 Y59.1122
G01 X0.0975 Y59.0824
G01 X0.0948 Y59.0675
G01 X0.0904 Y59.0374
G01 X0.0875 Y59.0071
G01 X0.0866 Y58.9919
G01 X0.0859 Y58.9615
G01 X0.0859 Y1.4295
G01 X0.0866 Y1.3991
G01 X0.0888 Y1.3688
G01 X0.0904 Y1.3536
G01 X0.0948 Y1.3235
G01 X0.1005 Y1.2937
G00 Z2.0000
G00 X0.2687 Y1.3302
G01 F50.00
G01 Z-0.1300
G01 F80.00
G01 X0.2827 Y1.2665
G01 X0.2888 Y1.2440
G01 X0.2960 Y1.2218
G01 X0.3043 Y1.2000
G01 X0.3137 Y1.1786
G01 X0.3241 Y1.1577
G01 X0.3356 Y1.1374
G01 X0.3481 Y1.1177
G01 X0.3615 Y1.0986
G01 X0.3686 Y1.0893
G01 X0.3834 Y1.0713
G01 X0.4376 Y1.0090
G01 X0.4537 Y0.9922
G01 X0.4705 Y0.9763
G01 X0.4792 Y0.9687
G01 X0.4972 Y0.9540
G01 X0.5159 Y0.9403
G01 X0.5353 Y0.9275
G01 X0.5553 Y0.9157
G01 X0.5758 Y0.9049
G01 X0.5968 Y0.8951
G01 X0.6183 Y0.8864
G01 X0.6292 Y0.8825
G01 X0.6513 Y0.8754
G01 X0.7194 Y0.8554
G01 X0.7409 Y0.8496
G01 X0.7517 Y0.8472
G01 X0.7736 Y0.8429
G01 X0.7956 Y0.8398
G01 X0.8177 Y0.8377
G01 X0.8288 Y0.8370
G01 X0.8510 Y0.8365
G01 X93.4985 Y0.8365
G01 X93.5207 Y0.8370
G01 X93.5318 Y0.8377
G01 X93.5539 Y0.8398
G01 X93.5759 Y0.8429
G01 X93.5978 Y0.8472
G01 X93.6501 Y0.8585
G01 X93.6728 Y0.8641
G01 X93.6840 Y0.8673
G01 X93.7062 Y0.8745
G01 X93.7172 Y0.8785
G01 X93.7388 Y0.8873
G01 X93.7599 Y0.8973
G01 X93.7703 Y0.9026
G01 X93.7805 Y0.9082
G01 X93.8005 Y0.9202
G01 X93.8199 Y0.9332
G01 X93.8387 Y0.9471
G01 X93.8478 Y0.9544
G01 X93.9103 Y1.0084
G01 X93.9275 Y1.0240
G01 X93.9358 Y1.0322
G01 X93.9438 Y1.0405
G01 X93.9593 Y1.0577
G01 X93.9668 Y1.0666
G01 X93.9810 Y1.0850
G01 X93.9877 Y1.0944
G01 X94.0005 Y1.1138
G01 X94.0123 Y1.1338
G01 X94.0178 Y1.1439
G01 X94.0281 Y1.1647
G01 X94.0373 Y1.1860
G01 X94.0455 Y1.2077
G01 X94.0526 Y1.2298
G01 X94.0756 Y1.3086
G01 X94.0808 Y1.3302
G01 X94.0831 Y1.3411
G01 X94.0851 Y1.3521
G01 X94.0882 Y1.3741
G01 X94.0903 Y1.3962
G01 X94.0910 Y1.4073
G01 X94.0915 Y1.4295
G01 X94.0915 Y58.9615
G01 X94.0910 Y58.9837
G01 X94.0894 Y59.0059
G01 X94.0868 Y59.0280
G01 X94.0851 Y59.0389
G01 X94.0808 Y59.0608
G01 X94.0695 Y59.1131
G01 X94.0639 Y59.1358
G01 X94.0607 Y59.1470
G01 X94.0535 Y59.1692
G01 X94.0495 Y59.1802
G01 X94.0407 Y59.2018
G01 X94.0307 Y59.2229
G01 X94.0254 Y59.2333
G01 X94.0139 Y59.2536
G01 X94.0078 Y59.2635
G01 X93.9948 Y59.2829
G01 X93.9809 Y59.3017
G01 X93.9736 Y59.3108
G01 X93.9196 Y59.3733
G01 X93.9040 Y59.3905
G01 X93.8875 Y59.4068
G01 X93.8703 Y59.4223
G01 X93.8614 Y59.4298
G01 X93.8430 Y59.4440
G01 X93.8240 Y59.4572
G01 X93.8043 Y59.4695
G01 X93.7841 Y59.4808
G01 X93.7737 Y59.4861
G01 X93.7527 Y59.4959
G01 X93.7312 Y59.5046
G01 X93.7203 Y59.5085
G01 X93.6982 Y59.5156
G01 X93.6194 Y59.5386
G01 X93.5978 Y59.5438
G01 X93.5759 Y59.5481
G01 X93.5650 Y59.5498
G01 X93.5539 Y59.5512
G01 X93.5318 Y59.5533
G01 X93.5096 Y59.5544
G01 X93.4985 Y59.5545
G01 X92.8883 Y59.5545
G01 X92.8660 Y59.5540
G01 X92.8259 Y59.5511
G01 X92.8039 Y59.5485
G01 X92.7929 Y59.5468
G01 X92.7711 Y59.5426
G01 X92.7495 Y59.5373
G01 X92.7388 Y59.5343
G01 X92.7176 Y59.5276
G01 X92.7071 Y59.5238
G01 X92.6865 Y59.5155
G01 X92.6118 Y59.4815
G01 X92.5909 Y59.4714
G01 X92.5706 Y59.4602
G01 X92.5508 Y59.4480
G01 X92.5317 Y59.4349
G01 X92.5133 Y59.4208
G01 X92.5043 Y59.4134
G01 X92.4870 Y59.3980
G01 X92.4704 Y59.3818
G01 X92.4547 Y59.3647
G01 X92.4399 Y59.3469
G01 X92.4259 Y59.3284
G01 X92.4129 Y59.3092
G01 X92.3745 Y59.2495
G01 X92.3624 Y59.2297
G01 X92.3514 Y59.2093
G01 X92.3414 Y59.1884
G01 X92.3324 Y59.1670
G01 X92.3283 Y59.1561
G01 X92.3209 Y59.1341
G01 X92.3147 Y59.1118
G01 X92.3120 Y59.1005
G01 X92.3074 Y59.0778
G01 X92.3055 Y59.0663
G01 X92.3040 Y59.0548
G01 X92.3017 Y59.0318
G01 X92.3005 Y59.0086
G01 X92.3004 Y58.9970
G01 X92.3004 Y58.9260
G01 X92.3009 Y58.9038
G01 X92.3016 Y58.8927
G01 X92.3037 Y58.8706
G01 X92.3068 Y58.8486
G01 X92.3088 Y58.8376
G01 X92.3142 Y58.8133
G01 X92.3142 Y58.2811
G01 X92.2717 Y58.3234
G01 X92.2431 Y58.3491
G01 X92.2236 Y58.3648
G01 X92.1924 Y58.3873
G01 X92.1713 Y58.4008
G01 X92.1379 Y58.4198
G01 X92.0218 Y58.4779
G01 X91.9914 Y58.4914
G01 X91.9712 Y58.4992
G01 X91.9397 Y58.5098
G01 X91.9294 Y58.5129
G01 X91.9084 Y58.5184
G01 X91.8759 Y58.5255
G01 X91.8546 Y58.5290
G01 X91.8216 Y58.5332
G01 X91.7884 Y58.5352
G01 X91.7668 Y58.5357
G01 X91.3858 Y58.5357
G01 X91.3629 Y58.5351
G01 X91.3392 Y58.5338
G01 X91.3164 Y58.5316
G01 X91.2929 Y58.5282
G01 X91.2816 Y58.5264
G01 X91.2591 Y58.5220
G01 X91.2360 Y58.5163
G01 X91.2139 Y58.5102
G01 X91.1922 Y58.5030
G01 X91.1715 Y58.4955
G01 X91.1509 Y58.5030
G01 X91.1291 Y58.5102
G01 X91.1070 Y58.5163
G01 X91.0840 Y58.5220
G01 X91.0615 Y58.5264
G01 X91.0380 Y58.5300
G01 X91.0153 Y58.5329
G01 X90.9924 Y58.5345
G01 X90.9572 Y58.5357
G01 X90.4810 Y58.5357
G01 X90.4581 Y58.5351
G01 X90.4230 Y58.5329
G01 X90.3881 Y58.5282
G01 X90.3655 Y58.5243
G01 X90.3543 Y58.5220
G01 X90.3202 Y58.5134
G01 X90.2982 Y58.5067
G01 X90.2874 Y58.5030
G01 X90.2545 Y58.4906
G01 X90.2335 Y58.4813
G01 X90.2121 Y58.4711
G01 X90.1892 Y58.4587
G01 X90.0373 Y58.5091
G01 X90.0123 Y58.5161
G01 X89.9880 Y58.5221
G01 X89.9758 Y58.5246
G01 X89.9502 Y58.5290
G01 X89.9254 Y58.5323
G01 X89.9129 Y58.5335
G01 X89.8745 Y58.5355
G01 X89.7668 Y58.5357
G01 X89.7417 Y58.5350
G01 X89.7158 Y58.5335
G01 X89.6909 Y58.5308
G01 X89.6530 Y58.5246
G01 X89.6285 Y58.5193
G01 X89.6035 Y58.5126
G01 X89.5795 Y58.5053
G01 X89.4367 Y58.4577
G01 X89.4055 Y58.4462
G01 X89.3855 Y58.4379
G01 X89.3659 Y58.4288
G01 X89.3458 Y58.4187
G01 X89.3269 Y58.4082
G01 X89.3078 Y58.3965
G01 X89.2896 Y58.3847
G01 X89.2628 Y58.3651
G01 X89.2444 Y58.3504
G01 X89.2262 Y58.3690
G01 X89.2091 Y58.3849
G01 X89.1817 Y58.4080
G01 X89.1631 Y58.4221
G01 X89.1432 Y58.4358
G01 X89.1236 Y58.4485
G01 X89.1034 Y58.4602
G01 X89.0717 Y58.4768
G01 X89.0505 Y58.4865
G01 X89.0173 Y58.4999
G01 X88.9832 Y58.5110
G01 X88.9608 Y58.5173
G01 X88.9380 Y58.5225
G01 X88.9028 Y58.5291
G01 X88.8796 Y58.5320
G01 X88.8556 Y58.5342
G01 X88.8323 Y58.5354
G01 X88.7965 Y58.5354
G01 X88.7732 Y58.5342
G01 X88.7375 Y58.5307
G01 X88.7145 Y58.5272
G01 X88.6793 Y58.5201
G01 X88.6567 Y58.5143
G01 X88.6225 Y58.5037
G01 X88.6006 Y58.4957
G01 X88.5676 Y58.4818
G01 X88.5466 Y58.4716
G01 X88.5151 Y58.4545
G01 X88.4952 Y58.4423
G01 X88.4657 Y58.4221
G01 X88.4471 Y58.4080
G01 X88.4259 Y58.3903
G01 X88.4094 Y58.4008
G01 X88.3986 Y58.4071
G01 X88.3760 Y58.4198
G01 X88.3649 Y58.4256
G01 X88.2599 Y58.4779
G01 X88.2395 Y58.4871
G01 X88.2195 Y58.4954
G01 X88.1991 Y58.5028
G01 X88.1778 Y58.5098
G01 X88.1570 Y58.5158
G01 X88.1352 Y58.5211
G01 X88.1247 Y58.5234
G01 X88.1034 Y58.5274
G01 X88.0812 Y58.5307
G01 X88.0597 Y58.5332
G01 X88.0265 Y58.5352
G01 X88.0049 Y58.5357
G01 X87.6124 Y58.5356
G01 X87.5887 Y58.5345
G01 X87.5659 Y58.5329
G01 X87.5310 Y58.5282
G01 X87.5197 Y58.5264
G01 X87.4972 Y58.5220
G01 X87.4741 Y58.5163
G01 X87.4572 Y58.5117
G01 X87.4404 Y58.5163
G01 X87.4173 Y58.5220
G01 X87.3948 Y58.5264
G01 X87.3835 Y58.5282
G01 X87.3486 Y58.5329
G01 X87.3257 Y58.5345
G01 X87.3020 Y58.5356
G01 X86.7077 Y58.5356
G01 X86.6840 Y58.5345
G01 X86.6611 Y58.5329
G01 X86.6262 Y58.5282
G01 X86.6036 Y58.5243
G01 X86.5924 Y58.5220
G01 X86.5694 Y58.5163
G01 X86.5473 Y58.5102
G01 X86.5255 Y58.5030
G01 X86.5032 Y58.4949
G01 X86.4820 Y58.4861
G01 X86.4716 Y58.4813
G01 X86.4400 Y58.4658
G01 X86.4201 Y58.4545
G01 X86.3998 Y58.4422
G01 X86.3807 Y58.4294
G01 X86.3616 Y58.4154
G01 X86.3525 Y58.4085
G01 X86.3348 Y58.3939
G01 X86.3171 Y58.3781
G01 X86.3005 Y58.3623
G01 X86.2847 Y58.3457
G01 X86.2688 Y58.3280
G01 X86.2615 Y58.3192
G01 X86.2474 Y58.3012
G01 X86.2333 Y58.2820
G01 X86.2206 Y58.2630
G01 X86.2083 Y58.2427
G01 X86.1970 Y58.2227
G01 X86.1829 Y58.1942
G01 X86.1726 Y58.2114
G01 X86.1664 Y58.2210
G01 X86.1529 Y58.2406
G01 X86.1393 Y58.2590
G01 X86.1168 Y58.2861
G01 X86.1092 Y58.2947
G01 X86.0935 Y58.3113
G01 X86.0764 Y58.3278
G01 X86.0595 Y58.3433
G01 X86.0321 Y58.3655
G01 X86.0230 Y58.3724
G01 X86.0043 Y58.3857
G01 X85.9844 Y58.3985
G01 X85.9647 Y58.4104
G01 X85.9446 Y58.4212
G01 X85.9233 Y58.4318
G01 X85.9024 Y58.4412
G01 X85.8803 Y58.4499
G01 X85.8588 Y58.4577
G01 X85.7159 Y58.5053
G01 X85.7040 Y58.5091
G01 X85.6790 Y58.5161
G01 X85.6547 Y58.5221
G01 X85.6424 Y58.5246
G01 X85.6169 Y58.5290
G01 X85.5920 Y58.5323
G01 X85.5796 Y58.5335
G01 X85.5537 Y58.5350
G01 X85.5287 Y58.5357
G01 X85.2797 Y58.5356
G01 X85.2573 Y58.5347
G01 X85.2357 Y58.5332
G01 X85.2028 Y58.5290
G01 X85.1814 Y58.5255
G01 X85.1602 Y58.5211
G01 X85.1280 Y58.5129
G01 X85.0963 Y58.5028
G01 X85.0760 Y58.4954
G01 X85.0659 Y58.4914
G01 X85.0454 Y58.4824
G01 X85.0258 Y58.4732
G01 X84.9305 Y58.4256
G01 X84.9085 Y58.4138
G01 X84.8858 Y58.4007
G01 X84.8522 Y58.4198
G01 X84.7458 Y58.4732
G01 X84.7157 Y58.4871
G01 X84.6957 Y58.4954
G01 X84.6855 Y58.4992
G01 X84.6643 Y58.5065
G01 X84.6436 Y58.5129
G01 X84.6227 Y58.5184
G01 X84.6008 Y58.5234
G01 X84.5796 Y58.5274
G01 X84.5574 Y58.5307
G01 X84.5359 Y58.5332
G01 X84.5143 Y58.5347
G01 X84.4810 Y58.5357
G01 X84.2906 Y58.5357
G01 X84.2740 Y58.5354
G01 X84.2537 Y58.5345
G01 X84.2275 Y58.5323
G01 X84.2073 Y58.5298
G01 X84.1847 Y58.5261
G01 X84.1589 Y58.5208
G01 X84.1281 Y58.5130
G01 X84.1029 Y58.5051
G01 X84.0730 Y58.4943
G01 X84.0488 Y58.4840
G01 X84.0258 Y58.4732
G01 X83.9521 Y58.4364
G01 X83.9314 Y58.4494
G01 X83.9120 Y58.4609
G01 X83.8920 Y58.4714
G01 X83.8607 Y58.4863
G01 X83.8399 Y58.4948
G01 X83.8180 Y58.5030
G01 X83.7965 Y58.5099
G01 X83.7740 Y58.5162
G01 X83.7521 Y58.5216
G01 X83.7300 Y58.5260
G01 X83.7070 Y58.5298
G01 X83.6846 Y58.5326
G01 X83.6613 Y58.5344
G01 X83.6388 Y58.5355
G01 X83.6041 Y58.5353
G01 X83.5816 Y58.5342
G01 X83.5592 Y58.5320
G01 X83.5360 Y58.5291
G01 X83.5137 Y58.5253
G01 X83.5027 Y58.5230
G01 X83.4690 Y58.5151
G01 X83.4474 Y58.5087
G01 X83.4252 Y58.5013
G01 X83.4041 Y58.4934
G01 X83.3826 Y58.4842
G01 X83.3621 Y58.4747
G01 X83.3521 Y58.4696
G01 X83.3218 Y58.4528
G01 X83.3026 Y58.4409
G01 X83.2906 Y58.4328
G01 X83.2785 Y58.4409
G01 X83.2593 Y58.4528
G01 X83.2290 Y58.4696
G01 X83.2190 Y58.4747
G01 X83.1985 Y58.4842
G01 X83.1770 Y58.4934
G01 X83.1559 Y58.5013
G01 X83.1230 Y58.5120
G01 X83.1012 Y58.5179
G01 X83.0902 Y58.5205
G01 X83.0563 Y58.5274
G01 X83.0340 Y58.5306
G01 X83.0108 Y58.5332
G01 X82.9995 Y58.5342
G01 X82.9770 Y58.5353
G01 X82.9424 Y58.5355
G01 X82.9198 Y58.5344
G01 X82.8966 Y58.5326
G01 X82.8854 Y58.5313
G01 X82.8630 Y58.5280
G01 X82.8290 Y58.5216
G01 X82.8071 Y58.5162
G01 X82.7846 Y58.5099
G01 X82.7738 Y58.5066
G01 X82.7526 Y58.4991
G01 X82.7308 Y58.4907
G01 X82.7191 Y58.4857
G01 X82.7076 Y58.4906
G01 X82.6862 Y58.4989
G01 X82.6529 Y58.5102
G01 X82.6308 Y58.5163
G01 X82.6078 Y58.5220
G01 X82.5966 Y58.5243
G01 X82.5740 Y58.5282
G01 X82.5391 Y58.5329
G01 X82.5162 Y58.5345
G01 X82.4925 Y58.5356
G01 X82.4696 Y58.5356
G01 X82.4581 Y58.5351
G01 X82.4230 Y58.5329
G01 X82.4003 Y58.5300
G01 X82.3655 Y58.5243
G01 X82.3313 Y58.5163
G01 X82.3092 Y58.5102
G01 X82.2874 Y58.5030
G01 X82.2545 Y58.4906
G01 X82.2224 Y58.4761
G01 X82.1953 Y58.4621
G01 X82.1772 Y58.4718
G01 X82.1567 Y58.4816
G01 X82.1352 Y58.4910
G01 X82.1141 Y58.4992
G01 X82.0919 Y58.5068
G01 X82.0702 Y58.5135
G01 X82.0482 Y58.5191
G01 X82.0142 Y58.5264
G01 X81.9797 Y58.5314
G01 X81.9572 Y58.5338
G01 X81.9345 Y58.5351
G01 X81.9110 Y58.5357
G01 X81.8884 Y58.5353
G01 X81.8649 Y58.5339
G01 X81.8423 Y58.5319
G01 X81.8232 Y58.5292
G01 X81.8023 Y58.5385
G01 X81.7916 Y58.5427
G01 X81.7585 Y58.5546
G01 X81.7366 Y58.5612
G01 X81.7255 Y58.5641
G01 X81.6912 Y58.5721
G01 X81.6686 Y58.5760
G01 X81.6337 Y58.5805
G01 X81.5986 Y58.5828
G01 X81.5871 Y58.5832
G01 X81.5642 Y58.5832
G01 X81.5405 Y58.5821
G01 X81.5176 Y58.5804
G01 X81.4827 Y58.5758
G01 X81.4602 Y58.5718
G01 X81.4378 Y58.5668
G01 X81.4148 Y58.5609
G01 X81.3929 Y58.5542
G01 X81.3705 Y58.5463
G01 X81.3491 Y58.5380
G01 X81.3282 Y58.5287
G01 X81.3068 Y58.5184
G01 X81.2866 Y58.5076
G01 X81.2662 Y58.4955
G01 X81.2468 Y58.4832
G01 X81.2281 Y58.4700
G01 X81.2091 Y58.4557
G01 X81.1914 Y58.4411
G01 X81.1829 Y58.4335
G01 X81.1572 Y58.4095
G01 X81.1332 Y58.3837
G01 X81.1256 Y58.3752
G01 X81.1111 Y58.3574
G01 X81.0968 Y58.3384
G01 X81.0836 Y58.3197
G01 X80.9285 Y58.0869
G01 X80.9096 Y58.1243
G01 X80.8970 Y58.1469
G01 X80.8840 Y58.1683
G01 X80.8771 Y58.1788
G01 X80.8621 Y58.1999
G01 X80.8469 Y58.2198
G01 X80.8389 Y58.2295
G01 X80.8132 Y58.2581
G01 X80.7479 Y58.3234
G01 X80.7287 Y58.3408
G01 X80.7096 Y58.3571
G01 X80.6998 Y58.3648
G01 X80.6788 Y58.3801
G01 X80.6686 Y58.3873
G01 X80.6475 Y58.4008
G01 X80.6141 Y58.4198
G01 X80.4980 Y58.4779
G01 X80.4776 Y58.4871
G01 X80.4576 Y58.4954
G01 X80.4372 Y58.5028
G01 X80.4159 Y58.5098
G01 X80.3951 Y58.5158
G01 X80.3733 Y58.5211
G01 X80.3627 Y58.5234
G01 X80.3415 Y58.5274
G01 X80.3193 Y58.5307
G01 X80.2978 Y58.5332
G01 X80.2646 Y58.5352
G01 X80.2430 Y58.5357
G01 X79.8620 Y58.5357
G01 X79.8391 Y58.5351
G01 X79.8154 Y58.5338
G01 X79.7926 Y58.5316
G01 X79.7578 Y58.5264
G01 X79.7353 Y58.5220
G01 X79.7122 Y58.5163
G01 X79.6901 Y58.5102
G01 X79.6684 Y58.5030
G01 X79.6461 Y58.4949
G01 X79.6239 Y58.4857
G01 X79.6124 Y58.4906
G01 X79.5910 Y58.4989
G01 X79.5577 Y58.5102
G01 X79.5237 Y58.5193
G01 X79.5125 Y58.5220
G01 X79.4901 Y58.5264
G01 X79.4552 Y58.5316
G01 X79.4324 Y58.5338
G01 X79.4210 Y58.5345
G01 X79.3858 Y58.5357
G01 X79.3506 Y58.5345
G01 X79.3278 Y58.5329
G01 X79.3164 Y58.5316
G01 X79.2816 Y58.5264
G01 X79.2591 Y58.5220
G01 X79.2249 Y58.5134
G01 X79.2030 Y58.5067
G01 X79.1922 Y58.5030
G01 X79.1592 Y58.4906
G01 X79.1272 Y58.4761
G01 X79.1000 Y58.4621
G01 X79.0819 Y58.4718
G01 X79.0718 Y58.4768
G01 X79.0504 Y58.4865
G01 X79.0295 Y58.4953
G01 X79.0081 Y58.5030
G01 X78.9858 Y58.5103
G01 X78.9749 Y58.5135
G01 X78.9530 Y58.5191
G01 X78.9189 Y58.5264
G01 X78.8965 Y58.5299
G01 X78.8732 Y58.5327
G01 X78.8506 Y58.5346
G01 X78.8393 Y58.5351
G01 X78.8158 Y58.5357
G01 X78.7931 Y58.5353
G01 X78.7697 Y58.5339
G01 X78.7471 Y58.5319
G01 X78.7127 Y58.5268
G01 X78.6904 Y58.5226
G01 X78.6793 Y58.5201
G01 X78.6456 Y58.5111
G01 X78.6238 Y58.5042
G01 X78.6020 Y58.4962
G01 X78.5914 Y58.4921
G01 X78.5706 Y58.4831
G01 X78.5393 Y58.4679
G01 X78.5194 Y58.4570
G01 X78.5072 Y58.4496
G01 X78.4504 Y58.4779
G01 X78.4299 Y58.4871
G01 X78.4099 Y58.4954
G01 X78.3786 Y58.5065
G01 X78.3683 Y58.5098
G01 X78.3475 Y58.5158
G01 X78.3151 Y58.5234
G01 X78.2939 Y58.5274
G01 X78.2609 Y58.5320
G01 X78.2394 Y58.5340
G01 X78.2286 Y58.5347
G01 X78.1953 Y58.5357
G01 X77.8144 Y58.5357
G01 X77.7792 Y58.5345
G01 X77.7563 Y58.5329
G01 X77.7336 Y58.5300
G01 X77.7101 Y58.5264
G01 X77.6877 Y58.5220
G01 X77.6646 Y58.5163
G01 X77.6425 Y58.5102
G01 X77.6207 Y58.5030
G01 X77.5878 Y58.4906
G01 X77.5557 Y58.4761
G01 X77.5353 Y58.4658
G01 X77.5153 Y58.4545
G01 X77.4950 Y58.4422
G01 X77.4760 Y58.4294
G01 X77.4477 Y58.4085
G01 X77.4300 Y58.3939
G01 X77.4125 Y58.3783
G01 X77.4127 Y58.8162
G01 X77.4182 Y58.8372
G01 X77.4229 Y58.8599
G01 X77.4265 Y58.8828
G01 X77.4278 Y58.8944
G01 X77.4297 Y58.9175
G01 X77.4302 Y58.9291
G01 X77.4304 Y58.9523
G01 X77.4300 Y58.9639
G01 X77.4284 Y58.9870
G01 X77.4257 Y59.0100
G01 X77.4156 Y59.0803
G01 X77.4138 Y59.0918
G01 X77.4094 Y59.1145
G01 X77.4038 Y59.1370
G01 X77.4006 Y59.1482
G01 X77.3934 Y59.1702
G01 X77.3851 Y59.1919
G01 X77.3757 Y59.2131
G01 X77.3653 Y59.2338
G01 X77.3539 Y59.2540
G01 X77.3414 Y59.2736
G01 X77.3349 Y59.2832
G01 X77.3210 Y59.3018
G01 X77.3138 Y59.3108
G01 X77.2598 Y59.3733
G01 X77.2521 Y59.3820
G01 X77.2360 Y59.3988
G01 X77.2192 Y59.4147
G01 X77.2105 Y59.4223
G01 X77.1925 Y59.4370
G01 X77.1738 Y59.4507
G01 X77.1642 Y59.4572
G01 X77.1544 Y59.4635
G01 X77.1345 Y59.4753
G01 X77.1139 Y59.4861
G01 X77.0929 Y59.4959
G01 X77.0822 Y59.5003
G01 X77.0714 Y59.5046
G01 X77.0495 Y59.5122
G01 X76.9703 Y59.5356
G01 X76.9596 Y59.5386
G01 X76.9380 Y59.5438
G01 X76.9162 Y59.5481
G01 X76.8942 Y59.5512
G01 X76.8720 Y59.5533
G01 X76.8498 Y59.5544
G01 X0.8510 Y59.5545
G01 X0.8288 Y59.5540
G01 X0.8177 Y59.5533
G01 X0.7956 Y59.5512
G01 X0.7736 Y59.5481
G01 X0.7517 Y59.5438
G01 X0.6994 Y59.5325
G01 X0.6767 Y59.5269
G01 X0.6543 Y59.5203
G01 X0.6433 Y59.5165
G01 X0.6215 Y59.5082
G01 X0.6107 Y59.5037
G01 X0.6001 Y59.4988
G01 X0.5792 Y59.4884
G01 X0.5589 Y59.4769
G01 X0.5490 Y59.4708
G01 X0.5392 Y59.4644
G01 X0.5201 Y59.4510
G01 X0.5017 Y59.4366
G01 X0.4392 Y59.3826
G01 X0.4220 Y59.3670
G01 X0.4137 Y59.3588
G01 X0.3978 Y59.3420
G01 X0.3902 Y59.3333
G01 X0.3827 Y59.3244
G01 X0.3685 Y59.3060
G01 X0.3618 Y59.2966
G01 X0.3490 Y59.2772
G01 X0.3372 Y59.2572
G01 X0.3264 Y59.2367
G01 X0.3166 Y59.2157
G01 X0.3079 Y59.1942
G01 X0.3040 Y59.1833
G01 X0.2969 Y59.1612
G01 X0.2739 Y59.0824
G01 X0.2711 Y59.0716
G01 X0.2664 Y59.0499
G01 X0.2644 Y59.0389
G01 X0.2613 Y59.0169
G01 X0.2592 Y58.9948
G01 X0.2581 Y58.9726
G01 X0.2580 Y58.9615
G01 X0.2580 Y1.4295
G01 X0.2585 Y1.4073
G01 X0.2601 Y1.3851
G01 X0.2627 Y1.3630
G01 X0.2644 Y1.3521
G01 X0.2687 Y1.3302
G00 Z2.0000
G00 X0.4368 Y1.3668
G01 F50.00
G01 Z-0.1300
G01 F80.00
G01 X0.4498 Y1.3073
G01 X0.4559 Y1.2860
G01 X0.4608 Y1.2721
G01 X0.4664 Y1.2585
G01 X0.4726 Y1.2451
G01 X0.4796 Y1.2321
G01 X0.4911 Y1.2133
G01 X0.4996 Y1.2012
G01 X0.5087 Y1.1896
G01 X0.5648 Y1.1249
G01 X0.5750 Y1.1143
G01 X0.5911 Y1.0994
G01 X0.6025 Y1.0901
G01 X0.6143 Y1.0815
G01 X0.6265 Y1.0734
G01 X0.6391 Y1.0659
G01 X0.6521 Y1.0591
G01 X0.6654 Y1.0530
G01 X0.6858 Y1.0450
G01 X0.6998 Y1.0405
G01 X0.7679 Y1.0205
G01 X0.7883 Y1.0153
G01 X0.8090 Y1.0115
G01 X0.8230 Y1.0099
G01 X0.8370 Y1.0089
G01 X0.8510 Y1.0085
G01 X93.4985 Y1.0085
G01 X93.5195 Y1.0093
G01 X93.5335 Y1.0106
G01 X93.5474 Y1.0126
G01 X93.5612 Y1.0153
G01 X93.6135 Y1.0267
G01 X93.6279 Y1.0302
G01 X93.6490 Y1.0367
G01 X93.6695 Y1.0449
G01 X93.6894 Y1.0545
G01 X93.7085 Y1.0656
G01 X93.7268 Y1.0781
G01 X93.7384 Y1.0872
G01 X93.7977 Y1.1385
G01 X93.8085 Y1.1483
G01 X93.8238 Y1.1641
G01 X93.8379 Y1.1810
G01 X93.8506 Y1.1988
G01 X93.8584 Y1.2113
G01 X93.8655 Y1.2241
G01 X93.8720 Y1.2372
G01 X93.8779 Y1.2506
G01 X93.8830 Y1.2643
G01 X93.8875 Y1.2783
G01 X93.9094 Y1.3532
G01 X93.9127 Y1.3668
G01 X93.9165 Y1.3875
G01 X93.9187 Y1.4085
G01 X93.9195 Y1.4295
G01 X93.9195 Y58.9615
G01 X93.9187 Y58.9825
G01 X93.9174 Y58.9965
G01 X93.9154 Y59.0104
G01 X93.9127 Y59.0242
G01 X93.9013 Y59.0765
G01 X93.8978 Y59.0909
G01 X93.8913 Y59.1120
G01 X93.8831 Y59.1325
G01 X93.8735 Y59.1524
G01 X93.8624 Y59.1715
G01 X93.8499 Y59.1898
G01 X93.8408 Y59.2014
G01 X93.7895 Y59.2607
G01 X93.7797 Y59.2715
G01 X93.7693 Y59.2818
G01 X93.7528 Y59.2963
G01 X93.7412 Y59.3053
G01 X93.7292 Y59.3136
G01 X93.7167 Y59.3214
G01 X93.6974 Y59.3319
G01 X93.6841 Y59.3380
G01 X93.6706 Y59.3435
G01 X93.6497 Y59.3505
G01 X93.5816 Y59.3705
G01 X93.5612 Y59.3757
G01 X93.5474 Y59.3784
G01 X93.5335 Y59.3804
G01 X93.5195 Y59.3817
G01 X93.4985 Y59.3825
G01 X92.8883 Y59.3825
G01 X92.8742 Y59.3821
G01 X92.8493 Y59.3804
G01 X92.8284 Y59.3782
G01 X92.8145 Y59.3758
G01 X92.8008 Y59.3729
G01 X92.7872 Y59.3692
G01 X92.7739 Y59.3650
G01 X92.7542 Y59.3574
G01 X92.6832 Y59.3250
G01 X92.6636 Y59.3152
G01 X92.6509 Y59.3078
G01 X92.6387 Y59.2998
G01 X92.6268 Y59.2912
G01 X92.6154 Y59.2820
G01 X92.5991 Y59.2672
G01 X92.5889 Y59.2567
G01 X92.5793 Y59.2457
G01 X92.5702 Y59.2342
G01 X92.5576 Y59.2162
G01 X92.5154 Y59.1503
G01 X92.5047 Y59.1311
G01 X92.4983 Y59.1179
G01 X92.4927 Y59.1044
G01 X92.4854 Y59.0836
G01 X92.4798 Y59.0624
G01 X92.4769 Y59.0480
G01 X92.4747 Y59.0335
G01 X92.4728 Y59.0116
G01 X92.4724 Y58.9970
G01 X92.4724 Y58.9260
G01 X92.4732 Y58.9050
G01 X92.4754 Y58.8840
G01 X92.4792 Y58.8633
G01 X92.4825 Y58.8497
G01 X92.4863 Y58.8365
G01 X92.4863 Y52.9700
G01 X77.2379 Y52.9700
G01 X77.2407 Y58.8429
G01 X77.2469 Y58.8622
G01 X77.2506 Y58.8764
G01 X77.2536 Y58.8907
G01 X77.2559 Y58.9052
G01 X77.2574 Y58.9198
G01 X77.2582 Y58.9344
G01 X77.2583 Y58.9491
G01 X77.2577 Y58.9637
G01 X77.2554 Y58.9855
G01 X77.2453 Y59.0558
G01 X77.2428 Y59.0703
G01 X77.2378 Y59.0917
G01 X77.2336 Y59.1057
G01 X77.2287 Y59.1195
G01 X77.2231 Y59.1330
G01 X77.2169 Y59.1463
G01 X77.2100 Y59.1592
G01 X77.1984 Y59.1779
G01 X77.1900 Y59.1899
G01 X77.1762 Y59.2070
G01 X77.1297 Y59.2607
G01 X77.1199 Y59.2715
G01 X77.1095 Y59.2818
G01 X77.0986 Y59.2916
G01 X77.0872 Y59.3009
G01 X77.0754 Y59.3095
G01 X77.0632 Y59.3176
G01 X77.0506 Y59.3251
G01 X77.0376 Y59.3319
G01 X77.0243 Y59.3380
G01 X77.0108 Y59.3435
G01 X76.9969 Y59.3484
G01 X76.9150 Y59.3724
G01 X76.9014 Y59.3757
G01 X76.8876 Y59.3784
G01 X76.8737 Y59.3804
G01 X76.8597 Y59.3817
G01 X76.8387 Y59.3825
G01 X0.8510 Y59.3825
G01 X0.8370 Y59.3821
G01 X0.8230 Y59.3811
G01 X0.8021 Y59.3784
G01 X0.7883 Y59.3757
G01 X0.7360 Y59.3643
G01 X0.7216 Y59.3608
G01 X0.7005 Y59.3543
G01 X0.6800 Y59.3461
G01 X0.6601 Y59.3365
G01 X0.6410 Y59.3254
G01 X0.6287 Y59.3172
G01 X0.6111 Y59.3038
G01 X0.5518 Y59.2525
G01 X0.5410 Y59.2427
G01 X0.5257 Y59.2269
G01 X0.5162 Y59.2158
G01 X0.5030 Y59.1982
G01 X0.4911 Y59.1797
G01 X0.4840 Y59.1669
G01 X0.4775 Y59.1538
G01 X0.4716 Y59.1404
G01 X0.4665 Y59.1267
G01 X0.4620 Y59.1127
G01 X0.4401 Y59.0378
G01 X0.4354 Y59.0173
G01 X0.4330 Y59.0035
G01 X0.4308 Y58.9825
G01 X0.4300 Y58.9615
G01 X0.4300 Y1.4295
G01 X0.4304 Y1.4155
G01 X0.4321 Y1.3945
G01 X0.4341 Y1.3806
G01 X0.4368 Y1.3668
G00 Z2.0000
G00 X0.6049 Y1.4034
G01 F50.00
G01 Z-0.1300
G01 F80.00
G01 X0.6177 Y1.3451
G01 X0.6227 Y1.3305
G01 X0.6294 Y1.3167
G01 X0.6359 Y1.3063
G01 X0.6415 Y1.2990
G01 X0.6900 Y1.2430
G01 X0.7007 Y1.2321
G01 X0.7101 Y1.2244
G01 X0.7203 Y1.2177
G01 X0.7311 Y1.2120
G01 X0.7424 Y1.2074
G01 X0.8220 Y1.1841
G01 X0.8364 Y1.1815
G01 X0.8510 Y1.1806
G01 X93.4985 Y1.1806
G01 X93.5102 Y1.1812
G01 X93.5218 Y1.1828
G01 X93.5829 Y1.1962
G01 X93.5917 Y1.1990
G01 X93.6003 Y1.2024
G01 X93.6086 Y1.2064
G01 X93.6165 Y1.2110
G01 X93.6290 Y1.2200
G01 X93.6895 Y1.2726
G01 X93.6959 Y1.2792
G01 X93.7017 Y1.2862
G01 X93.7103 Y1.2988
G01 X93.7160 Y1.3096
G01 X93.7215 Y1.3238
G01 X93.7424 Y1.3949
G01 X93.7446 Y1.4034
G01 X93.7461 Y1.4120
G01 X93.7471 Y1.4207
G01 X93.7474 Y1.4295
G01 X93.7474 Y58.9615
G01 X93.7468 Y58.9732
G01 X93.7452 Y58.9848
G01 X93.7318 Y59.0459
G01 X93.7290 Y59.0547
G01 X93.7256 Y59.0633
G01 X93.7216 Y59.0716
G01 X93.7170 Y59.0795
G01 X93.7080 Y59.0920
G01 X93.6575 Y59.1503
G01 X93.6465 Y59.1609
G01 X93.6343 Y59.1701
G01 X93.6211 Y59.1777
G01 X93.6071 Y59.1836
G01 X93.5331 Y59.2054
G01 X93.5189 Y59.2087
G01 X93.5102 Y59.2098
G01 X93.4985 Y59.2104
G01 X92.8824 Y59.2103
G01 X92.8587 Y59.2086
G01 X92.8500 Y59.2074
G01 X92.8385 Y59.2049
G01 X92.8274 Y59.2014
G01 X92.8193 Y59.1980
G01 X92.7519 Y59.1672
G01 X92.7387 Y59.1597
G01 X92.7288 Y59.1525
G01 X92.7219 Y59.1465
G01 X92.7154 Y59.1401
G01 X92.7058 Y59.1282
G01 X92.6624 Y59.0609
G01 X92.6566 Y59.0501
G01 X92.6529 Y59.0417
G01 X92.6490 Y59.0302
G01 X92.6463 Y59.0183
G01 X92.6451 Y59.0092
G01 X92.6445 Y59.0000
G01 X92.6445 Y58.9260
G01 X92.6448 Y58.9172
G01 X92.6462 Y58.9056
G01 X92.6479 Y58.8970
G01 X92.6583 Y58.8613
G01 X92.6583 Y52.7979
G01 X77.0657 Y52.7979
G01 X77.0657 Y58.8703
G01 X77.0663 Y58.8729
G01 X77.0776 Y58.8981
G01 X77.0824 Y58.9126
G01 X77.0843 Y58.9216
G01 X77.0856 Y58.9306
G01 X77.0863 Y58.9398
G01 X77.0862 Y58.9489
G01 X77.0851 Y58.9611
G01 X77.0745 Y59.0343
G01 X77.0710 Y59.0492
G01 X77.0657 Y59.0635
G01 X77.0587 Y59.0770
G01 X77.0501 Y59.0896
G01 X76.9977 Y59.1503
G01 X76.9867 Y59.1609
G01 X76.9771 Y59.1683
G01 X76.9640 Y59.1763
G01 X76.9530 Y59.1814
G01 X76.9415 Y59.1854
G01 X76.8705 Y59.2062
G01 X76.8620 Y59.2082
G01 X76.8504 Y59.2098
G01 X76.8387 Y59.2104
G01 X0.8510 Y59.2104
G01 X0.8393 Y59.2098
G01 X0.8277 Y59.2082
G01 X0.7666 Y59.1948
G01 X0.7578 Y59.1920
G01 X0.7492 Y59.1886
G01 X0.7409 Y59.1846
G01 X0.7330 Y59.1800
G01 X0.7205 Y59.1710
G01 X0.6600 Y59.1184
G01 X0.6536 Y59.1118
G01 X0.6478 Y59.1048
G01 X0.6392 Y59.0922
G01 X0.6323 Y59.0786
G01 X0.6280 Y59.0672
G01 X0.6071 Y58.9961
G01 X0.6049 Y58.9876
G01 X0.6034 Y58.9790
G01 X0.6024 Y58.9703
G01 X0.6021 Y58.9615
G01 X0.6021 Y1.4295
G01 X0.6027 Y1.4178
G01 X0.6049 Y1.4034
G00 Z2.0000
G00 X9.3158 Y2.5252
G01 F50.00
G01 Z-0.1300
G01 F80.00
G01 X9.3629 Y2.3839
G01 X9.4408 Y2.2579
G01 X9.5456 Y2.1533
G01 X9.6717 Y2.0756
G01 X9.8133 Y2.0286
G01 X9.8980 Y2.0199
G01 X10.1901 Y2.0199
G01 X10.1901 Y2.2821
G01 X9.9420 Y2.2821
G01 X9.9115 Y2.2835
G01 X9.9025 Y2.2842
G01 X9.8752 Y2.2882
G01 X9.8663 Y2.2899
G01 X9.8366 Y2.2973
G01 X9.8280 Y2.3000
G01 X9.7993 Y2.3105
G01 X9.7716 Y2.3234
G01 X9.7636 Y2.3276
G01 X9.7374 Y2.3433
G01 X9.7299 Y2.3484
G01 X9.7054 Y2.3667
G01 X9.6827 Y2.3872
G01 X9.6742 Y2.3957
G01 X9.6537 Y2.4184
G01 X9.6354 Y2.4429
G01 X9.6287 Y2.4529
G01 X9.6117 Y2.4819
G01 X9.5987 Y2.5095
G01 X9.5953 Y2.5179
G01 X9.5852 Y2.5468
G01 X9.5769 Y2.5793
G01 X9.5716 Y2.6125
G01 X9.5706 Y2.6215
G01 X9.5691 Y2.6520
G01 X9.5691 Y2.6781
G01 X9.3069 Y2.6781
G01 X9.3069 Y2.6109
G01 X9.3158 Y2.5252
G00 Z2.0000
G00 X9.3069 Y3.4319
G01 F50.00
G01 Z-0.1300
G01 F80.00
G01 X9.5691 Y3.4319
G01 X9.5691 Y3.4580
G01 X9.5705 Y3.4855
G01 X9.5712 Y3.4945
G01 X9.5763 Y3.5277
G01 X9.5843 Y3.5604
G01 X9.5953 Y3.5921
G01 X9.5999 Y3.6032
G01 X9.6131 Y3.6308
G01 X9.6303 Y3.6596
G01 X9.6500 Y3.6868
G01 X9.6577 Y3.6961
G01 X9.6783 Y3.7187
G01 X9.7054 Y3.7433
G01 X9.7299 Y3.7616
G01 X9.7399 Y3.7683
G01 X9.7662 Y3.7839
G01 X9.7965 Y3.7983
G01 X9.8049 Y3.8017
G01 X9.8338 Y3.8118
G01 X9.8634 Y3.8194
G01 X9.8752 Y3.8218
G01 X9.9085 Y3.8264
G01 X9.9420 Y3.8279
G01 X10.1901 Y3.8279
G01 X10.1901 Y4.0901
G01 X9.8981 Y4.0901
G01 X9.8122 Y4.0812
G01 X9.6709 Y4.0341
G01 X9.5449 Y3.9562
G01 X9.4401 Y3.8512
G01 X9.3624 Y3.7251
G01 X9.3156 Y3.5837
G01 X9.3069 Y3.4992
G01 X9.3069 Y3.4319
G00 Z2.0000
G00 X10.9439 Y4.0901
G01 F50.00
G01 Z-0.1300
G01 F80.00
G01 X10.9439 Y3.8279
G01 X11.1920 Y3.8279
G01 X11.2255 Y3.8264
G01 X11.2345 Y3.8254
G01 X11.2647 Y3.8207
G01 X11.2944 Y3.8135
G01 X11.3060 Y3.8100
G01 X11.3375 Y3.7983
G01 X11.3678 Y3.7839
G01 X11.3941 Y3.7683
G01 X11.4041 Y3.7616
G01 X11.4286 Y3.7433
G01 X11.4557 Y3.7187
G01 X11.4763 Y3.6961
G01 X11.4840 Y3.6868
G01 X11.5037 Y3.6596
G01 X11.5209 Y3.6308
G01 X11.5341 Y3.6032
G01 X11.5387 Y3.5921
G01 X11.5497 Y3.5604
G01 X11.5577 Y3.5277
G01 X11.5628 Y3.4945
G01 X11.5635 Y3.4855
G01 X11.5649 Y3.4580
G01 X11.5649 Y3.4319
G01 X11.8271 Y3.4319
G01 X11.8271 Y3.4991
G01 X11.8182 Y3.5848
G01 X11.7711 Y3.7261
G01 X11.6930 Y3.8523
G01 X11.5882 Y3.9569
G01 X11.4621 Y4.0346
G01 X11.3207 Y4.0814
G01 X11.2360 Y4.0901
G01 X10.9439 Y4.0901
G00 Z2.0000
G00 X10.9439 Y2.2821
G01 F50.00
G01 Z-0.1300
G01 F80.00
G01 X10.9439 Y2.0199
G01 X11.2359 Y2.0199
G01 X11.3218 Y2.0288
G01 X11.4631 Y2.0759
G01 X11.5893 Y2.1540
G01 X11.6939 Y2.2588
G01 X11.7714 Y2.3847
G01 X11.8184 Y2.5263
G01 X11.8271 Y2.6108
G01 X11.8271 Y2.6781
G01 X11.5649 Y2.6781
G01 X11.5649 Y2.6520
G01 X11.5635 Y2.6245
G01 X11.5628 Y2.6155
G01 X11.5577 Y2.5823
G01 X11.5497 Y2.5496
G01 X11.5387 Y2.5179
G01 X11.5341 Y2.5068
G01 X11.5209 Y2.4792
G01 X11.5037 Y2.4504
G01 X11.4840 Y2.4232
G01 X11.4763 Y2.4139
G01 X11.4557 Y2.3913
G01 X11.4286 Y2.3667
G01 X11.4041 Y2.3484
G01 X11.3941 Y2.3417
G01 X11.3678 Y2.3261
G01 X11.3375 Y2.3117
G01 X11.3060 Y2.3000
G01 X11.2944 Y2.2965
G01 X11.2647 Y2.2893
G01 X11.2345 Y2.2846
G01 X11.2255 Y2.2836
G01 X11.1920 Y2.2821
G01 X10.9439 Y2.2821
G00 Z2.0000
G00 X14.6111 Y4.2681
G01 F50.00
G01 Z-0.1300
G01 F80.00
G01 X14.6888 Y4.0714
G01 X14.8018 Y3.8852
G01 X14.9448 Y3.7205
G01 X15.1136 Y3.5820
G01 X15.3031 Y3.4742
G01 X15.5081 Y3.3998
G01 X15.7250 Y3.3606
G01 X15.7390 Y3.3599
G01 X16.6671 Y3.3599
G01 X16.6671 Y3.6221
G01 X15.8380 Y3.6222
G01 X15.7437 Y3.6270
G01 X15.6504 Y3.6407
G01 X15.6386 Y3.6431
G01 X15.5471 Y3.6661
G01 X15.4526 Y3.7000
G01 X15.3672 Y3.7402
G01 X15.3566 Y3.7459
G01 X15.2757 Y3.7945
G01 X15.1998 Y3.8506
G01 X15.1905 Y3.8582
G01 X15.1251 Y3.9175
G01 X15.1165 Y3.9261
G01 X15.0533 Y3.9961
G01 X14.9935 Y4.0767
G01 X14.9419 Y4.1628
G01 X14.9014 Y4.2480
G01 X14.8978 Y4.2564
G01 X14.8936 Y4.2681
G01 X14.6111 Y4.2681
G00 Z2.0000
G00 X15.3334 Y6.0658
G01 F50.00
G01 Z-0.1300
G01 F80.00
G01 X15.3424 Y6.0465
G01 X15.3502 Y6.0260
G01 X15.3564 Y6.0049
G01 X15.3611 Y5.9834
G01 X15.3641 Y5.9617
G01 X15.3652 Y5.9471
G01 X15.3676 Y5.8615
G01 X15.3672 Y5.8468
G01 X15.3654 Y5.8249
G01 X15.3619 Y5.8032
G01 X15.3587 Y5.7889
G01 X15.3548 Y5.7748
G01 X15.3476 Y5.7541
G01 X15.3420 Y5.7405
G01 X15.3342 Y5.7246
G01 X15.3801 Y5.7461
G01 X15.3934 Y5.7517
G01 X15.4902 Y5.7863
G01 X15.5111 Y5.7924
G01 X15.6038 Y5.8155
G01 X15.6251 Y5.8195
G01 X15.7125 Y5.8324
G01 X15.7269 Y5.8342
G01 X15.7413 Y5.8353
G01 X15.8295 Y5.8396
G01 X15.8440 Y5.8400
G01 X18.2440 Y5.8400
G01 X18.2585 Y5.8396
G01 X18.3467 Y5.8353
G01 X18.3611 Y5.8342
G01 X18.3755 Y5.8324
G01 X18.4629 Y5.8195
G01 X18.4842 Y5.8155
G01 X18.5769 Y5.7924
G01 X18.5978 Y5.7863
G01 X18.6946 Y5.7517
G01 X18.7145 Y5.7431
G01 X18.7542 Y5.7244
G01 X18.7456 Y5.7429
G01 X18.7378 Y5.7634
G01 X18.7315 Y5.7845
G01 X18.7269 Y5.8059
G01 X18.7238 Y5.8277
G01 X18.7227 Y5.8423
G01 X18.7204 Y5.9279
G01 X18.7207 Y5.9426
G01 X18.7226 Y5.9645
G01 X18.7261 Y5.9862
G01 X18.7293 Y6.0004
G01 X18.7354 Y6.0215
G01 X18.7404 Y6.0353
G01 X18.7460 Y6.0488
G01 X18.7542 Y6.0656
G01 X18.7145 Y6.0469
G01 X18.6946 Y6.0383
G01 X18.5978 Y6.0037
G01 X18.5769 Y5.9976
G01 X18.4842 Y5.9745
G01 X18.4629 Y5.9705
G01 X18.3755 Y5.9576
G01 X18.3611 Y5.9558
G01 X18.3467 Y5.9547
G01 X18.2585 Y5.9504
G01 X18.2440 Y5.9500
G01 X15.8440 Y5.9500
G01 X15.8295 Y5.9504
G01 X15.7413 Y5.9547
G01 X15.7269 Y5.9558
G01 X15.7125 Y5.9576
G01 X15.6251 Y5.9705
G01 X15.6038 Y5.9745
G01 X15.5111 Y5.9976
G01 X15.4902 Y6.0037
G01 X15.3934 Y6.0383
G01 X15.3735 Y6.0469
G01 X15.3334 Y6.0658
G00 Z2.0000
G00 X16.3488 Y8.4310
G01 F50.00
G01 Z-0.1300
G01 F80.00
G01 X16.3348 Y8.4141
G01 X16.3195 Y8.3983
G01 X16.3087 Y8.3885
G01 X16.2526 Y8.3400
G01 X16.3488 Y8.3400
G01 X16.3488 Y8.4310
G00 Z2.0000
G00 X17.8302 Y8.3400
G01 F50.00
G01 Z-0.1300
G01 F80.00
G01 X17.8131 Y8.3542
G01 X17.7973 Y8.3695
G01 X17.7875 Y8.3803
G01 X17.7392 Y8.4361
G01 X17.7392 Y8.3400
G01 X17.8302 Y8.3400
G00 Z2.0000
G00 X17.4209 Y3.6221
G01 F50.00
G01 Z-0.1300
G01 F80.00
G01 X17.4209 Y3.3599
G01 X18.2988 Y3.3599
G01 X18.4614 Y3.3737
G01 X18.6723 Y3.4285
G01 X18.8713 Y3.5181
G01 X19.0522 Y3.6399
G01 X19.2099 Y3.7903
G01 X19.3402 Y3.9655
G01 X19.4389 Y4.1597
G01 X19.4726 Y4.2681
G01 X19.1944 Y4.2681
G01 X19.1902 Y4.2564
G01 X19.1866 Y4.2480
G01 X19.1461 Y4.1628
G01 X19.0945 Y4.0767
G01 X19.0347 Y3.9961
G01 X18.9715 Y3.9261
G01 X18.9629 Y3.9175
G01 X18.8975 Y3.8582
G01 X18.8882 Y3.8506
G01 X18.8123 Y3.7945
G01 X18.7314 Y3.7459
G01 X18.7208 Y3.7402
G01 X18.6354 Y3.7000
G01 X18.5409 Y3.6661
G01 X18.4494 Y3.6431
G01 X18.4376 Y3.6407
G01 X18.3443 Y3.6270
G01 X18.2500 Y3.6222
G01 X17.4209 Y3.6221
G00 Z2.0000
G00 X11.1871 Y7.1273
G01 F50.00
G01 Z-0.1300
G01 F80.00
G01 X11.1871 Y7.1000
G01 X11.2093 Y7.0995
G01 X11.1967 Y7.1144
G01 X11.1871 Y7.1273
G00 Z2.0000
G00 X11.2834 Y8.2310
G01 F50.00
G01 Z-0.1300
G01 F80.00
G01 X11.1871 Y8.2310
G01 X11.1871 Y8.1400
G01 X11.2012 Y8.1569
G01 X11.2165 Y8.1727
G01 X11.2273 Y8.1825
G01 X11.2834 Y8.2310
G00 Z2.0000
G00 X9.9469 Y8.1348
G01 F50.00
G01 Z-0.1300
G01 F80.00
G01 X9.9469 Y8.2310
G01 X9.8558 Y8.2310
G01 X9.8729 Y8.2168
G01 X9.8887 Y8.2015
G01 X9.8985 Y8.1907
G01 X9.9469 Y8.1348
G00 Z2.0000
G00 X9.9222 Y7.0993
G01 F50.00
G01 Z-0.1300
G01 F80.00
G01 X9.9469 Y7.1000
G01 X9.9469 Y7.1274
G01 X9.9328 Y7.1105
G01 X9.9222 Y7.0993
G00 Z2.0000
G00 X8.6673 Y9.3198
G01 F50.00
G01 Z-0.1300
G01 F80.00
G01 X8.6813 Y9.2264
G01 X8.7040 Y9.1349
G01 X8.7075 Y9.1233
G01 X8.7395 Y9.0346
G01 X8.7797 Y8.9492
G01 X8.7854 Y8.9386
G01 X8.8308 Y8.8628
G01 X8.8375 Y8.8528
G01 X8.8938 Y8.7771
G01 X8.9612 Y8.7027
G01 X9.0356 Y8.6353
G01 X9.1113 Y8.5790
G01 X9.1187 Y8.5738
G01 X9.2023 Y8.5239
G01 X9.2931 Y8.4810
G01 X9.3876 Y8.4471
G01 X9.4791 Y8.4241
G01 X9.4879 Y8.4222
G01 X9.5842 Y8.4080
G01 X9.6815 Y8.4031
G01 X10.1189 Y8.4031
G01 X10.1189 Y6.9279
G01 X9.9420 Y6.9279
G01 X9.9115 Y6.9265
G01 X9.9025 Y6.9258
G01 X9.8693 Y6.9207
G01 X9.8338 Y6.9118
G01 X9.7993 Y6.8995
G01 X9.7716 Y6.8866
G01 X9.7636 Y6.8824
G01 X9.7374 Y6.8667
G01 X9.7299 Y6.8616
G01 X9.7078 Y6.8451
G01 X9.7009 Y6.8393
G01 X9.6783 Y6.8187
G01 X9.6557 Y6.7939
G01 X9.6500 Y6.7868
G01 X9.6319 Y6.7622
G01 X9.6131 Y6.7308
G01 X9.5975 Y6.6977
G01 X9.5870 Y6.6690
G01 X9.5835 Y6.6574
G01 X9.5757 Y6.6248
G01 X9.5709 Y6.5916
G01 X9.5691 Y6.5580
G01 X9.5692 Y5.7490
G01 X9.5709 Y5.7184
G01 X9.5752 Y5.6882
G01 X9.5776 Y5.6764
G01 X9.5852 Y5.6468
G01 X9.5975 Y5.6123
G01 X9.6104 Y5.5846
G01 X9.6161 Y5.5740
G01 X9.6337 Y5.5453
G01 X9.6519 Y5.5208
G01 X9.6577 Y5.5139
G01 X9.6783 Y5.4913
G01 X9.7009 Y5.4707
G01 X9.7078 Y5.4649
G01 X9.7323 Y5.4467
G01 X9.7399 Y5.4417
G01 X9.7636 Y5.4276
G01 X9.7716 Y5.4234
G01 X9.7993 Y5.4105
G01 X9.8338 Y5.3982
G01 X9.8693 Y5.3893
G01 X9.8995 Y5.3846
G01 X9.9115 Y5.3835
G01 X9.9420 Y5.3821
G01 X11.1980 Y5.3822
G01 X11.2286 Y5.3839
G01 X11.2588 Y5.3882
G01 X11.2706 Y5.3906
G01 X11.3002 Y5.3982
G01 X11.3347 Y5.4105
G01 X11.3624 Y5.4234
G01 X11.3730 Y5.4291
G01 X11.4017 Y5.4467
G01 X11.4286 Y5.4667
G01 X11.4513 Y5.4872
G01 X11.4578 Y5.4935
G01 X11.4763 Y5.5139
G01 X11.4821 Y5.5208
G01 X11.5003 Y5.5453
G01 X11.5053 Y5.5529
G01 X11.5209 Y5.5792
G01 X11.5341 Y5.6068
G01 X11.5376 Y5.6151
G01 X11.5470 Y5.6410
G01 X11.5497 Y5.6496
G01 X11.5571 Y5.6793
G01 X11.5624 Y5.7125
G01 X11.5635 Y5.7245
G01 X11.5649 Y5.7550
G01 X11.5649 Y6.5550
G01 X11.5635 Y6.5855
G01 X11.5628 Y6.5945
G01 X11.5583 Y6.6248
G01 X11.5564 Y6.6336
G01 X11.5488 Y6.6632
G01 X11.5387 Y6.6921
G01 X11.5353 Y6.7005
G01 X11.5223 Y6.7281
G01 X11.5179 Y6.7360
G01 X11.5037 Y6.7596
G01 X11.4986 Y6.7671
G01 X11.4803 Y6.7916
G01 X11.4557 Y6.8187
G01 X11.4286 Y6.8433
G01 X11.4041 Y6.8616
G01 X11.3941 Y6.8683
G01 X11.3678 Y6.8839
G01 X11.3402 Y6.8971
G01 X11.3319 Y6.9006
G01 X11.3060 Y6.9100
G01 X11.2974 Y6.9127
G01 X11.2677 Y6.9201
G01 X11.2588 Y6.9218
G01 X11.2286 Y6.9261
G01 X11.1950 Y6.9279
G01 X11.0151 Y6.9279
G01 X11.0151 Y8.4031
G01 X12.0845 Y8.4031
G01 X12.1787 Y8.4076
G01 X12.1878 Y8.4084
G01 X12.2841 Y8.4228
G01 X12.3756 Y8.4455
G01 X12.3872 Y8.4490
G01 X12.4759 Y8.4810
G01 X12.5613 Y8.5212
G01 X12.5719 Y8.5269
G01 X12.6528 Y8.5755
G01 X12.7334 Y8.6353
G01 X12.8078 Y8.7027
G01 X12.8752 Y8.7771
G01 X12.9350 Y8.8577
G01 X12.9866 Y8.9438
G01 X13.0295 Y9.0346
G01 X13.0634 Y9.1291
G01 X13.0877 Y9.2264
G01 X13.1017 Y9.3198
G01 X13.1029 Y9.3318
G01 X13.1074 Y9.4260
G01 X13.1029 Y9.5202
G01 X13.1017 Y9.5322
G01 X13.0888 Y9.6196
G01 X13.0864 Y9.6314
G01 X13.0634 Y9.7229
G01 X13.0295 Y9.8174
G01 X12.9866 Y9.9082
G01 X12.9382 Y9.9892
G01 X12.9333 Y9.9968
G01 X12.8752 Y10.0749
G01 X12.8078 Y10.1493
G01 X12.7334 Y10.2167
G01 X12.6577 Y10.2730
G01 X12.6477 Y10.2797
G01 X12.5667 Y10.3281
G01 X12.4815 Y10.3686
G01 X12.4703 Y10.3732
G01 X12.3872 Y10.4030
G01 X12.3756 Y10.4065
G01 X12.2841 Y10.4292
G01 X12.1878 Y10.4436
G01 X12.1787 Y10.4444
G01 X12.0845 Y10.4489
G01 X9.6845 Y10.4489
G01 X9.5842 Y10.4440
G01 X9.4909 Y10.4303
G01 X9.4791 Y10.4279
G01 X9.3876 Y10.4049
G01 X9.2931 Y10.3710
G01 X9.2023 Y10.3281
G01 X9.1162 Y10.2765
G01 X9.0356 Y10.2167
G01 X8.9612 Y10.1493
G01 X8.8938 Y10.0749
G01 X8.8375 Y9.9992
G01 X8.8308 Y9.9892
G01 X8.7854 Y9.9134
G01 X8.7797 Y9.9028
G01 X8.7395 Y9.8174
G01 X8.7075 Y9.7287
G01 X8.7040 Y9.7171
G01 X8.6813 Y9.6256
G01 X8.6665 Y9.5263
G01 X8.6616 Y9.4260
G01 X8.6661 Y9.3318
G01 X8.6673 Y9.3198
G00 Z2.0000
G00 X9.1949 Y10.5151
G01 F50.00
G01 Z-0.1300
G01 F80.00
G01 X9.2206 Y10.5271
G01 X9.2339 Y10.5327
G01 X9.3307 Y10.5673
G01 X9.3516 Y10.5734
G01 X9.4443 Y10.5965
G01 X9.4656 Y10.6005
G01 X9.5530 Y10.6134
G01 X9.5674 Y10.6152
G01 X9.5818 Y10.6163
G01 X9.6700 Y10.6206
G01 X9.6845 Y10.6210
G01 X12.0917 Y10.6209
G01 X12.1872 Y10.6163
G01 X12.2016 Y10.6152
G01 X12.2160 Y10.6134
G01 X12.3034 Y10.6005
G01 X12.3247 Y10.5965
G01 X12.4174 Y10.5734
G01 X12.4383 Y10.5673
G01 X12.5351 Y10.5327
G01 X12.5484 Y10.5271
G01 X12.5707 Y10.5167
G01 X12.5633 Y10.5325
G01 X12.5553 Y10.5530
G01 X12.5488 Y10.5740
G01 X12.5439 Y10.5954
G01 X12.5407 Y10.6171
G01 X12.5328 Y10.6877
G01 X12.5315 Y10.7023
G01 X12.5309 Y10.7242
G01 X12.5320 Y10.7462
G01 X12.5337 Y10.7607
G01 X12.5375 Y10.7824
G01 X12.5429 Y10.8037
G01 X12.5498 Y10.8245
G01 X12.5553 Y10.8381
G01 X12.5741 Y10.8769
G01 X12.5484 Y10.8649
G01 X12.5351 Y10.8593
G01 X12.4383 Y10.8247
G01 X12.4174 Y10.8186
G01 X12.3247 Y10.7955
G01 X12.3034 Y10.7915
G01 X12.2160 Y10.7786
G01 X12.2016 Y10.7768
G01 X12.1872 Y10.7757
G01 X12.0990 Y10.7714
G01 X12.0845 Y10.7710
G01 X9.6773 Y10.7711
G01 X9.5818 Y10.7757
G01 X9.5674 Y10.7768
G01 X9.5530 Y10.7786
G01 X9.4656 Y10.7915
G01 X9.4443 Y10.7955
G01 X9.3516 Y10.8186
G01 X9.3307 Y10.8247
G01 X9.2339 Y10.8593
G01 X9.2206 Y10.8649
G01 X9.1983 Y10.8753
G01 X9.2057 Y10.8595
G01 X9.2137 Y10.8390
G01 X9.2202 Y10.8180
G01 X9.2251 Y10.7966
G01 X9.2283 Y10.7749
G01 X9.2362 Y10.7043
G01 X9.2379 Y10.6824
G01 X9.2381 Y10.6678
G01 X9.2370 Y10.6458
G01 X9.2343 Y10.6240
G01 X9.2299 Y10.6025
G01 X9.2261 Y10.5883
G01 X9.2217 Y10.5744
G01 X9.2137 Y10.5539
G01 X9.1949 Y10.5151
G00 Z2.0000
G00 X11.3958 Y15.7925
G01 F50.00
G01 Z-0.1300
G01 F80.00
G01 X11.4129 Y15.7783
G01 X11.4287 Y15.7630
G01 X11.4385 Y15.7522
G01 X11.4868 Y15.6964
G01 X11.4868 Y15.7925
G01 X11.3958 Y15.7925
G00 Z2.0000
G00 X12.8772 Y15.7015
G01 F50.00
G01 Z-0.1300
G01 F80.00
G01 X12.8912 Y15.7184
G01 X12.9065 Y15.7342
G01 X12.9173 Y15.7440
G01 X12.9734 Y15.7925
G01 X12.8772 Y15.7925
G01 X12.8772 Y15.7015
G00 Z2.0000
G00 X13.8678 Y18.0784
G01 F50.00
G01 Z-0.1300
G01 F80.00
G01 X13.8603 Y18.0943
G01 X13.8523 Y18.1147
G01 X13.8459 Y18.1357
G01 X13.8410 Y18.1572
G01 X13.8377 Y18.1789
G01 X13.8298 Y18.2494
G01 X13.8282 Y18.2713
G01 X13.8280 Y18.2860
G01 X13.8285 Y18.3006
G01 X13.8307 Y18.3225
G01 X13.8345 Y18.3441
G01 X13.8399 Y18.3654
G01 X13.8444 Y18.3794
G01 X13.8524 Y18.3998
G01 X13.8709 Y18.4380
G01 X13.8459 Y18.4264
G01 X13.8326 Y18.4208
G01 X13.7358 Y18.3862
G01 X13.7149 Y18.3801
G01 X13.6222 Y18.3570
G01 X13.6009 Y18.3530
G01 X13.5135 Y18.3401
G01 X13.4991 Y18.3383
G01 X13.4847 Y18.3372
G01 X13.3965 Y18.3329
G01 X13.3820 Y18.3325
G01 X10.9748 Y18.3326
G01 X10.8793 Y18.3372
G01 X10.8649 Y18.3383
G01 X10.8505 Y18.3401
G01 X10.7631 Y18.3530
G01 X10.7418 Y18.3570
G01 X10.6491 Y18.3801
G01 X10.6282 Y18.3862
G01 X10.5314 Y18.4208
G01 X10.5181 Y18.4264
G01 X10.4966 Y18.4364
G01 X10.5037 Y18.4213
G01 X10.5117 Y18.4009
G01 X10.5181 Y18.3799
G01 X10.5230 Y18.3584
G01 X10.5263 Y18.3367
G01 X10.5342 Y18.2662
G01 X10.5358 Y18.2442
G01 X10.5360 Y18.2296
G01 X10.5355 Y18.2150
G01 X10.5333 Y18.1931
G01 X10.5295 Y18.1715
G01 X10.5241 Y18.1502
G01 X10.5196 Y18.1362
G01 X10.5116 Y18.1157
G01 X10.4928 Y18.0768
G01 X10.5181 Y18.0886
G01 X10.5314 Y18.0942
G01 X10.6282 Y18.1288
G01 X10.6491 Y18.1349
G01 X10.7418 Y18.1580
G01 X10.7631 Y18.1620
G01 X10.8505 Y18.1749
G01 X10.8649 Y18.1767
G01 X10.8793 Y18.1778
G01 X10.9675 Y18.1821
G01 X10.9820 Y18.1825
G01 X13.3892 Y18.1824
G01 X13.4847 Y18.1778
G01 X13.4991 Y18.1767
G01 X13.5135 Y18.1749
G01 X13.6009 Y18.1620
G01 X13.6222 Y18.1580
G01 X13.7149 Y18.1349
G01 X13.7358 Y18.1288
G01 X13.8326 Y18.0942
G01 X13.8459 Y18.0886
G01 X13.8678 Y18.0784
G00 Z2.0000
G00 X13.8712 Y20.9782
G01 F50.00
G01 Z-0.1300
G01 F80.00
G01 X13.8459 Y20.9664
G01 X13.8326 Y20.9608
G01 X13.7358 Y20.9262
G01 X13.7149 Y20.9201
G01 X13.6222 Y20.8970
G01 X13.6009 Y20.8930
G01 X13.5135 Y20.8801
G01 X13.4991 Y20.8783
G01 X13.4847 Y20.8772
G01 X13.3965 Y20.8729
G01 X13.3820 Y20.8725
G01 X10.9748 Y20.8726
G01 X10.8793 Y20.8772
G01 X10.8649 Y20.8783
G01 X10.8505 Y20.8801
G01 X10.7631 Y20.8930
G01 X10.7418 Y20.8970
G01 X10.6491 Y20.9201
G01 X10.6282 Y20.9262
G01 X10.5314 Y20.9608
G01 X10.5181 Y20.9664
G01 X10.4962 Y20.9766
G01 X10.5037 Y20.9607
G01 X10.5117 Y20.9403
G01 X10.5181 Y20.9193
G01 X10.5230 Y20.8978
G01 X10.5263 Y20.8761
G01 X10.5342 Y20.8056
G01 X10.5358 Y20.7837
G01 X10.5360 Y20.7690
G01 X10.5349 Y20.7471
G01 X10.5322 Y20.7253
G01 X10.5295 Y20.7109
G01 X10.5241 Y20.6896
G01 X10.5196 Y20.6756
G01 X10.5116 Y20.6552
G01 X10.4931 Y20.6170
G01 X10.5181 Y20.6286
G01 X10.5314 Y20.6342
G01 X10.6282 Y20.6688
G01 X10.6491 Y20.6749
G01 X10.7418 Y20.6980
G01 X10.7631 Y20.7020
G01 X10.8505 Y20.7149
G01 X10.8649 Y20.7167
G01 X10.8793 Y20.7178
G01 X10.9675 Y20.7221
G01 X10.9820 Y20.7225
G01 X13.3892 Y20.7224
G01 X13.4847 Y20.7178
G01 X13.4991 Y20.7167
G01 X13.5135 Y20.7149
G01 X13.6009 Y20.7020
G01 X13.6222 Y20.6980
G01 X13.7149 Y20.6749
G01 X13.7358 Y20.6688
G01 X13.8326 Y20.6342
G01 X13.8459 Y20.6286
G01 X13.8674 Y20.6186
G01 X13.8603 Y20.6337
G01 X13.8523 Y20.6541
G01 X13.8459 Y20.6751
G01 X13.8410 Y20.6966
G01 X13.8377 Y20.7183
G01 X13.8298 Y20.7888
G01 X13.8282 Y20.8108
G01 X13.8280 Y20.8254
G01 X13.8291 Y20.8473
G01 X13.8318 Y20.8692
G01 X13.8345 Y20.8835
G01 X13.8399 Y20.9048
G01 X13.8469 Y20.9257
G01 X13.8524 Y20.9393
G01 X13.8712 Y20.9782
G00 Z2.0000
G00 X12.3906 Y23.2625
G01 F50.00
G01 Z-0.1300
G01 F80.00
G01 X12.4869 Y23.2625
G01 X12.4869 Y23.3535
G01 X12.4728 Y23.3366
G01 X12.4575 Y23.3208
G01 X12.4467 Y23.3110
G01 X12.3906 Y23.2625
G00 Z2.0000
G00 X9.9648 Y21.9613
G01 F50.00
G01 Z-0.1300
G01 F80.00
G01 X9.9788 Y21.8679
G01 X10.0031 Y21.7706
G01 X10.0370 Y21.6761
G01 X10.0772 Y21.5907
G01 X10.0829 Y21.5801
G01 X10.1283 Y21.5043
G01 X10.1350 Y21.4943
G01 X10.1913 Y21.4186
G01 X10.2587 Y21.3442
G01 X10.3331 Y21.2768
G01 X10.4088 Y21.2205
G01 X10.4188 Y21.2138
G01 X10.4946 Y21.1684
G01 X10.5052 Y21.1627
G01 X10.5906 Y21.1225
G01 X10.6851 Y21.0886
G01 X10.7824 Y21.0643
G01 X10.8817 Y21.0495
G01 X10.9820 Y21.0446
G01 X13.3820 Y21.0446
G01 X13.4823 Y21.0495
G01 X13.5786 Y21.0637
G01 X13.5874 Y21.0656
G01 X13.6789 Y21.0886
G01 X13.7678 Y21.1203
G01 X13.7790 Y21.1249
G01 X13.8642 Y21.1654
G01 X13.9452 Y21.2138
G01 X13.9552 Y21.2205
G01 X14.0286 Y21.2749
G01 X14.0355 Y21.2807
G01 X14.1053 Y21.3442
G01 X14.1688 Y21.4140
G01 X14.1746 Y21.4209
G01 X14.2290 Y21.4943
G01 X14.2342 Y21.5017
G01 X14.2827 Y21.5827
G01 X14.2868 Y21.5907
G01 X14.3004 Y21.6194
G01 X15.4023 Y21.6194
G01 X15.4145 Y21.5853
G01 X15.4274 Y21.5576
G01 X15.4331 Y21.5470
G01 X15.4473 Y21.5234
G01 X15.4524 Y21.5159
G01 X15.4707 Y21.4914
G01 X15.4953 Y21.4643
G01 X15.5224 Y21.4397
G01 X15.5469 Y21.4214
G01 X15.5544 Y21.4163
G01 X15.5780 Y21.4021
G01 X15.5886 Y21.3964
G01 X15.6163 Y21.3835
G01 X15.6508 Y21.3712
G01 X15.6863 Y21.3623
G01 X15.7165 Y21.3576
G01 X15.7285 Y21.3565
G01 X15.7590 Y21.3551
G01 X17.0590 Y21.3551
G01 X17.0956 Y21.3569
G01 X17.1258 Y21.3612
G01 X17.1376 Y21.3636
G01 X17.1672 Y21.3712
G01 X17.1961 Y21.3813
G01 X17.2072 Y21.3859
G01 X17.2348 Y21.3991
G01 X17.2611 Y21.4147
G01 X17.2711 Y21.4214
G01 X17.2979 Y21.4417
G01 X17.3227 Y21.4643
G01 X17.3433 Y21.4869
G01 X17.3491 Y21.4938
G01 X17.3673 Y21.5183
G01 X17.3849 Y21.5470
G01 X17.3893 Y21.5549
G01 X17.4035 Y21.5853
G01 X17.4107 Y21.6049
G01 X18.9131 Y21.6049
G01 X18.9385 Y21.5346
G01 X18.9814 Y21.4438
G01 X19.0330 Y21.3577
G01 X19.0891 Y21.2818
G01 X19.0967 Y21.2725
G01 X19.1560 Y21.2071
G01 X19.1646 Y21.1985
G01 X19.2346 Y21.1353
G01 X19.3103 Y21.0790
G01 X19.3203 Y21.0723
G01 X19.3961 Y21.0269
G01 X19.4067 Y21.0212
G01 X19.4921 Y20.9810
G01 X19.5866 Y20.9471
G01 X19.6839 Y20.9228
G01 X19.7773 Y20.9088
G01 X19.7893 Y20.9076
G01 X19.8835 Y20.9031
G01 X22.2865 Y20.9031
G01 X22.3838 Y20.9080
G01 X22.4771 Y20.9217
G01 X22.4889 Y20.9241
G01 X22.5804 Y20.9471
G01 X22.6749 Y20.9810
G01 X22.7603 Y21.0212
G01 X22.7709 Y21.0269
G01 X22.8518 Y21.0755
G01 X22.9324 Y21.1353
G01 X23.0024 Y21.1985
G01 X23.0110 Y21.2071
G01 X23.0703 Y21.2725
G01 X23.0779 Y21.2818
G01 X23.1340 Y21.3577
G01 X23.1856 Y21.4438
G01 X23.2285 Y21.5346
G01 X23.2605 Y21.6233
G01 X23.2640 Y21.6349
G01 X23.2854 Y21.7206
G01 X23.2878 Y21.7324
G01 X23.3015 Y21.8257
G01 X23.3064 Y21.9260
G01 X23.3015 Y22.0263
G01 X23.2867 Y22.1256
G01 X23.2624 Y22.2229
G01 X23.2307 Y22.3118
G01 X23.2261 Y22.3230
G01 X23.1883 Y22.4028
G01 X23.1826 Y22.4134
G01 X23.1340 Y22.4943
G01 X23.0779 Y22.5702
G01 X23.0703 Y22.5795
G01 X23.0068 Y22.6493
G01 X22.9324 Y22.7167
G01 X22.8518 Y22.7765
G01 X22.7657 Y22.8281
G01 X22.6749 Y22.8710
G01 X22.5804 Y22.9049
G01 X22.4831 Y22.9292
G01 X22.3868 Y22.9436
G01 X22.3777 Y22.9444
G01 X22.2835 Y22.9489
G01 X19.8835 Y22.9489
G01 X19.7893 Y22.9444
G01 X19.7802 Y22.9436
G01 X19.6839 Y22.9292
G01 X19.5866 Y22.9049
G01 X19.4921 Y22.8710
G01 X19.4067 Y22.8308
G01 X19.3961 Y22.8251
G01 X19.3152 Y22.7765
G01 X19.2393 Y22.7204
G01 X19.2300 Y22.7128
G01 X19.1646 Y22.6535
G01 X19.1560 Y22.6449
G01 X19.0928 Y22.5749
G01 X19.0378 Y22.5011
G01 X17.4107 Y22.5011
G01 X17.4023 Y22.5235
G01 X17.3906 Y22.5484
G01 X17.3864 Y22.5564
G01 X17.3691 Y22.5852
G01 X17.3491 Y22.6122
G01 X17.3268 Y22.6373
G01 X17.3183 Y22.6458
G01 X17.2956 Y22.6663
G01 X17.2687 Y22.6863
G01 X17.2400 Y22.7039
G01 X17.2294 Y22.7096
G01 X17.2017 Y22.7225
G01 X17.1672 Y22.7348
G01 X17.1317 Y22.7437
G01 X17.1015 Y22.7484
G01 X17.0895 Y22.7495
G01 X17.0590 Y22.7509
G01 X15.7590 Y22.7509
G01 X15.7255 Y22.7494
G01 X15.6922 Y22.7448
G01 X15.6804 Y22.7424
G01 X15.6508 Y22.7348
G01 X15.6163 Y22.7225
G01 X15.5886 Y22.7096
G01 X15.5780 Y22.7039
G01 X15.5518 Y22.6881
G01 X15.5272 Y22.6700
G01 X15.5179 Y22.6623
G01 X15.4953 Y22.6417
G01 X15.4747 Y22.6191
G01 X15.4670 Y22.6098
G01 X15.4489 Y22.5852
G01 X15.4316 Y22.5564
G01 X15.4169 Y22.5262
G01 X15.4125 Y22.5156
G01 X14.3004 Y22.5156
G01 X14.2868 Y22.5443
G01 X14.2827 Y22.5523
G01 X14.2342 Y22.6333
G01 X14.2290 Y22.6407
G01 X14.1746 Y22.7141
G01 X14.1688 Y22.7210
G01 X14.1053 Y22.7908
G01 X14.0355 Y22.8543
G01 X14.0262 Y22.8619
G01 X13.9503 Y22.9180
G01 X13.8694 Y22.9666
G01 X13.8588 Y22.9723
G01 X13.7762 Y23.0113
G01 X13.7678 Y23.0147
G01 X13.6847 Y23.0445
G01 X13.6760 Y23.0472
G01 X13.5845 Y23.0701
G01 X13.5551 Y23.0748
G01 X13.5551 Y28.1566
G01 X14.3070 Y28.1566
G01 X14.4073 Y28.1615
G01 X14.5066 Y28.1763
G01 X14.6039 Y28.2006
G01 X14.6984 Y28.2345
G01 X14.7892 Y28.2774
G01 X14.8702 Y28.3258
G01 X14.8802 Y28.3325
G01 X14.9559 Y28.3888
G01 X15.0259 Y28.4520
G01 X15.0345 Y28.4606
G01 X15.0977 Y28.5306
G01 X15.1575 Y28.6112
G01 X15.2061 Y28.6921
G01 X15.2118 Y28.7027
G01 X15.2520 Y28.7881
G01 X15.2840 Y28.8768
G01 X15.2875 Y28.8884
G01 X15.3102 Y28.9799
G01 X15.3250 Y29.0792
G01 X15.3299 Y29.1795
G01 X15.3250 Y29.2798
G01 X15.3102 Y29.3791
G01 X15.2859 Y29.4764
G01 X15.2520 Y29.5709
G01 X15.2091 Y29.6617
G01 X15.1575 Y29.7478
G01 X15.1014 Y29.8237
G01 X15.0938 Y29.8330
G01 X15.0303 Y29.9028
G01 X14.9605 Y29.9663
G01 X14.9512 Y29.9739
G01 X14.8802 Y30.0265
G01 X14.8702 Y30.0332
G01 X14.7892 Y30.0816
G01 X14.7040 Y30.1221
G01 X14.6928 Y30.1267
G01 X14.6039 Y30.1584
G01 X14.5066 Y30.1827
G01 X14.4073 Y30.1975
G01 X14.3070 Y30.2024
G01 X11.9070 Y30.2024
G01 X11.8067 Y30.1975
G01 X11.7104 Y30.1833
G01 X11.7016 Y30.1814
G01 X11.6101 Y30.1584
G01 X11.5156 Y30.1245
G01 X11.4248 Y30.0816
G01 X11.3438 Y30.0332
G01 X11.3338 Y30.0265
G01 X11.2628 Y29.9739
G01 X11.2535 Y29.9663
G01 X11.1837 Y29.9028
G01 X11.1202 Y29.8330
G01 X11.1126 Y29.8237
G01 X11.0565 Y29.7478
G01 X11.0049 Y29.6617
G01 X10.9620 Y29.5709
G01 X10.9300 Y29.4822
G01 X10.9265 Y29.4706
G01 X10.9051 Y29.3849
G01 X10.9027 Y29.3731
G01 X10.8890 Y29.2798
G01 X10.8841 Y29.1795
G01 X10.8890 Y29.0792
G01 X10.9027 Y28.9859
G01 X10.9051 Y28.9741
G01 X10.9265 Y28.8884
G01 X10.9300 Y28.8768
G01 X10.9620 Y28.7881
G01 X11.0049 Y28.6973
G01 X11.0565 Y28.6112
G01 X11.1126 Y28.5353
G01 X11.1202 Y28.5260
G01 X11.1795 Y28.4606
G01 X11.1881 Y28.4520
G01 X11.2581 Y28.3888
G01 X11.3338 Y28.3325
G01 X11.3438 Y28.3258
G01 X11.4248 Y28.2774
G01 X11.5156 Y28.2345
G01 X11.6043 Y28.2025
G01 X11.6159 Y28.1990
G01 X11.7074 Y28.1763
G01 X11.8067 Y28.1615
G01 X11.9040 Y28.1566
G01 X12.6589 Y28.1566
G01 X12.6589 Y23.1781
G01 X12.5712 Y23.0904
G01 X10.9760 Y23.0903
G01 X10.8817 Y23.0855
G01 X10.7824 Y23.0707
G01 X10.6851 Y23.0464
G01 X10.5962 Y23.0147
G01 X10.5878 Y23.0113
G01 X10.4998 Y22.9696
G01 X10.4188 Y22.9212
G01 X10.4088 Y22.9145
G01 X10.3378 Y22.8619
G01 X10.3285 Y22.8543
G01 X10.2587 Y22.7908
G01 X10.1913 Y22.7164
G01 X10.1315 Y22.6358
G01 X10.0829 Y22.5549
G01 X10.0772 Y22.5443
G01 X10.0394 Y22.4645
G01 X10.0348 Y22.4533
G01 X10.0031 Y22.3644
G01 X9.9788 Y22.2671
G01 X9.9640 Y22.1678
G01 X9.9592 Y22.0735
G01 X9.9592 Y22.0615
G01 X9.9636 Y21.9733
G01 X9.9648 Y21.9613
G00 Z2.0000
G00 X6.0070 Y18.7595
G01 F50.00
G01 Z-0.1300
G01 F80.00
G01 X6.0099 Y18.7044
G01 X6.0188 Y18.6439
G01 X6.0337 Y18.5846
G01 X6.0543 Y18.5270
G01 X6.0804 Y18.4717
G01 X6.1119 Y18.4193
G01 X6.1483 Y18.3702
G01 X6.1852 Y18.3292
G01 X7.9674 Y16.5469
G01 X8.0127 Y16.5058
G01 X8.0569 Y16.4728
G01 X8.0669 Y16.4661
G01 X8.1090 Y16.4409
G01 X8.1169 Y16.4365
G01 X8.1695 Y16.4118
G01 X8.2214 Y16.3931
G01 X8.2329 Y16.3896
G01 X8.2864 Y16.3763
G01 X8.3409 Y16.3681
G01 X8.3529 Y16.3669
G01 X8.4050 Y16.3644
G01 X10.1720 Y16.3643
G01 X10.1932 Y16.3363
G01 X10.2545 Y16.2686
G01 X10.2609 Y16.2621
G01 X10.3331 Y16.1968
G01 X10.4112 Y16.1387
G01 X10.4188 Y16.1338
G01 X10.4946 Y16.0884
G01 X10.5052 Y16.0827
G01 X10.5906 Y16.0425
G01 X10.6793 Y16.0105
G01 X10.6880 Y16.0078
G01 X10.7766 Y15.9856
G01 X10.7884 Y15.9832
G01 X10.8817 Y15.9695
G01 X10.9760 Y15.9647
G01 X11.6589 Y15.9646
G01 X11.6589 Y13.4802
G01 X11.1676 Y12.9889
G01 X9.6845 Y12.9889
G01 X9.5842 Y12.9840
G01 X9.4909 Y12.9703
G01 X9.4791 Y12.9679
G01 X9.3876 Y12.9449
G01 X9.2931 Y12.9110
G01 X9.2023 Y12.8681
G01 X9.1213 Y12.8197
G01 X9.1113 Y12.8130
G01 X9.0356 Y12.7567
G01 X8.9612 Y12.6893
G01 X8.8938 Y12.6149
G01 X8.8340 Y12.5343
G01 X8.7854 Y12.4534
G01 X8.7797 Y12.4428
G01 X8.7395 Y12.3574
G01 X8.7075 Y12.2687
G01 X8.7040 Y12.2571
G01 X8.6813 Y12.1656
G01 X8.6673 Y12.0722
G01 X8.6661 Y12.0602
G01 X8.6617 Y11.9720
G01 X8.6617 Y11.9600
G01 X8.6665 Y11.8657
G01 X8.6813 Y11.7664
G01 X8.7056 Y11.6691
G01 X8.7395 Y11.5746
G01 X8.7824 Y11.4838
G01 X8.8340 Y11.3977
G01 X8.8938 Y11.3171
G01 X8.9570 Y11.2471
G01 X8.9634 Y11.2406
G01 X9.0356 Y11.1753
G01 X9.1162 Y11.1155
G01 X9.2023 Y11.0639
G01 X9.2875 Y11.0234
G01 X9.2987 Y11.0188
G01 X9.3818 Y10.9890
G01 X9.3934 Y10.9855
G01 X9.4849 Y10.9628
G01 X9.5842 Y10.9480
G01 X9.6845 Y10.9431
G01 X12.0875 Y10.9431
G01 X12.1787 Y10.9476
G01 X12.1907 Y10.9488
G01 X12.2841 Y10.9628
G01 X12.3756 Y10.9855
G01 X12.3872 Y10.9890
G01 X12.4759 Y11.0210
G01 X12.5613 Y11.0612
G01 X12.5693 Y11.0653
G01 X12.6528 Y11.1155
G01 X12.7287 Y11.1716
G01 X12.7380 Y11.1792
G01 X12.8056 Y11.2406
G01 X12.8120 Y11.2471
G01 X12.8713 Y11.3125
G01 X12.8771 Y11.3194
G01 X12.9333 Y11.3952
G01 X12.9382 Y11.4028
G01 X12.9623 Y11.4429
G01 X16.2608 Y11.4429
G01 X16.5209 Y11.1828
G01 X16.5209 Y8.1679
G01 X15.8410 Y8.1679
G01 X15.7437 Y8.1630
G01 X15.6504 Y8.1493
G01 X15.6415 Y8.1476
G01 X15.5471 Y8.1239
G01 X15.4582 Y8.0922
G01 X15.4470 Y8.0876
G01 X15.3618 Y8.0471
G01 X15.2808 Y7.9987
G01 X15.2708 Y7.9920
G01 X15.1951 Y7.9357
G01 X15.1229 Y7.8704
G01 X15.1165 Y7.8639
G01 X15.0572 Y7.7985
G01 X15.0496 Y7.7892
G01 X14.9935 Y7.7133
G01 X14.9419 Y7.6272
G01 X14.8990 Y7.5364
G01 X14.8670 Y7.4477
G01 X14.8635 Y7.4361
G01 X14.8421 Y7.3504
G01 X14.8397 Y7.3386
G01 X14.8260 Y7.2453
G01 X14.8211 Y7.1450
G01 X14.8260 Y7.0447
G01 X14.8397 Y6.9514
G01 X14.8421 Y6.9396
G01 X14.8635 Y6.8539
G01 X14.8670 Y6.8423
G01 X14.8990 Y6.7536
G01 X14.9419 Y6.6628
G01 X14.9903 Y6.5818
G01 X14.9970 Y6.5718
G01 X15.0533 Y6.4961
G01 X15.1165 Y6.4261
G01 X15.1251 Y6.4175
G01 X15.1951 Y6.3543
G01 X15.2757 Y6.2945
G01 X15.3566 Y6.2459
G01 X15.3672 Y6.2402
G01 X15.4526 Y6.2000
G01 X15.5413 Y6.1680
G01 X15.5529 Y6.1645
G01 X15.6444 Y6.1418
G01 X15.7378 Y6.1278
G01 X15.7498 Y6.1266
G01 X15.8440 Y6.1221
G01 X18.2440 Y6.1221
G01 X18.3443 Y6.1270
G01 X18.4436 Y6.1418
G01 X18.5409 Y6.1661
G01 X18.6354 Y6.2000
G01 X18.7208 Y6.2402
G01 X18.7314 Y6.2459
G01 X18.8072 Y6.2913
G01 X18.8172 Y6.2980
G01 X18.8929 Y6.3543
G01 X18.9629 Y6.4175
G01 X18.9694 Y6.4239
G01 X19.0347 Y6.4961
G01 X19.0945 Y6.5767
G01 X19.1461 Y6.6628
G01 X19.1890 Y6.7536
G01 X19.2229 Y6.8481
G01 X19.2472 Y6.9454
G01 X19.2620 Y7.0447
G01 X19.2668 Y7.1390
G01 X19.2668 Y7.1510
G01 X19.2624 Y7.2392
G01 X19.2612 Y7.2512
G01 X19.2472 Y7.3446
G01 X19.2245 Y7.4361
G01 X19.2210 Y7.4477
G01 X19.1890 Y7.5364
G01 X19.1461 Y7.6272
G01 X19.0945 Y7.7133
G01 X19.0347 Y7.7939
G01 X18.9673 Y7.8683
G01 X18.8975 Y7.9318
G01 X18.8882 Y7.9394
G01 X18.8123 Y7.9955
G01 X18.7262 Y8.0471
G01 X18.6410 Y8.0876
G01 X18.6298 Y8.0922
G01 X18.5467 Y8.1220
G01 X18.5351 Y8.1255
G01 X18.4436 Y8.1482
G01 X18.3502 Y8.1622
G01 X18.3382 Y8.1634
G01 X18.2500 Y8.1678
G01 X17.5671 Y8.1679
G01 X17.5670 Y11.4055
G01 X17.5646 Y11.4508
G01 X17.5570 Y11.5016
G01 X17.5446 Y11.5513
G01 X17.5273 Y11.5997
G01 X17.5053 Y11.6461
G01 X17.4789 Y11.6901
G01 X17.4484 Y11.7314
G01 X17.4139 Y11.7694
G01 X16.8474 Y12.3359
G01 X16.8117 Y12.3684
G01 X16.8046 Y12.3741
G01 X16.7681 Y12.4009
G01 X16.7293 Y12.4244
G01 X16.7187 Y12.4300
G01 X16.6777 Y12.4493
G01 X16.6351 Y12.4647
G01 X16.6235 Y12.4682
G01 X16.5825 Y12.4784
G01 X16.5736 Y12.4801
G01 X16.5288 Y12.4866
G01 X16.4775 Y12.4891
G01 X12.9623 Y12.4891
G01 X12.9382 Y12.5292
G01 X12.9333 Y12.5368
G01 X12.8771 Y12.6126
G01 X12.8713 Y12.6195
G01 X12.8120 Y12.6849
G01 X12.8034 Y12.6935
G01 X12.7334 Y12.7567
G01 X12.6553 Y12.8148
G01 X12.6477 Y12.8197
G01 X12.5693 Y12.8667
G01 X12.5394 Y12.8812
G01 X12.5560 Y12.8980
G01 X12.5824 Y12.9271
G01 X12.5901 Y12.9364
G01 X12.6169 Y12.9729
G01 X12.6404 Y13.0117
G01 X12.6460 Y13.0223
G01 X12.6653 Y13.0633
G01 X12.6826 Y13.1117
G01 X12.6950 Y13.1614
G01 X12.7018 Y13.2062
G01 X12.7030 Y13.2182
G01 X12.7051 Y13.2635
G01 X12.7051 Y15.9646
G01 X13.3880 Y15.9647
G01 X13.4762 Y15.9691
G01 X13.4882 Y15.9703
G01 X13.5816 Y15.9843
G01 X13.6731 Y16.0070
G01 X13.6847 Y16.0105
G01 X13.7678 Y16.0403
G01 X13.7790 Y16.0449
G01 X13.8642 Y16.0854
G01 X13.9503 Y16.1370
G01 X14.0262 Y16.1931
G01 X14.0355 Y16.2007
G01 X14.1053 Y16.2642
G01 X14.1727 Y16.3386
G01 X14.2325 Y16.4192
G01 X14.2841 Y16.5053
G01 X14.3270 Y16.5961
G01 X14.3590 Y16.6848
G01 X14.3625 Y16.6964
G01 X14.3852 Y16.7879
G01 X14.3992 Y16.8813
G01 X14.4004 Y16.8933
G01 X14.4048 Y16.9815
G01 X14.4048 Y16.9935
G01 X14.4000 Y17.0878
G01 X14.3852 Y17.1871
G01 X14.3609 Y17.2844
G01 X14.3270 Y17.3789
G01 X14.2841 Y17.4697
G01 X14.2325 Y17.5558
G01 X14.1727 Y17.6364
G01 X14.1074 Y17.7086
G01 X14.1009 Y17.7150
G01 X14.0309 Y17.7782
G01 X13.9552 Y17.8345
G01 X13.9452 Y17.8412
G01 X13.8694 Y17.8866
G01 X13.8588 Y17.8923
G01 X13.7734 Y17.9325
G01 X13.6789 Y17.9664
G01 X13.5816 Y17.9907
G01 X13.4823 Y18.0055
G01 X13.3820 Y18.0104
G01 X10.9790 Y18.0104
G01 X10.8817 Y18.0055
G01 X10.7884 Y17.9918
G01 X10.7766 Y17.9894
G01 X10.6851 Y17.9664
G01 X10.5962 Y17.9347
G01 X10.5850 Y17.9301
G01 X10.5025 Y17.8910
G01 X10.4946 Y17.8866
G01 X10.4137 Y17.8380
G01 X10.3378 Y17.7819
G01 X10.3308 Y17.7763
G01 X10.2631 Y17.7150
G01 X10.2566 Y17.7086
G01 X10.1932 Y17.6387
G01 X10.1720 Y17.6107
G01 X8.6661 Y17.6107
G01 X7.2532 Y19.0236
G01 X7.2532 Y37.1923
G01 X11.6396 Y37.1923
G01 X11.6396 Y36.6155
G01 X11.6441 Y36.5213
G01 X11.6449 Y36.5122
G01 X11.6593 Y36.4159
G01 X11.6836 Y36.3186
G01 X11.7175 Y36.2241
G01 X11.7577 Y36.1387
G01 X11.7618 Y36.1307
G01 X11.8088 Y36.0523
G01 X11.8155 Y36.0423
G01 X11.8718 Y35.9666
G01 X11.9350 Y35.8966
G01 X11.9436 Y35.8880
G01 X12.0136 Y35.8248
G01 X12.0942 Y35.7650
G01 X12.1751 Y35.7164
G01 X12.1857 Y35.7107
G01 X12.2711 Y35.6705
G01 X12.3598 Y35.6385
G01 X12.3714 Y35.6350
G01 X12.4629 Y35.6123
G01 X12.5622 Y35.5975
G01 X12.6625 Y35.5926
G01 X12.7628 Y35.5975
G01 X12.8621 Y35.6123
G01 X12.9594 Y35.6366
G01 X13.0539 Y35.6705
G01 X13.1447 Y35.7134
G01 X13.2308 Y35.7650
G01 X13.3067 Y35.8211
G01 X13.3160 Y35.8287
G01 X13.3858 Y35.8922
G01 X13.4493 Y35.9620
G01 X13.4569 Y35.9713
G01 X13.5095 Y36.0423
G01 X13.5162 Y36.0523
G01 X13.5646 Y36.1333
G01 X13.6051 Y36.2185
G01 X13.6097 Y36.2297
G01 X13.6414 Y36.3186
G01 X13.6657 Y36.4159
G01 X13.6805 Y36.5152
G01 X13.6854 Y36.6155
G01 X13.6854 Y39.0155
G01 X13.6805 Y39.1158
G01 X13.6668 Y39.2091
G01 X13.6651 Y39.2180
G01 X13.6414 Y39.3124
G01 X13.6097 Y39.4013
G01 X13.6051 Y39.4125
G01 X13.5646 Y39.4977
G01 X13.5162 Y39.5787
G01 X13.5095 Y39.5887
G01 X13.4532 Y39.6644
G01 X13.3900 Y39.7344
G01 X13.3814 Y39.7430
G01 X13.3114 Y39.8062
G01 X13.2357 Y39.8625
G01 X13.2257 Y39.8692
G01 X13.1447 Y39.9176
G01 X13.0595 Y39.9581
G01 X13.0483 Y39.9627
G01 X12.9652 Y39.9925
G01 X12.9565 Y39.9952
G01 X12.8621 Y40.0187
G01 X12.7687 Y40.0327
G01 X12.7567 Y40.0339
G01 X12.6625 Y40.0384
G01 X12.5683 Y40.0339
G01 X12.5563 Y40.0327
G01 X12.4629 Y40.0187
G01 X12.3656 Y39.9944
G01 X12.2711 Y39.9605
G01 X12.1857 Y39.9203
G01 X12.1751 Y39.9146
G01 X12.0942 Y39.8660
G01 X12.0183 Y39.8099
G01 X12.0090 Y39.8023
G01 X11.9392 Y39.7388
G01 X11.8737 Y39.6667
G01 X11.8681 Y39.6597
G01 X11.8120 Y39.5838
G01 X11.7634 Y39.5029
G01 X11.7577 Y39.4923
G01 X11.7175 Y39.4069
G01 X11.6855 Y39.3182
G01 X11.6820 Y39.3066
G01 X11.6593 Y39.2151
G01 X11.6445 Y39.1158
G01 X11.6396 Y39.0185
G01 X11.6396 Y38.4387
G01 X7.2532 Y38.4387
G01 X7.2532 Y56.2264
G01 X7.3961 Y56.3693
G01 X27.7873 Y56.3693
G01 X27.7873 Y52.5844
G01 X27.7489 Y52.5826
G01 X27.7128 Y52.5772
G01 X27.6773 Y52.5683
G01 X27.6428 Y52.5560
G01 X27.6097 Y52.5404
G01 X27.5783 Y52.5216
G01 X27.5489 Y52.4998
G01 X27.5218 Y52.4752
G01 X27.4972 Y52.4481
G01 X27.4754 Y52.4187
G01 X27.4566 Y52.3873
G01 X27.4410 Y52.3542
G01 X27.4287 Y52.3197
G01 X27.4198 Y52.2842
G01 X27.4144 Y52.2481
G01 X27.4126 Y52.2115
G01 X27.4126 Y51.4085
G01 X27.4144 Y51.3749
G01 X27.4187 Y51.3447
G01 X27.4211 Y51.3329
G01 X27.4296 Y51.3004
G01 X27.4410 Y51.2688
G01 X27.4552 Y51.2384
G01 X27.4722 Y51.2094
G01 X27.4789 Y51.1994
G01 X27.4972 Y51.1749
G01 X27.5218 Y51.1478
G01 X27.5489 Y51.1232
G01 X27.5734 Y51.1049
G01 X27.5809 Y51.0998
G01 X27.6045 Y51.0856
G01 X27.6151 Y51.0799
G01 X27.6428 Y51.0670
G01 X27.6773 Y51.0547
G01 X27.7128 Y51.0458
G01 X27.7430 Y51.0411
G01 X27.7550 Y51.0400
G01 X27.7855 Y51.0386
G01 X29.0355 Y51.0386
G01 X29.0721 Y51.0404
G01 X29.1053 Y51.0452
G01 X29.1379 Y51.0530
G01 X29.1495 Y51.0565
G01 X29.1782 Y51.0670
G01 X29.2113 Y51.0826
G01 X29.2376 Y51.0982
G01 X29.2476 Y51.1049
G01 X29.2721 Y51.1232
G01 X29.2992 Y51.1478
G01 X29.3198 Y51.1704
G01 X29.3275 Y51.1797
G01 X29.3456 Y51.2043
G01 X29.3644 Y51.2357
G01 X29.3776 Y51.2633
G01 X29.3822 Y51.2744
G01 X29.3923 Y51.3033
G01 X29.4006 Y51.3358
G01 X29.4023 Y51.3447
G01 X29.4066 Y51.3749
G01 X29.4084 Y51.4115
G01 X29.4084 Y52.2115
G01 X29.4070 Y52.2420
G01 X29.4059 Y52.2540
G01 X29.4012 Y52.2842
G01 X29.3923 Y52.3197
G01 X29.3800 Y52.3542
G01 X29.3671 Y52.3819
G01 X29.3614 Y52.3925
G01 X29.3472 Y52.4161
G01 X29.3421 Y52.4236
G01 X29.3238 Y52.4481
G01 X29.2992 Y52.4752
G01 X29.2721 Y52.4998
G01 X29.2476 Y52.5181
G01 X29.2401 Y52.5232
G01 X29.2165 Y52.5374
G01 X29.2059 Y52.5431
G01 X29.1782 Y52.5560
G01 X29.1437 Y52.5683
G01 X29.1082 Y52.5772
G01 X29.0780 Y52.5819
G01 X29.0660 Y52.5830
G01 X29.0337 Y52.5844
G01 X29.0337 Y56.3693
G01 X63.7759 Y56.3693
G01 X65.1108 Y55.0344
G01 X65.1108 Y51.5774
G01 X64.5340 Y51.5774
G01 X64.4398 Y51.5729
G01 X64.4278 Y51.5717
G01 X64.3344 Y51.5577
G01 X64.2400 Y51.5342
G01 X64.2313 Y51.5315
G01 X64.1482 Y51.5017
G01 X64.1370 Y51.4971
G01 X64.0518 Y51.4566
G01 X63.9657 Y51.4050
G01 X63.8898 Y51.3489
G01 X63.8805 Y51.3413
G01 X63.8107 Y51.2778
G01 X63.7472 Y51.2080
G01 X63.7396 Y51.1987
G01 X63.6870 Y51.1277
G01 X63.6803 Y51.1177
G01 X63.6319 Y51.0367
G01 X63.5890 Y50.9459
G01 X63.5551 Y50.8514
G01 X63.5321 Y50.7599
G01 X63.5297 Y50.7481
G01 X63.5168 Y50.6607
G01 X63.5156 Y50.6487
G01 X63.5111 Y50.5545
G01 X63.5160 Y50.4542
G01 X63.5308 Y50.3549
G01 X63.5535 Y50.2634
G01 X63.5570 Y50.2518
G01 X63.5868 Y50.1687
G01 X63.5914 Y50.1575
G01 X63.6319 Y50.0723
G01 X63.6835 Y49.9862
G01 X63.7396 Y49.9103
G01 X63.7472 Y49.9010
G01 X63.8107 Y49.8312
G01 X63.8805 Y49.7677
G01 X63.8898 Y49.7601
G01 X63.9657 Y49.7040
G01 X64.0518 Y49.6524
G01 X64.1426 Y49.6095
G01 X64.2313 Y49.5775
G01 X64.2429 Y49.5740
G01 X64.3344 Y49.5513
G01 X64.4278 Y49.5373
G01 X64.4398 Y49.5361
G01 X64.5340 Y49.5316
G01 X66.9340 Y49.5316
G01 X67.0282 Y49.5361
G01 X67.0373 Y49.5369
G01 X67.1336 Y49.5513
G01 X67.2309 Y49.5756
G01 X67.3254 Y49.6095
G01 X67.4108 Y49.6497
G01 X67.4188 Y49.6538
G01 X67.5023 Y49.7040
G01 X67.5782 Y49.7601
G01 X67.5852 Y49.7657
G01 X67.6529 Y49.8270
G01 X67.6594 Y49.8334
G01 X67.7228 Y49.9033
G01 X67.7440 Y49.9313
G01 X71.4204 Y49.9313
G01 X73.4336 Y47.9181
G01 X73.4336 Y47.1320
G01 X73.4351 Y47.1015
G01 X73.4361 Y47.0925
G01 X73.4408 Y47.0623
G01 X73.4488 Y47.0296
G01 X73.4598 Y46.9979
G01 X73.4644 Y46.9868
G01 X73.4776 Y46.9592
G01 X73.4964 Y46.9278
G01 X73.5145 Y46.9032
G01 X73.5222 Y46.8939
G01 X73.5428 Y46.8713
G01 X73.5676 Y46.8487
G01 X73.5944 Y46.8284
G01 X73.6044 Y46.8217
G01 X73.6307 Y46.8061
G01 X73.6610 Y46.7917
G01 X73.6925 Y46.7800
G01 X73.7011 Y46.7773
G01 X73.7338 Y46.7693
G01 X73.7613 Y46.7650
G01 X73.7613 Y41.3121
G01 X72.4754 Y40.0262
G01 X64.8565 Y40.0261
G01 X64.7984 Y40.0231
G01 X64.7379 Y40.0142
G01 X64.6786 Y39.9993
G01 X64.6267 Y39.9809
G01 X64.6155 Y39.9763
G01 X64.5711 Y39.9553
G01 X64.5605 Y39.9496
G01 X64.5133 Y39.9211
G01 X64.4642 Y39.8847
G01 X64.4189 Y39.8436
G01 X62.4504 Y37.8751
G01 X62.4093 Y37.8298
G01 X62.3763 Y37.7856
G01 X62.3712 Y37.7782
G01 X62.3444 Y37.7335
G01 X62.3387 Y37.7229
G01 X62.3153 Y37.6730
G01 X62.2966 Y37.6211
G01 X62.2931 Y37.6096
G01 X62.2798 Y37.5561
G01 X62.2716 Y37.5016
G01 X62.2706 Y37.4926
G01 X62.2678 Y37.4345
G01 X62.2678 Y36.4960
G01 X62.2398 Y36.4748
G01 X62.1721 Y36.4135
G01 X62.1656 Y36.4071
G01 X62.1003 Y36.3349
G01 X62.0440 Y36.2592
G01 X62.0388 Y36.2518
G01 X61.9889 Y36.1682
G01 X61.9460 Y36.0774
G01 X61.9121 Y35.9829
G01 X61.8884 Y35.8885
G01 X61.8867 Y35.8796
G01 X61.8730 Y35.7863
G01 X61.8681 Y35.6860
G01 X61.8681 Y33.2860
G01 X61.8730 Y33.1857
G01 X61.8867 Y33.0924
G01 X61.8891 Y33.0806
G01 X61.9121 Y32.9891
G01 X61.9460 Y32.8946
G01 X61.9889 Y32.8038
G01 X62.0373 Y32.7228
G01 X62.0440 Y32.7128
G01 X62.0966 Y32.6418
G01 X62.1042 Y32.6325
G01 X62.1677 Y32.5627
G01 X62.2375 Y32.4992
G01 X62.2468 Y32.4916
G01 X62.3178 Y32.4390
G01 X62.3278 Y32.4323
G01 X62.4088 Y32.3839
G01 X62.4996 Y32.3410
G01 X62.5883 Y32.3090
G01 X62.5999 Y32.3055
G01 X62.6914 Y32.2828
G01 X62.7877 Y32.2684
G01 X62.7968 Y32.2676
G01 X62.8910 Y32.2631
G01 X62.9913 Y32.2680
G01 X63.0906 Y32.2828
G01 X63.1879 Y32.3071
G01 X63.2824 Y32.3410
G01 X63.3732 Y32.3839
G01 X63.4593 Y32.4355
G01 X63.5399 Y32.4953
G01 X63.6143 Y32.5627
G01 X63.6817 Y32.6371
G01 X63.7415 Y32.7177
G01 X63.7931 Y32.8038
G01 X63.8360 Y32.8946
G01 X63.8699 Y32.9891
G01 X63.8942 Y33.0864
G01 X63.9082 Y33.1798
G01 X63.9094 Y33.1918
G01 X63.9139 Y33.2860
G01 X63.9139 Y35.6860
G01 X63.9090 Y35.7863
G01 X63.8942 Y35.8856
G01 X63.8699 Y35.9829
G01 X63.8360 Y36.0774
G01 X63.7958 Y36.1628
G01 X63.7917 Y36.1708
G01 X63.7415 Y36.2543
G01 X63.6854 Y36.3302
G01 X63.6798 Y36.3372
G01 X63.6185 Y36.4049
G01 X63.6121 Y36.4114
G01 X63.5422 Y36.4748
G01 X63.5142 Y36.4960
G01 X63.5142 Y37.1764
G01 X65.1176 Y38.7798
G01 X72.7335 Y38.7798
G01 X72.7946 Y38.7829
G01 X72.8551 Y38.7918
G01 X72.9144 Y38.8067
G01 X72.9663 Y38.8251
G01 X72.9775 Y38.8297
G01 X73.0273 Y38.8534
G01 X73.0746 Y38.8816
G01 X73.0846 Y38.8883
G01 X73.1288 Y38.9213
G01 X73.1698 Y38.9582
G01 X74.8251 Y40.6134
G01 X74.8623 Y40.6541
G01 X74.8699 Y40.6634
G01 X74.9026 Y40.7078
G01 X74.9341 Y40.7602
G01 X74.9602 Y40.8155
G01 X74.9789 Y40.8674
G01 X74.9824 Y40.8789
G01 X74.9944 Y40.9265
G01 X74.9967 Y40.9384
G01 X75.0046 Y40.9929
G01 X75.0076 Y41.0510
G01 X75.0077 Y47.8485
G01 X75.0051 Y47.9036
G01 X75.0044 Y47.9118
G01 X75.0043 Y48.4410
G01 X75.0026 Y48.4716
G01 X74.9972 Y48.5077
G01 X74.9883 Y48.5432
G01 X74.9782 Y48.5721
G01 X74.9748 Y48.5805
G01 X74.9631 Y48.6054
G01 X74.9589 Y48.6134
G01 X74.9432 Y48.6396
G01 X74.9381 Y48.6471
G01 X74.9216 Y48.6692
G01 X74.9158 Y48.6761
G01 X74.8952 Y48.6987
G01 X74.8726 Y48.7193
G01 X74.8657 Y48.7251
G01 X74.8412 Y48.7433
G01 X74.8336 Y48.7483
G01 X74.8099 Y48.7624
G01 X74.8019 Y48.7666
G01 X74.7742 Y48.7795
G01 X74.7426 Y48.7909
G01 X74.7101 Y48.7994
G01 X74.6983 Y48.8018
G01 X74.6681 Y48.8061
G01 X74.6375 Y48.8078
G01 X74.3064 Y48.8079
G01 X72.1170 Y50.9972
G01 X72.0738 Y51.0362
G01 X72.0296 Y51.0692
G01 X72.0196 Y51.0759
G01 X71.9723 Y51.1041
G01 X71.9225 Y51.1278
G01 X71.9113 Y51.1324
G01 X71.8651 Y51.1489
G01 X71.8536 Y51.1524
G01 X71.8060 Y51.1644
G01 X71.7941 Y51.1667
G01 X71.7396 Y51.1746
G01 X71.6785 Y51.1777
G01 X67.7440 Y51.1777
G01 X67.7228 Y51.2057
G01 X67.6615 Y51.2734
G01 X67.6551 Y51.2799
G01 X67.5829 Y51.3452
G01 X67.5048 Y51.4033
G01 X67.4972 Y51.4082
G01 X67.4214 Y51.4536
G01 X67.4108 Y51.4593
G01 X67.3254 Y51.4995
G01 X67.2367 Y51.5315
G01 X67.2280 Y51.5342
G01 X67.1336 Y51.5577
G01 X67.0402 Y51.5717
G01 X67.0282 Y51.5729
G01 X66.9340 Y51.5774
G01 X66.3572 Y51.5774
G01 X66.3572 Y55.2925
G01 X66.3541 Y55.3536
G01 X66.3452 Y55.4141
G01 X66.3303 Y55.4734
G01 X66.3108 Y55.5282
G01 X66.3073 Y55.5365
G01 X66.2836 Y55.5863
G01 X66.2521 Y55.6387
G01 X66.2157 Y55.6878
G01 X66.1767 Y55.7310
G01 X64.4725 Y57.4352
G01 X64.4293 Y57.4742
G01 X64.3851 Y57.5072
G01 X64.3751 Y57.5139
G01 X64.3330 Y57.5391
G01 X64.3224 Y57.5448
G01 X64.2725 Y57.5682
G01 X64.2149 Y57.5888
G01 X64.1556 Y57.6037
G01 X64.0981 Y57.6123
G01 X64.0891 Y57.6131
G01 X64.0340 Y57.6157
G01 X7.1380 Y57.6157
G01 X7.0769 Y57.6126
G01 X7.0164 Y57.6037
G01 X6.9571 Y57.5888
G01 X6.9052 Y57.5704
G01 X6.8968 Y57.5670
G01 X6.8442 Y57.5421
G01 X6.7918 Y57.5106
G01 X6.7427 Y57.4742
G01 X6.7017 Y57.4373
G01 X6.1894 Y56.9251
G01 X6.1483 Y56.8798
G01 X6.1119 Y56.8307
G01 X6.0834 Y56.7835
G01 X6.0777 Y56.7729
G01 X6.0567 Y56.7285
G01 X6.0521 Y56.7173
G01 X6.0337 Y56.6654
G01 X6.0188 Y56.6061
G01 X6.0099 Y56.5456
G01 X6.0069 Y56.4875
G01 X6.0070 Y18.7595
G00 Z2.0000
G00 X15.1247 Y24.6261
G01 F50.00
G01 Z-0.1300
G01 F80.00
G01 X15.1329 Y24.5479
G01 X15.1800 Y24.4066
G01 X15.2580 Y24.2807
G01 X15.3628 Y24.1761
G01 X15.4889 Y24.0984
G01 X15.6303 Y24.0516
G01 X15.7150 Y24.0429
G01 X16.0321 Y24.0429
G01 X16.0321 Y24.3051
G01 X15.7530 Y24.3052
G01 X15.7224 Y24.3069
G01 X15.6892 Y24.3117
G01 X15.6566 Y24.3195
G01 X15.6450 Y24.3230
G01 X15.6163 Y24.3335
G01 X15.5886 Y24.3464
G01 X15.5780 Y24.3521
G01 X15.5518 Y24.3679
G01 X15.5272 Y24.3860
G01 X15.5179 Y24.3937
G01 X15.4953 Y24.4143
G01 X15.4727 Y24.4391
G01 X15.4524 Y24.4659
G01 X15.4457 Y24.4759
G01 X15.4301 Y24.5022
G01 X15.4157 Y24.5325
G01 X15.4123 Y24.5409
G01 X15.4013 Y24.5726
G01 X15.3933 Y24.6053
G01 X15.3900 Y24.6261
G01 X15.1247 Y24.6261
G00 Z2.0000
G00 X15.1247 Y25.3799
G01 F50.00
G01 Z-0.1300
G01 F80.00
G01 X15.3900 Y25.3799
G01 X15.3933 Y25.4007
G01 X15.4013 Y25.4334
G01 X15.4040 Y25.4420
G01 X15.4157 Y25.4735
G01 X15.4301 Y25.5038
G01 X15.4457 Y25.5301
G01 X15.4524 Y25.5401
G01 X15.4727 Y25.5669
G01 X15.4953 Y25.5917
G01 X15.5179 Y25.6123
G01 X15.5272 Y25.6200
G01 X15.5518 Y25.6381
G01 X15.5780 Y25.6539
G01 X15.5886 Y25.6596
G01 X15.6163 Y25.6725
G01 X15.6450 Y25.6830
G01 X15.6566 Y25.6865
G01 X15.6892 Y25.6943
G01 X15.7224 Y25.6991
G01 X15.7530 Y25.7008
G01 X16.0321 Y25.7009
G01 X16.0321 Y25.9631
G01 X15.7151 Y25.9631
G01 X15.6292 Y25.9542
G01 X15.4879 Y25.9071
G01 X15.3619 Y25.8292
G01 X15.2573 Y25.7244
G01 X15.1796 Y25.5983
G01 X15.1326 Y25.4570
G01 X15.1247 Y25.3799
G00 Z2.0000
G00 X16.7859 Y25.9631
G01 F50.00
G01 Z-0.1300
G01 F80.00
G01 X16.7859 Y25.7009
G01 X17.0650 Y25.7008
G01 X17.0956 Y25.6991
G01 X17.1288 Y25.6943
G01 X17.1614 Y25.6865
G01 X17.1730 Y25.6830
G01 X17.2017 Y25.6725
G01 X17.2294 Y25.6596
G01 X17.2400 Y25.6539
G01 X17.2662 Y25.6381
G01 X17.2908 Y25.6200
G01 X17.3001 Y25.6123
G01 X17.3227 Y25.5917
G01 X17.3453 Y25.5669
G01 X17.3656 Y25.5401
G01 X17.3723 Y25.5301
G01 X17.3879 Y25.5038
G01 X17.4023 Y25.4735
G01 X17.4057 Y25.4651
G01 X17.4167 Y25.4334
G01 X17.4247 Y25.4007
G01 X17.4280 Y25.3799
G01 X17.6933 Y25.3799
G01 X17.6851 Y25.4581
G01 X17.6380 Y25.5994
G01 X17.5600 Y25.7253
G01 X17.4552 Y25.8299
G01 X17.3291 Y25.9076
G01 X17.1877 Y25.9544
G01 X17.1030 Y25.9631
G01 X16.7859 Y25.9631
G00 Z2.0000
G00 X16.7859 Y24.3051
G01 F50.00
G01 Z-0.1300
G01 F80.00
G01 X16.7859 Y24.0429
G01 X17.1031 Y24.0429
G01 X17.1891 Y24.0519
G01 X17.3301 Y24.0989
G01 X17.4563 Y24.1770
G01 X17.5609 Y24.2818
G01 X17.6386 Y24.4079
G01 X17.6854 Y24.5490
G01 X17.6933 Y24.6261
G01 X17.4280 Y24.6261
G01 X17.4247 Y24.6053
G01 X17.4167 Y24.5726
G01 X17.4140 Y24.5640
G01 X17.4023 Y24.5325
G01 X17.3879 Y24.5022
G01 X17.3723 Y24.4759
G01 X17.3656 Y24.4659
G01 X17.3453 Y24.4391
G01 X17.3227 Y24.4143
G01 X17.3001 Y24.3937
G01 X17.2908 Y24.3860
G01 X17.2662 Y24.3679
G01 X17.2400 Y24.3521
G01 X17.2294 Y24.3464
G01 X17.2017 Y24.3335
G01 X17.1730 Y24.3230
G01 X17.1614 Y24.3195
G01 X17.1288 Y24.3117
G01 X17.0956 Y24.3069
G01 X17.0650 Y24.3052
G01 X16.7859 Y24.3051
G00 Z2.0000
G00 X18.8663 Y24.3598
G01 F50.00
G01 Z-0.1300
G01 F80.00
G01 X18.8803 Y24.2664
G01 X18.9030 Y24.1749
G01 X18.9065 Y24.1633
G01 X18.9385 Y24.0746
G01 X18.9787 Y23.9892
G01 X18.9844 Y23.9786
G01 X19.0330 Y23.8977
G01 X19.0928 Y23.8171
G01 X19.1602 Y23.7427
G01 X19.2300 Y23.6792
G01 X19.2393 Y23.6716
G01 X19.3152 Y23.6155
G01 X19.4013 Y23.5639
G01 X19.4865 Y23.5234
G01 X19.4977 Y23.5188
G01 X19.5808 Y23.4890
G01 X19.5895 Y23.4863
G01 X19.6839 Y23.4628
G01 X19.7773 Y23.4488
G01 X19.7893 Y23.4476
G01 X19.8805 Y23.4431
G01 X22.2865 Y23.4431
G01 X22.3838 Y23.4480
G01 X22.4831 Y23.4628
G01 X22.5804 Y23.4871
G01 X22.6749 Y23.5210
G01 X22.7657 Y23.5639
G01 X22.8518 Y23.6155
G01 X22.9324 Y23.6753
G01 X23.0068 Y23.7427
G01 X23.0742 Y23.8171
G01 X23.1340 Y23.8977
G01 X23.1856 Y23.9838
G01 X23.2285 Y24.0746
G01 X23.2624 Y24.1691
G01 X23.2867 Y24.2664
G01 X23.3015 Y24.3657
G01 X23.3063 Y24.4600
G01 X23.3064 Y24.4690
G01 X23.3015 Y24.5663
G01 X23.2878 Y24.6596
G01 X23.2854 Y24.6714
G01 X23.2640 Y24.7571
G01 X23.2605 Y24.7687
G01 X23.2285 Y24.8574
G01 X23.1856 Y24.9482
G01 X23.1340 Y25.0343
G01 X23.0779 Y25.1102
G01 X23.0703 Y25.1195
G01 X23.0110 Y25.1849
G01 X23.0024 Y25.1935
G01 X22.9324 Y25.2567
G01 X22.8518 Y25.3165
G01 X22.7709 Y25.3651
G01 X22.7603 Y25.3708
G01 X22.6749 Y25.4110
G01 X22.5804 Y25.4449
G01 X22.4889 Y25.4679
G01 X22.4771 Y25.4703
G01 X22.3838 Y25.4840
G01 X22.2865 Y25.4889
G01 X19.8805 Y25.4889
G01 X19.7832 Y25.4840
G01 X19.6839 Y25.4692
G01 X19.5866 Y25.4449
G01 X19.4977 Y25.4132
G01 X19.4865 Y25.4086
G01 X19.4013 Y25.3681
G01 X19.3203 Y25.3197
G01 X19.3103 Y25.3130
G01 X19.2393 Y25.2604
G01 X19.2300 Y25.2528
G01 X19.1602 Y25.1893
G01 X19.0967 Y25.1195
G01 X19.0891 Y25.1102
G01 X19.0330 Y25.0343
G01 X18.9814 Y24.9482
G01 X18.9385 Y24.8574
G01 X18.9046 Y24.7629
G01 X18.8803 Y24.6656
G01 X18.8655 Y24.5663
G01 X18.8606 Y24.4660
G01 X18.8651 Y24.3718
G01 X18.8663 Y24.3598
G00 Z2.0000
G00 X19.3939 Y25.5551
G01 F50.00
G01 Z-0.1300
G01 F80.00
G01 X19.4196 Y25.5671
G01 X19.4329 Y25.5727
G01 X19.5297 Y25.6073
G01 X19.5506 Y25.6134
G01 X19.6433 Y25.6365
G01 X19.6646 Y25.6405
G01 X19.7520 Y25.6534
G01 X19.7664 Y25.6552
G01 X19.7808 Y25.6563
G01 X19.8690 Y25.6606
G01 X19.8835 Y25.6610
G01 X22.2907 Y25.6609
G01 X22.3862 Y25.6563
G01 X22.4006 Y25.6552
G01 X22.4150 Y25.6534
G01 X22.5024 Y25.6405
G01 X22.5237 Y25.6365
G01 X22.6164 Y25.6134
G01 X22.6373 Y25.6073
G01 X22.7341 Y25.5727
G01 X22.7474 Y25.5671
G01 X22.7697 Y25.5567
G01 X22.7623 Y25.5725
G01 X22.7543 Y25.5930
G01 X22.7478 Y25.6140
G01 X22.7429 Y25.6354
G01 X22.7397 Y25.6571
G01 X22.7318 Y25.7277
G01 X22.7301 Y25.7496
G01 X22.7299 Y25.7642
G01 X22.7310 Y25.7862
G01 X22.7337 Y25.8080
G01 X22.7381 Y25.8295
G01 X22.7419 Y25.8437
G01 X22.7463 Y25.8576
G01 X22.7543 Y25.8781
G01 X22.7731 Y25.9169
G01 X22.7474 Y25.9049
G01 X22.7341 Y25.8993
G01 X22.6373 Y25.8647
G01 X22.6164 Y25.8586
G01 X22.5237 Y25.8355
G01 X22.5024 Y25.8315
G01 X22.4150 Y25.8186
G01 X22.4006 Y25.8168
G01 X22.3862 Y25.8157
G01 X22.2980 Y25.8114
G01 X22.2835 Y25.8110
G01 X19.8763 Y25.8111
G01 X19.7808 Y25.8157
G01 X19.7664 Y25.8168
G01 X19.7520 Y25.8186
G01 X19.6646 Y25.8315
G01 X19.6433 Y25.8355
G01 X19.5506 Y25.8586
G01 X19.5297 Y25.8647
G01 X19.4329 Y25.8993
G01 X19.4196 Y25.9049
G01 X19.3973 Y25.9153
G01 X19.4047 Y25.8995
G01 X19.4127 Y25.8790
G01 X19.4192 Y25.8580
G01 X19.4241 Y25.8366
G01 X19.4273 Y25.8149
G01 X19.4352 Y25.7443
G01 X19.4365 Y25.7297
G01 X19.4371 Y25.7078
G01 X19.4360 Y25.6858
G01 X19.4343 Y25.6713
G01 X19.4305 Y25.6496
G01 X19.4251 Y25.6283
G01 X19.4182 Y25.6075
G01 X19.4127 Y25.5939
G01 X19.3939 Y25.5551
G00 Z2.0000
G00 X18.8663 Y26.8998
G01 F50.00
G01 Z-0.1300
G01 F80.00
G01 X18.8803 Y26.8064
G01 X18.9030 Y26.7149
G01 X18.9065 Y26.7033
G01 X18.9385 Y26.6146
G01 X18.9787 Y26.5292
G01 X18.9844 Y26.5186
G01 X19.0330 Y26.4377
G01 X19.0928 Y26.3571
G01 X19.1602 Y26.2827
G01 X19.2300 Y26.2192
G01 X19.2393 Y26.2116
G01 X19.3152 Y26.1555
G01 X19.4013 Y26.1039
G01 X19.4865 Y26.0634
G01 X19.4977 Y26.0588
G01 X19.5808 Y26.0290
G01 X19.5895 Y26.0263
G01 X19.6839 Y26.0028
G01 X19.7773 Y25.9888
G01 X19.7893 Y25.9876
G01 X19.8805 Y25.9831
G01 X22.2865 Y25.9831
G01 X22.3838 Y25.9880
G01 X22.4831 Y26.0028
G01 X22.5804 Y26.0271
G01 X22.6749 Y26.0610
G01 X22.7657 Y26.1039
G01 X22.8518 Y26.1555
G01 X22.9324 Y26.2153
G01 X23.0068 Y26.2827
G01 X23.0742 Y26.3571
G01 X23.1340 Y26.4377
G01 X23.1856 Y26.5238
G01 X23.2285 Y26.6146
G01 X23.2624 Y26.7091
G01 X23.2867 Y26.8064
G01 X23.3015 Y26.9057
G01 X23.3063 Y27.0000
G01 X23.3064 Y27.0090
G01 X23.3015 Y27.1063
G01 X23.2878 Y27.1996
G01 X23.2854 Y27.2114
G01 X23.2640 Y27.2971
G01 X23.2605 Y27.3087
G01 X23.2285 Y27.3974
G01 X23.1856 Y27.4882
G01 X23.1340 Y27.5743
G01 X23.0779 Y27.6502
G01 X23.0703 Y27.6595
G01 X23.0110 Y27.7249
G01 X23.0024 Y27.7335
G01 X22.9324 Y27.7967
G01 X22.8518 Y27.8565
G01 X22.7709 Y27.9051
G01 X22.7603 Y27.9108
G01 X22.6749 Y27.9510
G01 X22.5804 Y27.9849
G01 X22.4889 Y28.0079
G01 X22.4771 Y28.0103
G01 X22.3838 Y28.0240
G01 X22.2865 Y28.0289
G01 X19.8805 Y28.0289
G01 X19.7832 Y28.0240
G01 X19.6839 Y28.0092
G01 X19.5866 Y27.9849
G01 X19.4977 Y27.9532
G01 X19.4865 Y27.9486
G01 X19.4013 Y27.9081
G01 X19.3203 Y27.8597
G01 X19.3103 Y27.8530
G01 X19.2393 Y27.8004
G01 X19.2300 Y27.7928
G01 X19.1602 Y27.7293
G01 X19.0967 Y27.6595
G01 X19.0891 Y27.6502
G01 X19.0330 Y27.5743
G01 X18.9814 Y27.4882
G01 X18.9385 Y27.3974
G01 X18.9046 Y27.3029
G01 X18.8803 Y27.2056
G01 X18.8655 Y27.1063
G01 X18.8606 Y27.0060
G01 X18.8651 Y26.9118
G01 X18.8663 Y26.8998
G00 Z2.0000
G00 X19.3939 Y28.0951
G01 F50.00
G01 Z-0.1300
G01 F80.00
G01 X19.4196 Y28.1071
G01 X19.4329 Y28.1127
G01 X19.5297 Y28.1473
G01 X19.5506 Y28.1534
G01 X19.6433 Y28.1765
G01 X19.6646 Y28.1805
G01 X19.7520 Y28.1934
G01 X19.7664 Y28.1952
G01 X19.7808 Y28.1963
G01 X19.8690 Y28.2006
G01 X19.8835 Y28.2010
G01 X22.2907 Y28.2009
G01 X22.3862 Y28.1963
G01 X22.4006 Y28.1952
G01 X22.4150 Y28.1934
G01 X22.5024 Y28.1805
G01 X22.5237 Y28.1765
G01 X22.6164 Y28.1534
G01 X22.6373 Y28.1473
G01 X22.7341 Y28.1127
G01 X22.7474 Y28.1071
G01 X22.7697 Y28.0967
G01 X22.7623 Y28.1125
G01 X22.7543 Y28.1330
G01 X22.7478 Y28.1540
G01 X22.7429 Y28.1754
G01 X22.7397 Y28.1971
G01 X22.7318 Y28.2677
G01 X22.7305 Y28.2823
G01 X22.7299 Y28.3042
G01 X22.7310 Y28.3262
G01 X22.7337 Y28.3480
G01 X22.7381 Y28.3695
G01 X22.7419 Y28.3837
G01 X22.7488 Y28.4045
G01 X22.7543 Y28.4181
G01 X22.7731 Y28.4569
G01 X22.7474 Y28.4449
G01 X22.7341 Y28.4393
G01 X22.6373 Y28.4047
G01 X22.6164 Y28.3986
G01 X22.5237 Y28.3755
G01 X22.5024 Y28.3715
G01 X22.4150 Y28.3586
G01 X22.4006 Y28.3568
G01 X22.3862 Y28.3557
G01 X22.2980 Y28.3514
G01 X22.2835 Y28.3510
G01 X19.8763 Y28.3511
G01 X19.7808 Y28.3557
G01 X19.7664 Y28.3568
G01 X19.7520 Y28.3586
G01 X19.6646 Y28.3715
G01 X19.6433 Y28.3755
G01 X19.5506 Y28.3986
G01 X19.5297 Y28.4047
G01 X19.4329 Y28.4393
G01 X19.4196 Y28.4449
G01 X19.3973 Y28.4553
G01 X19.4047 Y28.4395
G01 X19.4127 Y28.4190
G01 X19.4192 Y28.3980
G01 X19.4241 Y28.3766
G01 X19.4273 Y28.3549
G01 X19.4352 Y28.2843
G01 X19.4365 Y28.2697
G01 X19.4371 Y28.2478
G01 X19.4360 Y28.2258
G01 X19.4333 Y28.2040
G01 X19.4289 Y28.1825
G01 X19.4251 Y28.1683
G01 X19.4207 Y28.1544
G01 X19.4127 Y28.1339
G01 X19.3939 Y28.0951
G00 Z2.0000
G00 X18.8663 Y29.4398
G01 F50.00
G01 Z-0.1300
G01 F80.00
G01 X18.8803 Y29.3464
G01 X18.9030 Y29.2549
G01 X18.9065 Y29.2433
G01 X18.9385 Y29.1546
G01 X18.9787 Y29.0692
G01 X18.9844 Y29.0586
G01 X19.0330 Y28.9777
G01 X19.0928 Y28.8971
G01 X19.1602 Y28.8227
G01 X19.2300 Y28.7592
G01 X19.2393 Y28.7516
G01 X19.3152 Y28.6955
G01 X19.4013 Y28.6439
G01 X19.4865 Y28.6034
G01 X19.4977 Y28.5988
G01 X19.5808 Y28.5690
G01 X19.5895 Y28.5663
G01 X19.6839 Y28.5428
G01 X19.7773 Y28.5288
G01 X19.7893 Y28.5276
G01 X19.8805 Y28.5231
G01 X22.2865 Y28.5231
G01 X22.3838 Y28.5280
G01 X22.4831 Y28.5428
G01 X22.5804 Y28.5671
G01 X22.6749 Y28.6010
G01 X22.7657 Y28.6439
G01 X22.8518 Y28.6955
G01 X22.9324 Y28.7553
G01 X23.0068 Y28.8227
G01 X23.0742 Y28.8971
G01 X23.1340 Y28.9777
G01 X23.1856 Y29.0638
G01 X23.2285 Y29.1546
G01 X23.2624 Y29.2491
G01 X23.2867 Y29.3464
G01 X23.3015 Y29.4457
G01 X23.3063 Y29.5400
G01 X23.3064 Y29.5490
G01 X23.3015 Y29.6463
G01 X23.2878 Y29.7396
G01 X23.2854 Y29.7514
G01 X23.2640 Y29.8371
G01 X23.2605 Y29.8487
G01 X23.2285 Y29.9374
G01 X23.1856 Y30.0282
G01 X23.1340 Y30.1143
G01 X23.0779 Y30.1902
G01 X23.0703 Y30.1995
G01 X23.0110 Y30.2649
G01 X23.0024 Y30.2735
G01 X22.9324 Y30.3367
G01 X22.8518 Y30.3965
G01 X22.7709 Y30.4451
G01 X22.7603 Y30.4508
G01 X22.6749 Y30.4910
G01 X22.5804 Y30.5249
G01 X22.4889 Y30.5479
G01 X22.4771 Y30.5503
G01 X22.3838 Y30.5640
G01 X22.2865 Y30.5689
G01 X19.8805 Y30.5689
G01 X19.7832 Y30.5640
G01 X19.6839 Y30.5492
G01 X19.5866 Y30.5249
G01 X19.4977 Y30.4932
G01 X19.4865 Y30.4886
G01 X19.4013 Y30.4481
G01 X19.3203 Y30.3997
G01 X19.3103 Y30.3930
G01 X19.2393 Y30.3404
G01 X19.2300 Y30.3328
G01 X19.1602 Y30.2693
G01 X19.0967 Y30.1995
G01 X19.0891 Y30.1902
G01 X19.0330 Y30.1143
G01 X18.9814 Y30.0282
G01 X18.9385 Y29.9374
G01 X18.9046 Y29.8429
G01 X18.8803 Y29.7456
G01 X18.8655 Y29.6463
G01 X18.8606 Y29.5460
G01 X18.8651 Y29.4518
G01 X18.8663 Y29.4398
G00 Z2.0000
G00 X18.8663 Y31.9798
G01 F50.00
G01 Z-0.1300
G01 F80.00
G01 X18.8803 Y31.8864
G01 X18.9046 Y31.7891
G01 X18.9385 Y31.6946
G01 X18.9787 Y31.6092
G01 X18.9844 Y31.5986
G01 X19.0298 Y31.5228
G01 X19.0365 Y31.5128
G01 X19.0928 Y31.4371
G01 X19.1560 Y31.3671
G01 X19.1646 Y31.3585
G01 X19.2300 Y31.2992
G01 X19.2393 Y31.2916
G01 X19.3152 Y31.2355
G01 X19.4013 Y31.1839
G01 X19.4921 Y31.1410
G01 X19.5808 Y31.1090
G01 X19.5924 Y31.1055
G01 X19.6839 Y31.0828
G01 X19.7832 Y31.0680
G01 X19.8835 Y31.0631
G01 X22.2865 Y31.0631
G01 X22.3838 Y31.0680
G01 X22.4771 Y31.0817
G01 X22.4889 Y31.0841
G01 X22.5746 Y31.1055
G01 X22.5862 Y31.1090
G01 X22.6749 Y31.1410
G01 X22.7378 Y31.1705
G01 X24.3429 Y29.5654
G01 X24.3429 Y5.9385
G01 X24.3447 Y5.9006
G01 X24.3458 Y5.8886
G01 X24.3515 Y5.8511
G01 X24.3622 Y5.8084
G01 X24.3770 Y5.7670
G01 X24.3931 Y5.7327
G01 X24.3988 Y5.7220
G01 X24.4168 Y5.6921
G01 X24.4219 Y5.6846
G01 X24.4446 Y5.6543
G01 X24.4742 Y5.6217
G01 X27.9032 Y2.1927
G01 X27.9312 Y2.1671
G01 X27.9405 Y2.1594
G01 X27.9711 Y2.1369
G01 X28.0035 Y2.1173
G01 X28.0142 Y2.1116
G01 X28.0485 Y2.0955
G01 X28.0842 Y2.0826
G01 X28.0928 Y2.0799
G01 X28.1326 Y2.0700
G01 X28.1701 Y2.0643
G01 X28.1821 Y2.0632
G01 X28.2200 Y2.0614
G01 X84.9890 Y2.0614
G01 X85.0269 Y2.0632
G01 X85.0389 Y2.0643
G01 X85.0764 Y2.0700
G01 X85.1191 Y2.0807
G01 X85.1605 Y2.0955
G01 X85.1948 Y2.1116
G01 X85.2055 Y2.1173
G01 X85.2354 Y2.1353
G01 X85.2429 Y2.1404
G01 X85.2732 Y2.1631
G01 X85.3058 Y2.1927
G01 X86.7049 Y3.5918
G01 X86.7324 Y3.6223
G01 X86.7551 Y3.6526
G01 X86.7618 Y3.6627
G01 X86.7812 Y3.6953
G01 X86.7975 Y3.7295
G01 X86.8021 Y3.7407
G01 X86.8148 Y3.7764
G01 X86.8248 Y3.8161
G01 X86.8265 Y3.8250
G01 X86.8319 Y3.8626
G01 X86.8341 Y3.9065
G01 X86.8341 Y10.0709
G01 X87.8951 Y11.1319
G01 X88.5856 Y11.1319
G01 X88.5992 Y11.1032
G01 X88.6033 Y11.0952
G01 X88.6518 Y11.0142
G01 X88.6570 Y11.0068
G01 X88.7096 Y10.9358
G01 X88.7152 Y10.9288
G01 X88.7807 Y10.8567
G01 X88.8505 Y10.7932
G01 X88.8598 Y10.7856
G01 X88.9332 Y10.7312
G01 X88.9408 Y10.7263
G01 X89.0218 Y10.6779
G01 X89.1070 Y10.6374
G01 X89.1182 Y10.6328
G01 X89.2013 Y10.6030
G01 X89.2129 Y10.5995
G01 X89.3044 Y10.5768
G01 X89.3978 Y10.5628
G01 X89.4098 Y10.5616
G01 X89.5040 Y10.5571
G01 X91.9070 Y10.5571
G01 X92.0043 Y10.5620
G01 X92.0976 Y10.5757
G01 X92.1094 Y10.5781
G01 X92.1951 Y10.5995
G01 X92.2067 Y10.6030
G01 X92.2954 Y10.6350
G01 X92.3862 Y10.6779
G01 X92.4723 Y10.7295
G01 X92.5482 Y10.7856
G01 X92.5575 Y10.7932
G01 X92.6229 Y10.8525
G01 X92.6315 Y10.8611
G01 X92.6947 Y10.9311
G01 X92.7545 Y11.0117
G01 X92.8061 Y11.0978
G01 X92.8466 Y11.1830
G01 X92.8512 Y11.1942
G01 X92.8810 Y11.2773
G01 X92.8837 Y11.2860
G01 X92.9072 Y11.3804
G01 X92.9220 Y11.4797
G01 X92.9269 Y11.5800
G01 X92.9220 Y11.6803
G01 X92.9072 Y11.7796
G01 X92.8829 Y11.8769
G01 X92.8490 Y11.9714
G01 X92.8088 Y12.0568
G01 X92.8031 Y12.0674
G01 X92.7545 Y12.1483
G01 X92.6984 Y12.2242
G01 X92.6908 Y12.2335
G01 X92.6315 Y12.2989
G01 X92.6229 Y12.3075
G01 X92.5529 Y12.3707
G01 X92.4723 Y12.4305
G01 X92.3862 Y12.4821
G01 X92.3010 Y12.5226
G01 X92.2926 Y12.5262
G01 X92.2009 Y12.5589
G01 X92.1036 Y12.5832
G01 X92.0043 Y12.5980
G01 X91.9070 Y12.6029
G01 X89.5040 Y12.6029
G01 X89.4037 Y12.5980
G01 X89.3104 Y12.5843
G01 X89.2986 Y12.5819
G01 X89.2071 Y12.5589
G01 X89.1182 Y12.5272
G01 X89.1070 Y12.5226
G01 X89.0218 Y12.4821
G01 X88.9408 Y12.4337
G01 X88.9332 Y12.4288
G01 X88.8598 Y12.3744
G01 X88.8505 Y12.3668
G01 X88.7807 Y12.3033
G01 X88.7152 Y12.2312
G01 X88.7096 Y12.2242
G01 X88.6570 Y12.1532
G01 X88.6518 Y12.1458
G01 X88.6033 Y12.0648
G01 X88.5992 Y12.0568
G01 X88.5856 Y12.0281
G01 X87.7095 Y12.0281
G01 X87.6686 Y12.0262
G01 X87.6596 Y12.0252
G01 X87.6221 Y12.0195
G01 X87.5852 Y12.0104
G01 X87.5737 Y12.0069
G01 X87.5408 Y11.9951
G01 X87.5325 Y11.9915
G01 X87.4983 Y11.9752
G01 X87.4657 Y11.9558
G01 X87.4556 Y11.9491
G01 X87.4253 Y11.9264
G01 X87.3927 Y11.8968
G01 X86.0671 Y10.5712
G01 X86.0396 Y10.5407
G01 X86.0134 Y10.5054
G01 X85.9908 Y10.4677
G01 X85.9720 Y10.4280
G01 X85.9572 Y10.3866
G01 X85.9465 Y10.3439
G01 X85.9401 Y10.3004
G01 X85.9380 Y10.2595
G01 X85.9379 Y4.0921
G01 X84.8034 Y2.9576
G01 X28.4056 Y2.9576
G01 X25.2391 Y6.1241
G01 X25.2391 Y29.7510
G01 X25.2369 Y29.7949
G01 X25.2315 Y29.8325
G01 X25.2291 Y29.8443
G01 X25.2214 Y29.8753
G01 X25.2189 Y29.8839
G01 X25.2050 Y29.9225
G01 X25.1889 Y29.9568
G01 X25.1832 Y29.9675
G01 X25.1636 Y29.9999
G01 X25.1411 Y30.0305
G01 X25.1334 Y30.0398
G01 X25.1099 Y30.0657
G01 X23.2871 Y31.8885
G01 X23.3015 Y31.9857
G01 X23.3064 Y32.0860
G01 X23.3015 Y32.1863
G01 X23.2878 Y32.2796
G01 X23.2854 Y32.2914
G01 X23.2640 Y32.3771
G01 X23.2605 Y32.3887
G01 X23.2285 Y32.4774
G01 X23.1883 Y32.5628
G01 X23.1826 Y32.5734
G01 X23.1340 Y32.6543
G01 X23.0742 Y32.7349
G01 X23.0068 Y32.8093
G01 X22.9324 Y32.8767
G01 X22.8518 Y32.9365
G01 X22.7657 Y32.9881
G01 X22.6749 Y33.0310
G01 X22.5833 Y33.0639
G01 X22.5746 Y33.0665
G01 X22.4889 Y33.0879
G01 X22.4771 Y33.0903
G01 X22.3838 Y33.1040
G01 X22.2835 Y33.1089
G01 X19.8805 Y33.1089
G01 X19.7832 Y33.1040
G01 X19.6899 Y33.0903
G01 X19.6781 Y33.0879
G01 X19.5866 Y33.0649
G01 X19.4921 Y33.0310
G01 X19.4067 Y32.9908
G01 X19.3961 Y32.9851
G01 X19.3203 Y32.9397
G01 X19.3103 Y32.9330
G01 X19.2346 Y32.8767
G01 X19.1602 Y32.8093
G01 X19.0928 Y32.7349
G01 X19.0330 Y32.6543
G01 X18.9814 Y32.5682
G01 X18.9385 Y32.4774
G01 X18.9046 Y32.3829
G01 X18.8816 Y32.2914
G01 X18.8792 Y32.2796
G01 X18.8663 Y32.1922
G01 X18.8651 Y32.1802
G01 X18.8606 Y32.0860
G01 X18.8651 Y31.9918
G01 X18.8663 Y31.9798
G00 Z2.0000
G00 X18.8663 Y34.5198
G01 F50.00
G01 Z-0.1300
G01 F80.00
G01 X18.8803 Y34.4264
G01 X18.9046 Y34.3291
G01 X18.9385 Y34.2346
G01 X18.9787 Y34.1492
G01 X18.9844 Y34.1386
G01 X19.0298 Y34.0628
G01 X19.0365 Y34.0528
G01 X19.0928 Y33.9771
G01 X19.1602 Y33.9027
G01 X19.2346 Y33.8353
G01 X19.3103 Y33.7790
G01 X19.3203 Y33.7723
G01 X19.3961 Y33.7269
G01 X19.4067 Y33.7212
G01 X19.4921 Y33.6810
G01 X19.5866 Y33.6471
G01 X19.6839 Y33.6228
G01 X19.7832 Y33.6080
G01 X19.8835 Y33.6031
G01 X22.2835 Y33.6031
G01 X22.3777 Y33.6076
G01 X22.3897 Y33.6088
G01 X22.4831 Y33.6228
G01 X22.5746 Y33.6455
G01 X22.5862 Y33.6490
G01 X22.6749 Y33.6810
G01 X22.7603 Y33.7212
G01 X22.7709 Y33.7269
G01 X22.8467 Y33.7723
G01 X22.8567 Y33.7790
G01 X22.9324 Y33.8353
G01 X23.0068 Y33.9027
G01 X23.0742 Y33.9771
G01 X23.1305 Y34.0528
G01 X23.1357 Y34.0602
G01 X23.1411 Y34.0692
G01 X25.6764 Y31.5339
G01 X25.6764 Y6.5735
G01 X25.6786 Y6.5296
G01 X25.6850 Y6.4861
G01 X25.6941 Y6.4492
G01 X25.6966 Y6.4406
G01 X25.7084 Y6.4077
G01 X25.7130 Y6.3965
G01 X25.7293 Y6.3623
G01 X25.7519 Y6.3246
G01 X25.7781 Y6.2893
G01 X25.8056 Y6.2588
G01 X28.4747 Y3.5897
G01 X28.5073 Y3.5601
G01 X28.5426 Y3.5339
G01 X28.5803 Y3.5113
G01 X28.6173 Y3.4937
G01 X28.6257 Y3.4904
G01 X28.6614 Y3.4777
G01 X28.7041 Y3.4670
G01 X28.7476 Y3.4606
G01 X28.7915 Y3.4584
G01 X83.7220 Y3.4585
G01 X83.7629 Y3.4606
G01 X83.8064 Y3.4670
G01 X83.8491 Y3.4777
G01 X83.8848 Y3.4904
G01 X83.8932 Y3.4937
G01 X83.9248 Y3.5086
G01 X83.9355 Y3.5143
G01 X83.9679 Y3.5339
G01 X83.9985 Y3.5564
G01 X84.0056 Y3.5621
G01 X84.0358 Y3.5897
G01 X84.7999 Y4.3538
G01 X84.8274 Y4.3843
G01 X84.8536 Y4.4196
G01 X84.8762 Y4.4573
G01 X84.8938 Y4.4943
G01 X84.8971 Y4.5027
G01 X84.9098 Y4.5384
G01 X84.9205 Y4.5811
G01 X84.9269 Y4.6246
G01 X84.9291 Y4.6685
G01 X84.9291 Y11.2725
G01 X84.9273 Y11.3104
G01 X84.9262 Y11.3224
G01 X84.9205 Y11.3599
G01 X84.9114 Y11.3968
G01 X84.9079 Y11.4083
G01 X84.8950 Y11.4440
G01 X84.8789 Y11.4783
G01 X84.8732 Y11.4890
G01 X84.8536 Y11.5214
G01 X84.8311 Y11.5520
G01 X84.8234 Y11.5613
G01 X84.7978 Y11.5893
G01 X82.7102 Y13.6769
G01 X82.6797 Y13.7044
G01 X82.6494 Y13.7271
G01 X82.6393 Y13.7338
G01 X82.6067 Y13.7532
G01 X82.5725 Y13.7695
