(G-CODE GENERATED BY FLATCAM v8.992 - www.flatcam.org - Version Date: 2020/05/03)

(Name: NPN Tracer V1-F_Cu_fast.gbr_iso_cnc)
(Type: G-code from Geometry)
(Units: MM)

(Created on Thursday, 23 February 2023 at 16:37)

(This preprocessor is the default preprocessor used by FlatCAM.)
(It is made to work with MACH3 compatible motion controllers.)

(TOOL DIAMETER: 0.2423 mm)
(Feedrate_XY: 120.0 mm/min)
(Feedrate_Z: 60.0 mm/min)
(Feedrate rapids 1500.0 mm/min)

(Z_Cut: -0.12 mm)
(Z_Move: 2.0 mm)
(Z Start: None mm)
(Z End: 10.0 mm)
(Steps per circle: 64)
(Preprocessor Geometry: default)

(X range:   -0.1230 ...   94.4725  mm)
(Y range:    0.4555 ...   59.9355  mm)

(Spindle Speed: None RPM)
G21
G90
G94



G01 F120.00
G00 Z2.0000

M03
G00 X-0.1037 Y1.2492
G01 F60.00
G01 Z-0.1200
G01 F120.00
G01 X-0.0923 Y1.1969
G01 X-0.0875 Y1.1762
G01 X-0.0822 Y1.1557
G01 X-0.0765 Y1.1353
G01 X-0.0702 Y1.1151
G01 X-0.0634 Y1.0950
G01 X-0.0561 Y1.0751
G01 X-0.0483 Y1.0554
G01 X-0.0400 Y1.0359
G01 X-0.0312 Y1.0166
G01 X-0.0220 Y0.9976
G01 X-0.0122 Y0.9787
G01 X-0.0021 Y0.9601
G01 X0.0086 Y0.9418
G01 X0.0197 Y0.9238
G01 X0.0313 Y0.9060
G01 X0.0432 Y0.8885
G01 X0.0557 Y0.8714
G01 X0.0685 Y0.8545
G01 X0.0818 Y0.8380
G01 X0.0955 Y0.8218
G01 X0.1420 Y0.7681
G01 X0.1560 Y0.7524
G01 X0.1703 Y0.7370
G01 X0.1851 Y0.7220
G01 X0.2002 Y0.7073
G01 X0.2157 Y0.6930
G01 X0.2315 Y0.6792
G01 X0.2477 Y0.6657
G01 X0.2642 Y0.6526
G01 X0.2810 Y0.6399
G01 X0.2981 Y0.6276
G01 X0.3156 Y0.6158
G01 X0.3333 Y0.6044
G01 X0.3513 Y0.5935
G01 X0.3695 Y0.5830
G01 X0.3881 Y0.5730
G01 X0.4068 Y0.5634
G01 X0.4258 Y0.5543
G01 X0.4450 Y0.5457
G01 X0.4644 Y0.5375
G01 X0.4841 Y0.5298
G01 X0.5039 Y0.5227
G01 X0.5238 Y0.5160
G01 X0.5440 Y0.5098
G01 X0.6315 Y0.4843
G01 X0.6707 Y0.4748
G01 X0.6905 Y0.4708
G01 X0.7303 Y0.4641
G01 X0.7704 Y0.4593
G01 X0.8106 Y0.4564
G01 X0.8510 Y0.4555
G01 X93.4985 Y0.4555
G01 X93.5187 Y0.4557
G01 X93.5590 Y0.4576
G01 X93.5992 Y0.4614
G01 X93.6192 Y0.4641
G01 X93.6590 Y0.4708
G01 X93.6788 Y0.4748
G01 X93.7311 Y0.4862
G01 X93.7518 Y0.4910
G01 X93.7723 Y0.4963
G01 X93.7927 Y0.5020
G01 X93.8129 Y0.5083
G01 X93.8330 Y0.5151
G01 X93.8529 Y0.5224
G01 X93.8726 Y0.5302
G01 X93.8921 Y0.5385
G01 X93.9114 Y0.5473
G01 X93.9304 Y0.5565
G01 X93.9493 Y0.5663
G01 X93.9679 Y0.5764
G01 X93.9862 Y0.5871
G01 X94.0042 Y0.5982
G01 X94.0220 Y0.6098
G01 X94.0395 Y0.6217
G01 X94.0566 Y0.6342
G01 X94.0735 Y0.6470
G01 X94.0900 Y0.6603
G01 X94.1062 Y0.6740
G01 X94.1756 Y0.7345
G01 X94.1910 Y0.7488
G01 X94.2060 Y0.7636
G01 X94.2207 Y0.7787
G01 X94.2350 Y0.7942
G01 X94.2488 Y0.8100
G01 X94.2623 Y0.8262
G01 X94.2754 Y0.8427
G01 X94.2881 Y0.8595
G01 X94.3004 Y0.8766
G01 X94.3122 Y0.8941
G01 X94.3236 Y0.9118
G01 X94.3345 Y0.9298
G01 X94.3450 Y0.9480
G01 X94.3550 Y0.9666
G01 X94.3646 Y0.9853
G01 X94.3737 Y1.0043
G01 X94.3823 Y1.0235
G01 X94.3905 Y1.0429
G01 X94.3982 Y1.0626
G01 X94.4053 Y1.0824
G01 X94.4120 Y1.1023
G01 X94.4182 Y1.1225
G01 X94.4437 Y1.2100
G01 X94.4486 Y1.2296
G01 X94.4572 Y1.2690
G01 X94.4608 Y1.2889
G01 X94.4666 Y1.3288
G01 X94.4704 Y1.3690
G01 X94.4723 Y1.4093
G01 X94.4725 Y1.4295
G01 X94.4725 Y58.9615
G01 X94.4723 Y58.9817
G01 X94.4704 Y59.0220
G01 X94.4666 Y59.0622
G01 X94.4639 Y59.0822
G01 X94.4608 Y59.1021
G01 X94.4532 Y59.1418
G01 X94.4418 Y59.1941
G01 X94.4370 Y59.2148
G01 X94.4317 Y59.2353
G01 X94.4260 Y59.2557
G01 X94.4197 Y59.2759
G01 X94.4129 Y59.2960
G01 X94.4056 Y59.3159
G01 X94.3978 Y59.3356
G01 X94.3895 Y59.3551
G01 X94.3807 Y59.3744
G01 X94.3715 Y59.3934
G01 X94.3617 Y59.4123
G01 X94.3516 Y59.4309
G01 X94.3409 Y59.4492
G01 X94.3298 Y59.4672
G01 X94.3182 Y59.4850
G01 X94.3063 Y59.5025
G01 X94.2938 Y59.5196
G01 X94.2810 Y59.5365
G01 X94.2677 Y59.5530
G01 X94.2540 Y59.5692
G01 X94.2075 Y59.6229
G01 X94.1935 Y59.6386
G01 X94.1792 Y59.6540
G01 X94.1644 Y59.6690
G01 X94.1493 Y59.6837
G01 X94.1338 Y59.6980
G01 X94.1180 Y59.7118
G01 X94.1018 Y59.7253
G01 X94.0853 Y59.7384
G01 X94.0685 Y59.7511
G01 X94.0514 Y59.7634
G01 X94.0339 Y59.7752
G01 X94.0162 Y59.7866
G01 X93.9982 Y59.7975
G01 X93.9800 Y59.8080
G01 X93.9614 Y59.8180
G01 X93.9427 Y59.8276
G01 X93.9237 Y59.8367
G01 X93.9045 Y59.8453
G01 X93.8851 Y59.8535
G01 X93.8654 Y59.8612
G01 X93.8456 Y59.8683
G01 X93.8257 Y59.8750
G01 X93.8055 Y59.8812
G01 X93.7180 Y59.9067
G01 X93.6788 Y59.9162
G01 X93.6391 Y59.9238
G01 X93.6192 Y59.9269
G01 X93.5791 Y59.9317
G01 X93.5590 Y59.9334
G01 X93.5389 Y59.9346
G01 X93.4985 Y59.9355
G01 X92.8883 Y59.9355
G01 X92.8479 Y59.9346
G01 X92.7897 Y59.9304
G01 X92.7496 Y59.9256
G01 X92.7098 Y59.9189
G01 X92.6704 Y59.9104
G01 X92.6314 Y59.8999
G01 X92.5930 Y59.8876
G01 X92.5552 Y59.8735
G01 X92.5181 Y59.8576
G01 X92.4535 Y59.8281
G01 X92.4344 Y59.8192
G01 X92.4156 Y59.8097
G01 X92.3970 Y59.7998
G01 X92.3787 Y59.7894
G01 X92.3606 Y59.7786
G01 X92.3429 Y59.7673
G01 X92.3253 Y59.7556
G01 X92.3081 Y59.7434
G01 X92.2912 Y59.7309
G01 X92.2747 Y59.7179
G01 X92.2584 Y59.7045
G01 X92.2425 Y59.6907
G01 X92.2269 Y59.6765
G01 X92.2117 Y59.6619
G01 X92.1969 Y59.6470
G01 X92.1824 Y59.6317
G01 X92.1683 Y59.6160
G01 X92.1546 Y59.6000
G01 X92.1413 Y59.5837
G01 X92.1284 Y59.5670
G01 X92.1160 Y59.5501
G01 X92.1039 Y59.5328
G01 X92.0923 Y59.5152
G01 X92.0428 Y59.4376
G01 X92.0321 Y59.4195
G01 X92.0218 Y59.4011
G01 X92.0120 Y59.3825
G01 X92.0027 Y59.3636
G01 X91.9938 Y59.3445
G01 X91.9854 Y59.3252
G01 X91.9775 Y59.3057
G01 X91.9701 Y59.2859
G01 X91.9631 Y59.2661
G01 X91.9567 Y59.2460
G01 X91.9508 Y59.2258
G01 X91.9453 Y59.2054
G01 X91.9404 Y59.1850
G01 X91.9360 Y59.1644
G01 X91.9321 Y59.1437
G01 X91.9287 Y59.1229
G01 X91.9259 Y59.1020
G01 X91.9235 Y59.0811
G01 X91.9217 Y59.0601
G01 X91.9204 Y59.0391
G01 X91.9196 Y59.0181
G01 X91.9193 Y58.9260
G01 X91.9196 Y58.9045
G01 X91.8764 Y58.9105
G01 X91.8569 Y58.9126
G01 X91.8176 Y58.9153
G01 X91.7864 Y58.9165
G01 X91.3858 Y58.9167
G01 X91.3650 Y58.9165
G01 X91.3319 Y58.9151
G01 X91.3112 Y58.9138
G01 X91.2904 Y58.9120
G01 X91.2697 Y58.9098
G01 X91.2370 Y58.9052
G01 X91.2164 Y58.9018
G01 X91.1960 Y58.8980
G01 X91.1715 Y58.8928
G01 X91.1471 Y58.8980
G01 X91.1266 Y58.9018
G01 X91.0939 Y58.9070
G01 X91.0733 Y58.9098
G01 X91.0526 Y58.9120
G01 X91.0319 Y58.9138
G01 X91.0111 Y58.9151
G01 X90.9781 Y58.9165
G01 X90.9572 Y58.9167
G01 X90.4602 Y58.9165
G01 X90.4272 Y58.9151
G01 X90.4064 Y58.9138
G01 X90.3857 Y58.9120
G01 X90.3650 Y58.9098
G01 X90.3444 Y58.9070
G01 X90.3117 Y58.9018
G01 X90.2912 Y58.8980
G01 X90.2708 Y58.8937
G01 X90.2387 Y58.8859
G01 X90.2186 Y58.8806
G01 X90.1986 Y58.8748
G01 X90.1717 Y58.8661
G01 X90.1481 Y58.8737
G01 X90.1262 Y58.8800
G01 X90.0913 Y58.8893
G01 X90.0691 Y58.8944
G01 X90.0469 Y58.8990
G01 X90.0245 Y58.9029
G01 X89.9887 Y58.9084
G01 X89.9662 Y58.9111
G01 X89.9435 Y58.9133
G01 X89.9208 Y58.9148
G01 X89.8847 Y58.9164
G01 X89.8620 Y58.9167
G01 X89.7440 Y58.9164
G01 X89.7079 Y58.9148
G01 X89.6852 Y58.9133
G01 X89.6626 Y58.9111
G01 X89.6400 Y58.9084
G01 X89.6043 Y58.9029
G01 X89.5819 Y58.8990
G01 X89.5596 Y58.8944
G01 X89.5375 Y58.8893
G01 X89.5025 Y58.8800
G01 X89.4807 Y58.8737
G01 X89.4590 Y58.8668
G01 X89.3162 Y58.8192
G01 X89.2976 Y58.8127
G01 X89.2711 Y58.8027
G01 X89.2373 Y58.8200
G01 X89.2182 Y58.8290
G01 X89.1987 Y58.8375
G01 X89.1676 Y58.8503
G01 X89.1478 Y58.8578
G01 X89.1278 Y58.8648
G01 X89.0957 Y58.8750
G01 X89.0754 Y58.8810
G01 X89.0550 Y58.8865
G01 X89.0344 Y58.8915
G01 X89.0137 Y58.8960
G01 X88.9806 Y58.9024
G01 X88.9597 Y58.9058
G01 X88.9387 Y58.9087
G01 X88.9052 Y58.9123
G01 X88.8841 Y58.9142
G01 X88.8630 Y58.9155
G01 X88.8418 Y58.9163
G01 X88.8081 Y58.9166
G01 X88.7870 Y58.9163
G01 X88.7658 Y58.9155
G01 X88.7446 Y58.9142
G01 X88.7111 Y58.9111
G01 X88.6901 Y58.9087
G01 X88.6691 Y58.9058
G01 X88.6482 Y58.9024
G01 X88.6274 Y58.8985
G01 X88.5944 Y58.8915
G01 X88.5738 Y58.8865
G01 X88.5533 Y58.8810
G01 X88.5211 Y58.8713
G01 X88.5009 Y58.8648
G01 X88.4809 Y58.8578
G01 X88.4611 Y58.8503
G01 X88.4300 Y58.8375
G01 X88.4095 Y58.8285
G01 X88.3758 Y58.8432
G01 X88.3576 Y58.8506
G01 X88.3206 Y58.8640
G01 X88.2909 Y58.8737
G01 X88.2721 Y58.8793
G01 X88.2340 Y58.8892
G01 X88.2036 Y58.8962
G01 X88.1843 Y58.9000
G01 X88.1455 Y58.9064
G01 X88.1145 Y58.9105
G01 X88.0950 Y58.9126
G01 X88.0557 Y58.9153
G01 X88.0245 Y58.9165
G01 X88.0049 Y58.9167
G01 X87.6031 Y58.9165
G01 X87.5700 Y58.9151
G01 X87.5493 Y58.9138
G01 X87.5285 Y58.9120
G01 X87.5078 Y58.9098
G01 X87.4872 Y58.9070
G01 X87.4572 Y58.9023
G01 X87.4273 Y58.9070
G01 X87.4066 Y58.9098
G01 X87.3860 Y58.9120
G01 X87.3652 Y58.9138
G01 X87.3444 Y58.9151
G01 X87.3114 Y58.9165
G01 X87.2906 Y58.9167
G01 X86.6983 Y58.9165
G01 X86.6653 Y58.9151
G01 X86.6445 Y58.9138
G01 X86.6238 Y58.9120
G01 X86.6031 Y58.9098
G01 X86.5824 Y58.9070
G01 X86.5498 Y58.9018
G01 X86.5293 Y58.8980
G01 X86.5089 Y58.8937
G01 X86.4887 Y58.8889
G01 X86.4567 Y58.8806
G01 X86.4367 Y58.8748
G01 X86.4168 Y58.8685
G01 X86.3856 Y58.8576
G01 X86.3661 Y58.8504
G01 X86.3467 Y58.8427
G01 X86.3276 Y58.8345
G01 X86.3087 Y58.8258
G01 X86.2789 Y58.8114
G01 X86.2604 Y58.8018
G01 X86.2422 Y58.7918
G01 X86.2137 Y58.7750
G01 X86.1960 Y58.7641
G01 X86.1785 Y58.7527
G01 X86.1581 Y58.7386
G01 X86.1352 Y58.7515
G01 X86.1058 Y58.7667
G01 X86.0872 Y58.7758
G01 X86.0683 Y58.7846
G01 X86.0492 Y58.7928
G01 X86.0298 Y58.8006
G01 X85.9983 Y58.8126
G01 X85.9793 Y58.8192
G01 X85.8364 Y58.8668
G01 X85.8147 Y58.8737
G01 X85.7800 Y58.8836
G01 X85.7580 Y58.8893
G01 X85.7358 Y58.8944
G01 X85.7135 Y58.8990
G01 X85.6911 Y58.9029
G01 X85.6554 Y58.9084
G01 X85.6328 Y58.9111
G01 X85.6102 Y58.9133
G01 X85.5741 Y58.9155
G01 X85.5514 Y58.9164
G01 X85.5287 Y58.9167
G01 X85.2709 Y58.9165
G01 X85.2201 Y58.9141
G01 X85.1809 Y58.9105
G01 X85.1499 Y58.9064
G01 X85.1111 Y58.9000
G01 X85.0727 Y58.8919
G01 X85.0423 Y58.8845
G01 X85.0233 Y58.8793
G01 X84.9858 Y58.8676
G01 X84.9562 Y58.8575
G01 X84.9196 Y58.8432
G01 X84.8858 Y58.8284
G01 X84.8520 Y58.8432
G01 X84.8338 Y58.8506
G01 X84.7968 Y58.8640
G01 X84.7671 Y58.8737
G01 X84.7483 Y58.8793
G01 X84.7102 Y58.8892
G01 X84.6798 Y58.8962
G01 X84.6605 Y58.9000
G01 X84.6217 Y58.9064
G01 X84.5907 Y58.9105
G01 X84.5712 Y58.9126
G01 X84.5516 Y58.9141
G01 X84.5204 Y58.9158
G01 X84.4810 Y58.9167
G01 X84.2906 Y58.9167
G01 X84.2605 Y58.9162
G01 X84.2308 Y58.9149
G01 X84.2101 Y58.9134
G01 X84.1860 Y58.9111
G01 X84.1565 Y58.9074
G01 X84.1359 Y58.9044
G01 X84.1121 Y58.9002
G01 X84.0916 Y58.8962
G01 X84.0713 Y58.8916
G01 X84.0425 Y58.8846
G01 X84.0192 Y58.8781
G01 X83.9992 Y58.8721
G01 X83.9571 Y58.8577
G01 X83.9253 Y58.8689
G01 X83.9058 Y58.8750
G01 X83.8744 Y58.8838
G01 X83.8347 Y58.8936
G01 X83.7945 Y58.9015
G01 X83.7623 Y58.9068
G01 X83.7217 Y58.9118
G01 X83.6688 Y58.9157
G01 X83.6278 Y58.9167
G01 X83.5953 Y58.9162
G01 X83.5544 Y58.9142
G01 X83.5136 Y58.9103
G01 X83.4813 Y58.9062
G01 X83.4611 Y58.9030
G01 X83.4409 Y58.8993
G01 X83.4091 Y58.8926
G01 X83.3693 Y58.8828
G01 X83.3300 Y58.8712
G01 X83.2906 Y58.8578
G01 X83.2511 Y58.8712
G01 X83.2118 Y58.8828
G01 X83.1721 Y58.8926
G01 X83.1402 Y58.8993
G01 X83.0998 Y58.9062
G01 X83.0472 Y58.9125
G01 X83.0063 Y58.9155
G01 X82.9738 Y58.9165
G01 X82.9328 Y58.9164
G01 X82.9123 Y58.9157
G01 X82.8799 Y58.9135
G01 X82.8391 Y58.9095
G01 X82.7986 Y58.9036
G01 X82.7665 Y58.8978
G01 X82.7465 Y58.8936
G01 X82.7191 Y58.8870
G01 X82.6913 Y58.8937
G01 X82.6709 Y58.8980
G01 X82.6504 Y58.9018
G01 X82.6177 Y58.9070
G01 X82.5971 Y58.9098
G01 X82.5764 Y58.9120
G01 X82.5557 Y58.9138
G01 X82.5349 Y58.9151
G01 X82.5019 Y58.9165
G01 X82.4810 Y58.9167
G01 X82.4602 Y58.9165
G01 X82.4272 Y58.9151
G01 X82.4064 Y58.9138
G01 X82.3857 Y58.9120
G01 X82.3650 Y58.9098
G01 X82.3444 Y58.9070
G01 X82.3117 Y58.9018
G01 X82.2912 Y58.8980
G01 X82.2708 Y58.8937
G01 X82.2506 Y58.8889
G01 X82.2186 Y58.8806
G01 X82.1953 Y58.8738
G01 X82.1735 Y58.8803
G01 X82.1536 Y58.8856
G01 X82.1218 Y58.8932
G01 X82.0814 Y58.9014
G01 X82.0407 Y58.9077
G01 X82.0083 Y58.9117
G01 X81.9672 Y58.9150
G01 X81.9139 Y58.9167
G01 X81.8785 Y58.9162
G01 X81.8578 Y58.9227
G01 X81.8378 Y58.9285
G01 X81.8058 Y58.9368
G01 X81.7855 Y58.9416
G01 X81.7651 Y58.9459
G01 X81.7447 Y58.9496
G01 X81.7120 Y58.9547
G01 X81.6913 Y58.9575
G01 X81.6707 Y58.9598
G01 X81.6499 Y58.9615
G01 X81.6291 Y58.9628
G01 X81.5961 Y58.9641
G01 X81.5753 Y58.9644
G01 X81.5545 Y58.9641
G01 X81.5214 Y58.9627
G01 X81.5006 Y58.9614
G01 X81.4799 Y58.9596
G01 X81.4592 Y58.9572
G01 X81.4264 Y58.9526
G01 X81.4059 Y58.9493
G01 X81.3854 Y58.9455
G01 X81.3651 Y58.9411
G01 X81.3448 Y58.9363
G01 X81.3128 Y58.9280
G01 X81.2928 Y58.9222
G01 X81.2730 Y58.9158
G01 X81.2533 Y58.9091
G01 X81.2223 Y58.8976
G01 X81.2030 Y58.8899
G01 X81.1838 Y58.8817
G01 X81.1538 Y58.8677
G01 X81.1351 Y58.8586
G01 X81.1167 Y58.8490
G01 X81.0984 Y58.8389
G01 X81.0805 Y58.8284
G01 X81.0522 Y58.8112
G01 X81.0348 Y58.7998
G01 X81.0177 Y58.7880
G01 X81.0008 Y58.7758
G01 X80.9744 Y58.7558
G01 X80.9582 Y58.7428
G01 X80.9423 Y58.7294
G01 X80.9267 Y58.7156
G01 X80.8997 Y58.6906
G01 X80.8830 Y58.7022
G01 X80.8641 Y58.7148
G01 X80.8448 Y58.7268
G01 X80.8251 Y58.7383
G01 X80.7936 Y58.7559
G01 X80.7734 Y58.7664
G01 X80.6605 Y58.8226
G01 X80.6320 Y58.8355
G01 X80.5957 Y58.8506
G01 X80.5587 Y58.8640
G01 X80.5290 Y58.8737
G01 X80.4912 Y58.8845
G01 X80.4609 Y58.8919
G01 X80.4224 Y58.9000
G01 X80.3836 Y58.9064
G01 X80.3526 Y58.9105
G01 X80.3135 Y58.9141
G01 X80.2823 Y58.9158
G01 X80.2430 Y58.9167
G01 X79.8620 Y58.9167
G01 X79.8412 Y58.9165
G01 X79.8204 Y58.9157
G01 X79.7874 Y58.9138
G01 X79.7666 Y58.9120
G01 X79.7459 Y58.9098
G01 X79.7253 Y58.9070
G01 X79.6926 Y58.9018
G01 X79.6722 Y58.8980
G01 X79.6518 Y58.8937
G01 X79.6239 Y58.8870
G01 X79.5960 Y58.8937
G01 X79.5757 Y58.8980
G01 X79.5552 Y58.9018
G01 X79.5346 Y58.9052
G01 X79.5019 Y58.9098
G01 X79.4812 Y58.9120
G01 X79.4605 Y58.9138
G01 X79.4397 Y58.9151
G01 X79.4066 Y58.9165
G01 X79.3858 Y58.9167
G01 X79.3650 Y58.9165
G01 X79.3319 Y58.9151
G01 X79.3112 Y58.9138
G01 X79.2904 Y58.9120
G01 X79.2697 Y58.9098
G01 X79.2491 Y58.9070
G01 X79.2164 Y58.9018
G01 X79.1960 Y58.8980
G01 X79.1756 Y58.8937
G01 X79.1554 Y58.8889
G01 X79.1233 Y58.8806
G01 X79.1001 Y58.8738
G01 X79.0783 Y58.8803
G01 X79.0584 Y58.8856
G01 X79.0265 Y58.8932
G01 X78.9862 Y58.9014
G01 X78.9455 Y58.9077
G01 X78.9130 Y58.9117
G01 X78.8720 Y58.9150
G01 X78.8393 Y58.9163
G01 X78.7981 Y58.9166
G01 X78.7569 Y58.9149
G01 X78.7243 Y58.9125
G01 X78.6834 Y58.9078
G01 X78.6510 Y58.9028
G01 X78.6106 Y58.8951
G01 X78.5905 Y58.8906
G01 X78.5588 Y58.8824
G01 X78.5388 Y58.8769
G01 X78.5048 Y58.8661
G01 X78.4814 Y58.8737
G01 X78.4436 Y58.8845
G01 X78.3941 Y58.8962
G01 X78.3748 Y58.9000
G01 X78.3360 Y58.9064
G01 X78.3050 Y58.9105
G01 X78.2658 Y58.9141
G01 X78.2346 Y58.9158
G01 X78.1953 Y58.9167
G01 X77.8110 Y58.9167
G01 X77.8115 Y58.9383
G01 X77.8113 Y58.9594
G01 X77.8107 Y58.9804
G01 X77.8095 Y59.0014
G01 X77.8078 Y59.0224
G01 X77.8056 Y59.0434
G01 X77.8028 Y59.0643
G01 X77.7895 Y59.1553
G01 X77.7857 Y59.1761
G01 X77.7814 Y59.1967
G01 X77.7766 Y59.2172
G01 X77.7713 Y59.2376
G01 X77.7655 Y59.2578
G01 X77.7592 Y59.2779
G01 X77.7524 Y59.2978
G01 X77.7451 Y59.3176
G01 X77.7373 Y59.3372
G01 X77.7290 Y59.3565
G01 X77.7203 Y59.3757
G01 X77.7111 Y59.3946
G01 X77.7014 Y59.4133
G01 X77.6912 Y59.4318
G01 X77.6806 Y59.4500
G01 X77.6696 Y59.4679
G01 X77.6581 Y59.4855
G01 X77.6462 Y59.5029
G01 X77.6338 Y59.5199
G01 X77.6210 Y59.5367
G01 X77.6078 Y59.5531
G01 X77.5477 Y59.6229
G01 X77.5338 Y59.6386
G01 X77.5194 Y59.6540
G01 X77.5046 Y59.6690
G01 X77.4895 Y59.6837
G01 X77.4740 Y59.6980
G01 X77.4582 Y59.7118
G01 X77.4420 Y59.7253
G01 X77.4255 Y59.7384
G01 X77.4087 Y59.7511
G01 X77.3916 Y59.7634
G01 X77.3741 Y59.7752
G01 X77.3564 Y59.7866
G01 X77.3384 Y59.7975
G01 X77.3202 Y59.8080
G01 X77.3017 Y59.8180
G01 X77.2829 Y59.8276
G01 X77.2639 Y59.8367
G01 X77.2447 Y59.8453
G01 X77.2253 Y59.8535
G01 X77.2057 Y59.8612
G01 X77.1859 Y59.8683
G01 X77.1659 Y59.8750
G01 X77.0776 Y59.9012
G01 X77.0386 Y59.9116
G01 X76.9992 Y59.9202
G01 X76.9594 Y59.9269
G01 X76.9394 Y59.9296
G01 X76.8992 Y59.9334
G01 X76.8589 Y59.9353
G01 X0.8510 Y59.9355
G01 X0.8106 Y59.9346
G01 X0.7905 Y59.9334
G01 X0.7704 Y59.9317
G01 X0.7303 Y59.9269
G01 X0.7104 Y59.9238
G01 X0.6707 Y59.9162
G01 X0.6184 Y59.9048
G01 X0.5977 Y59.9000
G01 X0.5772 Y59.8947
G01 X0.5568 Y59.8890
G01 X0.5366 Y59.8827
G01 X0.5165 Y59.8759
G01 X0.4966 Y59.8686
G01 X0.4769 Y59.8608
G01 X0.4574 Y59.8525
G01 X0.4381 Y59.8437
G01 X0.4191 Y59.8345
G01 X0.4002 Y59.8247
G01 X0.3816 Y59.8146
G01 X0.3633 Y59.8039
G01 X0.3453 Y59.7928
G01 X0.3275 Y59.7812
G01 X0.3100 Y59.7693
G01 X0.2929 Y59.7568
G01 X0.2760 Y59.7440
G01 X0.2595 Y59.7307
G01 X0.2433 Y59.7170
G01 X0.1739 Y59.6565
G01 X0.1585 Y59.6422
G01 X0.1435 Y59.6274
G01 X0.1288 Y59.6123
G01 X0.1145 Y59.5968
G01 X0.1007 Y59.5810
G01 X0.0872 Y59.5648
G01 X0.0741 Y59.5483
G01 X0.0614 Y59.5315
G01 X0.0491 Y59.5144
G01 X0.0373 Y59.4969
G01 X0.0259 Y59.4792
G01 X0.0150 Y59.4612
G01 X0.0045 Y59.4430
G01 X-0.0055 Y59.4244
G01 X-0.0151 Y59.4057
G01 X-0.0242 Y59.3867
G01 X-0.0328 Y59.3675
G01 X-0.0410 Y59.3481
G01 X-0.0487 Y59.3284
G01 X-0.0558 Y59.3086
G01 X-0.0625 Y59.2887
G01 X-0.0687 Y59.2685
G01 X-0.0942 Y59.1810
G01 X-0.1037 Y59.1418
G01 X-0.1077 Y59.1220
G01 X-0.1113 Y59.1021
G01 X-0.1171 Y59.0622
G01 X-0.1209 Y59.0220
G01 X-0.1228 Y58.9817
G01 X-0.1230 Y58.9615
G01 X-0.1230 Y1.4295
G01 X-0.1221 Y1.3891
G01 X-0.1192 Y1.3489
G01 X-0.1171 Y1.3288
G01 X-0.1113 Y1.2889
G01 X-0.1037 Y1.2492
G00 Z2.0000
G00 X0.0384 Y1.2801
G01 F60.00
G01 Z-0.1200
G01 F120.00
G01 X0.0498 Y1.2278
G01 X0.0581 Y1.1937
G01 X0.0681 Y1.1600
G01 X0.0737 Y1.1434
G01 X0.0862 Y1.1106
G01 X0.1004 Y1.0784
G01 X0.1161 Y1.0470
G01 X0.1334 Y1.0165
G01 X0.1426 Y1.0015
G01 X0.1621 Y0.9723
G01 X0.1830 Y0.9441
G01 X0.2053 Y0.9170
G01 X0.2518 Y0.8634
G01 X0.2753 Y0.8376
G01 X0.3001 Y0.8130
G01 X0.3260 Y0.7896
G01 X0.3531 Y0.7676
G01 X0.3670 Y0.7571
G01 X0.3957 Y0.7371
G01 X0.4253 Y0.7186
G01 X0.4557 Y0.7016
G01 X0.4870 Y0.6862
G01 X0.5190 Y0.6723
G01 X0.5517 Y0.6600
G01 X0.5849 Y0.6493
G01 X0.6691 Y0.6248
G01 X0.7016 Y0.6169
G01 X0.7180 Y0.6135
G01 X0.7510 Y0.6080
G01 X0.7842 Y0.6040
G01 X0.8176 Y0.6016
G01 X0.8510 Y0.6008
G01 X93.4985 Y0.6008
G01 X93.5152 Y0.6010
G01 X93.5486 Y0.6026
G01 X93.5819 Y0.6058
G01 X93.5985 Y0.6080
G01 X93.6150 Y0.6106
G01 X93.6479 Y0.6169
G01 X93.7002 Y0.6283
G01 X93.7343 Y0.6366
G01 X93.7680 Y0.6466
G01 X93.7846 Y0.6522
G01 X93.8011 Y0.6583
G01 X93.8336 Y0.6716
G01 X93.8496 Y0.6789
G01 X93.8810 Y0.6946
G01 X93.9115 Y0.7119
G01 X93.9265 Y0.7211
G01 X93.9557 Y0.7406
G01 X93.9699 Y0.7509
G01 X93.9976 Y0.7725
G01 X94.0646 Y0.8303
G01 X94.0904 Y0.8538
G01 X94.1029 Y0.8661
G01 X94.1269 Y0.8914
G01 X94.1384 Y0.9045
G01 X94.1496 Y0.9179
G01 X94.1709 Y0.9455
G01 X94.1909 Y0.9742
G01 X94.2094 Y1.0038
G01 X94.2181 Y1.0189
G01 X94.2264 Y1.0342
G01 X94.2418 Y1.0655
G01 X94.2490 Y1.0814
G01 X94.2621 Y1.1138
G01 X94.2736 Y1.1467
G01 X94.3032 Y1.2476
G01 X94.3111 Y1.2801
G01 X94.3174 Y1.3130
G01 X94.3200 Y1.3295
G01 X94.3222 Y1.3461
G01 X94.3254 Y1.3794
G01 X94.3270 Y1.4128
G01 X94.3272 Y1.4295
G01 X94.3272 Y58.9615
G01 X94.3264 Y58.9949
G01 X94.3254 Y59.0116
G01 X94.3222 Y59.0449
G01 X94.3200 Y59.0615
G01 X94.3174 Y59.0780
G01 X94.3111 Y59.1109
G01 X94.2997 Y59.1632
G01 X94.2914 Y59.1973
G01 X94.2866 Y59.2142
G01 X94.2758 Y59.2476
G01 X94.2633 Y59.2804
G01 X94.2564 Y59.2966
G01 X94.2415 Y59.3284
G01 X94.2334 Y59.3440
G01 X94.2161 Y59.3745
G01 X94.2069 Y59.3895
G01 X94.1974 Y59.4042
G01 X94.1771 Y59.4329
G01 X94.1555 Y59.4606
G01 X94.0977 Y59.5276
G01 X94.0742 Y59.5534
G01 X94.0494 Y59.5780
G01 X94.0235 Y59.6014
G01 X93.9964 Y59.6234
G01 X93.9683 Y59.6441
G01 X93.9391 Y59.6633
G01 X93.9242 Y59.6724
G01 X93.8938 Y59.6894
G01 X93.8625 Y59.7048
G01 X93.8305 Y59.7187
G01 X93.7978 Y59.7310
G01 X93.7813 Y59.7366
G01 X93.6965 Y59.7617
G01 X93.6642 Y59.7704
G01 X93.6315 Y59.7775
G01 X93.5985 Y59.7830
G01 X93.5653 Y59.7870
G01 X93.5319 Y59.7894
G01 X93.5152 Y59.7900
G01 X92.8715 Y59.7900
G01 X92.8381 Y59.7884
G01 X92.8035 Y59.7857
G01 X92.7703 Y59.7817
G01 X92.7538 Y59.7792
G01 X92.7374 Y59.7762
G01 X92.7047 Y59.7691
G01 X92.6724 Y59.7604
G01 X92.6564 Y59.7555
G01 X92.6248 Y59.7446
G01 X92.5937 Y59.7322
G01 X92.5139 Y59.6959
G01 X92.4825 Y59.6806
G01 X92.4519 Y59.6638
G01 X92.4222 Y59.6455
G01 X92.3934 Y59.6257
G01 X92.3794 Y59.6153
G01 X92.3522 Y59.5934
G01 X92.3262 Y59.5703
G01 X92.3012 Y59.5458
G01 X92.2776 Y59.5202
G01 X92.2552 Y59.4934
G01 X92.2342 Y59.4655
G01 X92.2146 Y59.4366
G01 X92.1670 Y59.3621
G01 X92.1496 Y59.3318
G01 X92.1338 Y59.3007
G01 X92.1195 Y59.2689
G01 X92.1068 Y59.2364
G01 X92.1010 Y59.2199
G01 X92.0908 Y59.1866
G01 X92.0822 Y59.1527
G01 X92.0753 Y59.1185
G01 X92.0701 Y59.0840
G01 X92.0667 Y59.0493
G01 X92.0649 Y59.0144
G01 X92.0649 Y58.9093
G01 X92.0665 Y58.8759
G01 X92.0697 Y58.8426
G01 X92.0744 Y58.8095
G01 X92.0785 Y58.7875
G01 X92.0785 Y58.7103
G01 X92.0515 Y58.7208
G01 X92.0097 Y58.7349
G01 X91.9784 Y58.7438
G01 X91.9354 Y58.7540
G01 X91.9034 Y58.7600
G01 X91.8596 Y58.7661
G01 X91.8272 Y58.7691
G01 X91.7830 Y58.7712
G01 X91.3858 Y58.7714
G01 X91.3513 Y58.7705
G01 X91.3219 Y58.7688
G01 X91.3047 Y58.7674
G01 X91.2875 Y58.7655
G01 X91.2583 Y58.7613
G01 X91.2243 Y58.7554
G01 X91.2075 Y58.7519
G01 X91.1715 Y58.7430
G01 X91.1356 Y58.7519
G01 X91.1187 Y58.7554
G01 X91.0847 Y58.7613
G01 X91.0555 Y58.7655
G01 X91.0384 Y58.7674
G01 X91.0212 Y58.7688
G01 X90.9917 Y58.7705
G01 X90.9572 Y58.7714
G01 X90.4638 Y58.7711
G01 X90.4343 Y58.7699
G01 X90.3999 Y58.7674
G01 X90.3657 Y58.7631
G01 X90.3365 Y58.7586
G01 X90.3196 Y58.7554
G01 X90.3027 Y58.7519
G01 X90.2740 Y58.7449
G01 X90.2408 Y58.7357
G01 X90.2080 Y58.7249
G01 X90.1739 Y58.7122
G01 X90.1058 Y58.7346
G01 X90.0748 Y58.7434
G01 X90.0565 Y58.7481
G01 X90.0382 Y58.7524
G01 X90.0197 Y58.7561
G01 X90.0012 Y58.7594
G01 X89.9693 Y58.7643
G01 X89.9506 Y58.7666
G01 X89.9318 Y58.7684
G01 X89.9131 Y58.7696
G01 X89.8808 Y58.7711
G01 X89.8620 Y58.7714
G01 X89.7479 Y58.7711
G01 X89.7157 Y58.7696
G01 X89.6969 Y58.7684
G01 X89.6782 Y58.7666
G01 X89.6595 Y58.7643
G01 X89.6276 Y58.7594
G01 X89.6090 Y58.7561
G01 X89.5906 Y58.7524
G01 X89.5722 Y58.7481
G01 X89.5540 Y58.7434
G01 X89.5230 Y58.7346
G01 X89.5050 Y58.7289
G01 X89.3468 Y58.6759
G01 X89.3055 Y58.6600
G01 X89.2906 Y58.6536
G01 X89.2616 Y58.6401
G01 X89.2467 Y58.6495
G01 X89.2163 Y58.6670
G01 X89.1899 Y58.6812
G01 X89.1742 Y58.6891
G01 X89.1422 Y58.7035
G01 X89.1144 Y58.7150
G01 X89.0980 Y58.7212
G01 X89.0647 Y58.7324
G01 X89.0360 Y58.7411
G01 X89.0190 Y58.7457
G01 X88.9848 Y58.7535
G01 X88.9553 Y58.7592
G01 X88.9206 Y58.7645
G01 X88.9032 Y58.7664
G01 X88.8732 Y58.7692
G01 X88.8557 Y58.7703
G01 X88.8206 Y58.7712
G01 X88.7906 Y58.7710
G01 X88.7730 Y58.7703
G01 X88.7380 Y58.7677
G01 X88.7082 Y58.7645
G01 X88.6908 Y58.7621
G01 X88.6562 Y58.7560
G01 X88.6268 Y58.7498
G01 X88.5928 Y58.7411
G01 X88.5760 Y58.7361
G01 X88.5473 Y58.7271
G01 X88.5143 Y58.7150
G01 X88.4866 Y58.7035
G01 X88.4546 Y58.6891
G01 X88.4389 Y58.6812
G01 X88.4107 Y58.6661
G01 X88.3604 Y58.6911
G01 X88.3200 Y58.7090
G01 X88.2896 Y58.7208
G01 X88.2743 Y58.7262
G01 X88.2478 Y58.7349
G01 X88.2322 Y58.7395
G01 X88.2165 Y58.7438
G01 X88.1894 Y58.7504
G01 X88.1575 Y58.7572
G01 X88.1414 Y58.7600
G01 X88.1139 Y58.7640
G01 X88.0977 Y58.7661
G01 X88.0653 Y58.7691
G01 X88.0374 Y58.7706
G01 X88.0049 Y58.7714
G01 X87.6067 Y58.7711
G01 X87.5600 Y58.7688
G01 X87.5256 Y58.7655
G01 X87.4794 Y58.7586
G01 X87.4572 Y58.7544
G01 X87.4351 Y58.7586
G01 X87.3888 Y58.7655
G01 X87.3545 Y58.7688
G01 X87.3078 Y58.7711
G01 X86.7019 Y58.7711
G01 X86.6724 Y58.7699
G01 X86.6380 Y58.7674
G01 X86.6209 Y58.7655
G01 X86.5916 Y58.7613
G01 X86.5577 Y58.7554
G01 X86.5240 Y58.7479
G01 X86.4954 Y58.7405
G01 X86.4789 Y58.7357
G01 X86.4461 Y58.7249
G01 X86.4184 Y58.7147
G01 X86.3865 Y58.7016
G01 X86.3443 Y58.6816
G01 X86.3138 Y58.6653
G01 X86.2884 Y58.6503
G01 X86.2593 Y58.6319
G01 X86.2451 Y58.6221
G01 X86.2212 Y58.6047
G01 X86.1940 Y58.5835
G01 X86.1663 Y58.5595
G01 X86.1500 Y58.5715
G01 X86.1213 Y58.5907
G01 X86.0963 Y58.6064
G01 X86.0664 Y58.6235
G01 X86.0401 Y58.6370
G01 X86.0090 Y58.6518
G01 X85.9772 Y58.6651
G01 X85.9491 Y58.6758
G01 X85.7904 Y58.7289
G01 X85.7725 Y58.7346
G01 X85.7544 Y58.7398
G01 X85.7232 Y58.7481
G01 X85.7049 Y58.7524
G01 X85.6864 Y58.7561
G01 X85.6546 Y58.7616
G01 X85.6360 Y58.7643
G01 X85.6173 Y58.7666
G01 X85.5985 Y58.7684
G01 X85.5797 Y58.7696
G01 X85.5475 Y58.7711
G01 X85.5287 Y58.7714
G01 X85.2743 Y58.7712
G01 X85.2464 Y58.7701
G01 X85.2139 Y58.7678
G01 X85.1977 Y58.7661
G01 X85.1701 Y58.7624
G01 X85.1379 Y58.7572
G01 X85.1220 Y58.7540
G01 X85.0948 Y58.7477
G01 X85.0633 Y58.7395
G01 X85.0476 Y58.7349
G01 X85.0212 Y58.7262
G01 X84.9905 Y58.7151
G01 X84.9605 Y58.7026
G01 X84.9350 Y58.6911
G01 X84.8858 Y58.6667
G01 X84.8366 Y58.6911
G01 X84.7962 Y58.7090
G01 X84.7658 Y58.7208
G01 X84.7505 Y58.7262
G01 X84.7240 Y58.7349
G01 X84.7084 Y58.7395
G01 X84.6926 Y58.7438
G01 X84.6656 Y58.7504
G01 X84.6497 Y58.7540
G01 X84.6176 Y58.7600
G01 X84.5901 Y58.7640
G01 X84.5577 Y58.7678
G01 X84.5415 Y58.7691
G01 X84.5136 Y58.7706
G01 X84.4810 Y58.7714
G01 X84.2906 Y58.7714
G01 X84.2656 Y58.7709
G01 X84.2396 Y58.7698
G01 X84.2224 Y58.7685
G01 X84.1847 Y58.7645
G01 X84.1588 Y58.7608
G01 X84.1216 Y58.7539
G01 X84.0961 Y58.7481
G01 X84.0627 Y58.7394
G01 X84.0430 Y58.7334
G01 X84.0019 Y58.7194
G01 X83.9827 Y58.7119
G01 X83.9573 Y58.7012
G01 X83.9394 Y58.7088
G01 X83.9123 Y58.7194
G01 X83.8964 Y58.7252
G01 X83.8641 Y58.7357
G01 X83.8197 Y58.7478
G01 X83.7866 Y58.7552
G01 X83.7699 Y58.7583
G01 X83.7412 Y58.7630
G01 X83.7244 Y58.7652
G01 X83.7075 Y58.7671
G01 X83.6786 Y58.7694
G01 X83.6447 Y58.7711
G01 X83.6277 Y58.7713
G01 X83.5817 Y58.7702
G01 X83.5479 Y58.7678
G01 X83.5022 Y58.7623
G01 X83.4687 Y58.7566
G01 X83.4238 Y58.7468
G01 X83.3910 Y58.7379
G01 X83.3472 Y58.7237
G01 X83.3155 Y58.7117
G01 X83.2906 Y58.7011
G01 X83.2657 Y58.7117
G01 X83.2499 Y58.7179
G01 X83.2339 Y58.7237
G01 X83.2063 Y58.7329
G01 X83.1738 Y58.7425
G01 X83.1574 Y58.7468
G01 X83.1290 Y58.7532
G01 X83.0957 Y58.7597
G01 X83.0790 Y58.7623
G01 X83.0502 Y58.7660
G01 X83.0164 Y58.7692
G01 X82.9994 Y58.7702
G01 X82.9704 Y58.7711
G01 X82.9365 Y58.7711
G01 X82.9026 Y58.7694
G01 X82.8736 Y58.7671
G01 X82.8399 Y58.7630
G01 X82.8113 Y58.7583
G01 X82.7780 Y58.7517
G01 X82.7450 Y58.7436
G01 X82.7192 Y58.7363
G01 X82.7048 Y58.7405
G01 X82.6762 Y58.7479
G01 X82.6425 Y58.7554
G01 X82.6256 Y58.7586
G01 X82.5964 Y58.7631
G01 X82.5622 Y58.7674
G01 X82.5278 Y58.7699
G01 X82.4983 Y58.7711
G01 X82.4810 Y58.7714
G01 X82.4466 Y58.7705
G01 X82.4171 Y58.7688
G01 X82.3828 Y58.7655
G01 X82.3657 Y58.7631
G01 X82.3365 Y58.7586
G01 X82.3027 Y58.7519
G01 X82.2740 Y58.7449
G01 X82.2408 Y58.7357
G01 X82.2243 Y58.7305
G01 X82.1955 Y58.7204
G01 X82.1505 Y58.7355
G01 X82.1176 Y58.7448
G01 X82.0725 Y58.7551
G01 X82.0389 Y58.7612
G01 X81.9931 Y58.7671
G01 X81.9591 Y58.7698
G01 X81.9128 Y58.7713
G01 X81.8787 Y58.7707
G01 X81.8575 Y58.7696
G01 X81.8322 Y58.7784
G01 X81.7992 Y58.7884
G01 X81.7538 Y58.7997
G01 X81.7200 Y58.8064
G01 X81.6737 Y58.8132
G01 X81.6394 Y58.8165
G01 X81.5927 Y58.8188
G01 X81.5582 Y58.8187
G01 X81.5115 Y58.8164
G01 X81.4772 Y58.8130
G01 X81.4309 Y58.8061
G01 X81.3971 Y58.7993
G01 X81.3803 Y58.7953
G01 X81.3517 Y58.7879
G01 X81.3352 Y58.7831
G01 X81.3187 Y58.7779
G01 X81.2909 Y58.7681
G01 X81.2587 Y58.7556
G01 X81.2429 Y58.7488
G01 X81.2006 Y58.7288
G01 X81.1853 Y58.7208
G01 X81.1553 Y58.7038
G01 X81.1301 Y58.6884
G01 X81.1157 Y58.6790
G01 X81.0875 Y58.6591
G01 X81.0640 Y58.6413
G01 X81.0505 Y58.6305
G01 X81.0373 Y58.6194
G01 X81.0153 Y58.5997
G01 X81.0027 Y58.5880
G01 X80.9783 Y58.5636
G01 X80.9470 Y58.5289
G01 X80.9359 Y58.5157
G01 X80.9153 Y58.4893
G01 X80.8862 Y58.5162
G01 X80.8720 Y58.5286
G01 X80.8575 Y58.5406
G01 X80.8426 Y58.5522
G01 X80.8166 Y58.5713
G01 X80.8012 Y58.5821
G01 X80.7855 Y58.5925
G01 X80.7695 Y58.6024
G01 X80.7533 Y58.6120
G01 X80.7251 Y58.6277
G01 X80.5985 Y58.6911
G01 X80.5581 Y58.7090
G01 X80.5277 Y58.7208
G01 X80.4859 Y58.7349
G01 X80.4545 Y58.7438
G01 X80.4116 Y58.7540
G01 X80.3795 Y58.7600
G01 X80.3358 Y58.7661
G01 X80.3034 Y58.7691
G01 X80.2755 Y58.7706
G01 X80.2430 Y58.7714
G01 X79.8620 Y58.7714
G01 X79.8275 Y58.7705
G01 X79.7981 Y58.7688
G01 X79.7809 Y58.7674
G01 X79.7466 Y58.7631
G01 X79.7175 Y58.7586
G01 X79.7005 Y58.7554
G01 X79.6669 Y58.7479
G01 X79.6383 Y58.7405
G01 X79.6239 Y58.7363
G01 X79.6095 Y58.7405
G01 X79.5809 Y58.7479
G01 X79.5473 Y58.7554
G01 X79.5133 Y58.7613
G01 X79.4841 Y58.7655
G01 X79.4498 Y58.7688
G01 X79.4203 Y58.7705
G01 X79.3858 Y58.7714
G01 X79.3513 Y58.7705
G01 X79.3219 Y58.7688
G01 X79.2875 Y58.7655
G01 X79.2583 Y58.7613
G01 X79.2243 Y58.7554
G01 X79.1907 Y58.7479
G01 X79.1621 Y58.7405
G01 X79.1291 Y58.7305
G01 X79.1002 Y58.7204
G01 X79.0552 Y58.7355
G01 X79.0224 Y58.7448
G01 X78.9773 Y58.7551
G01 X78.9437 Y58.7612
G01 X78.8978 Y58.7671
G01 X78.8638 Y58.7698
G01 X78.8176 Y58.7713
G01 X78.7835 Y58.7707
G01 X78.7543 Y58.7690
G01 X78.7203 Y58.7660
G01 X78.6865 Y58.7613
G01 X78.6577 Y58.7564
G01 X78.6410 Y58.7530
G01 X78.6244 Y58.7492
G01 X78.5961 Y58.7419
G01 X78.5631 Y58.7323
G01 X78.5311 Y58.7212
G01 X78.5048 Y58.7112
G01 X78.4801 Y58.7208
G01 X78.4383 Y58.7349
G01 X78.4069 Y58.7438
G01 X78.3639 Y58.7540
G01 X78.3319 Y58.7600
G01 X78.3043 Y58.7640
G01 X78.2720 Y58.7678
G01 X78.2395 Y58.7701
G01 X78.2116 Y58.7712
G01 X78.1953 Y58.7714
G01 X77.7971 Y58.7711
G01 X77.7504 Y58.7688
G01 X77.7161 Y58.7655
G01 X77.6699 Y58.7586
G01 X77.6483 Y58.7545
G01 X77.6484 Y58.7868
G01 X77.6547 Y58.8177
G01 X77.6576 Y58.8349
G01 X77.6601 Y58.8522
G01 X77.6638 Y58.8869
G01 X77.6658 Y58.9218
G01 X77.6660 Y58.9567
G01 X77.6645 Y58.9915
G01 X77.6612 Y59.0263
G01 X77.6488 Y59.1138
G01 X77.6430 Y59.1483
G01 X77.6395 Y59.1653
G01 X77.6311 Y59.1992
G01 X77.6211 Y59.2326
G01 X77.6094 Y59.2655
G01 X77.5961 Y59.2978
G01 X77.5812 Y59.3293
G01 X77.5731 Y59.3448
G01 X77.5560 Y59.3752
G01 X77.5468 Y59.3901
G01 X77.5274 Y59.4191
G01 X77.5066 Y59.4471
G01 X77.4844 Y59.4740
G01 X77.4263 Y59.5407
G01 X77.4021 Y59.5659
G01 X77.3768 Y59.5899
G01 X77.3503 Y59.6126
G01 X77.3366 Y59.6234
G01 X77.3085 Y59.6441
G01 X77.2794 Y59.6633
G01 X77.2644 Y59.6724
G01 X77.2340 Y59.6894
G01 X77.2184 Y59.6973
G01 X77.1868 Y59.7120
G01 X77.1544 Y59.7251
G01 X77.1380 Y59.7310
G01 X77.1048 Y59.7417
G01 X77.0206 Y59.7662
G01 X76.9881 Y59.7741
G01 X76.9717 Y59.7775
G01 X76.9387 Y59.7830
G01 X76.9055 Y59.7870
G01 X76.8721 Y59.7894
G01 X76.8554 Y59.7900
G01 X0.8510 Y59.7902
G01 X0.8343 Y59.7900
G01 X0.8009 Y59.7884
G01 X0.7842 Y59.7870
G01 X0.7510 Y59.7830
G01 X0.7345 Y59.7804
G01 X0.7016 Y59.7741
G01 X0.6493 Y59.7627
G01 X0.6152 Y59.7544
G01 X0.5983 Y59.7496
G01 X0.5649 Y59.7388
G01 X0.5321 Y59.7263
G01 X0.5159 Y59.7194
G01 X0.4999 Y59.7121
G01 X0.4685 Y59.6964
G01 X0.4380 Y59.6791
G01 X0.4230 Y59.6699
G01 X0.4083 Y59.6604
G01 X0.3796 Y59.6401
G01 X0.3519 Y59.6185
G01 X0.2849 Y59.5607
G01 X0.2718 Y59.5491
G01 X0.2466 Y59.5249
G01 X0.2226 Y59.4996
G01 X0.2111 Y59.4865
G01 X0.1999 Y59.4731
G01 X0.1786 Y59.4455
G01 X0.1684 Y59.4313
G01 X0.1492 Y59.4021
G01 X0.1314 Y59.3721
G01 X0.1231 Y59.3568
G01 X0.1077 Y59.3255
G01 X0.1005 Y59.3096
G01 X0.0874 Y59.2772
G01 X0.0759 Y59.2443
G01 X0.0463 Y59.1434
G01 X0.0384 Y59.1109
G01 X0.0350 Y59.0945
G01 X0.0321 Y59.0780
G01 X0.0273 Y59.0449
G01 X0.0241 Y59.0116
G01 X0.0231 Y58.9949
G01 X0.0223 Y58.9615
G01 X0.0223 Y1.4295
G01 X0.0231 Y1.3961
G01 X0.0255 Y1.3627
G01 X0.0295 Y1.3295
G01 X0.0321 Y1.3130
G01 X0.0384 Y1.2801
G00 Z2.0000
G00 X0.1804 Y1.3110
G01 F60.00
G01 Z-0.1200
G01 F120.00
G01 X0.1950 Y1.2451
G01 X0.2022 Y1.2182
G01 X0.2108 Y1.1918
G01 X0.2208 Y1.1657
G01 X0.2320 Y1.1402
G01 X0.2444 Y1.1153
G01 X0.2581 Y1.0911
G01 X0.2654 Y1.0792
G01 X0.2809 Y1.0561
G01 X0.2975 Y1.0337
G01 X0.3152 Y1.0122
G01 X0.3617 Y0.9586
G01 X0.3803 Y0.9381
G01 X0.4000 Y0.9186
G01 X0.4206 Y0.9001
G01 X0.4420 Y0.8826
G01 X0.4531 Y0.8743
G01 X0.4758 Y0.8585
G01 X0.4993 Y0.8438
G01 X0.5234 Y0.8303
G01 X0.5482 Y0.8180
G01 X0.5736 Y0.8070
G01 X0.5995 Y0.7972
G01 X0.6259 Y0.7888
G01 X0.7068 Y0.7652
G01 X0.7325 Y0.7589
G01 X0.7455 Y0.7563
G01 X0.7717 Y0.7519
G01 X0.7980 Y0.7487
G01 X0.8245 Y0.7468
G01 X0.8510 Y0.7462
G01 X93.4985 Y0.7462
G01 X93.5118 Y0.7464
G01 X93.5383 Y0.7476
G01 X93.5647 Y0.7502
G01 X93.5778 Y0.7519
G01 X93.6040 Y0.7563
G01 X93.6170 Y0.7589
G01 X93.6693 Y0.7703
G01 X93.6964 Y0.7769
G01 X93.7231 Y0.7849
G01 X93.7362 Y0.7893
G01 X93.7493 Y0.7941
G01 X93.7751 Y0.8047
G01 X93.8003 Y0.8165
G01 X93.8127 Y0.8229
G01 X93.8369 Y0.8366
G01 X93.8488 Y0.8439
G01 X93.8719 Y0.8594
G01 X93.8943 Y0.8760
G01 X93.9052 Y0.8847
G01 X93.9694 Y0.9402
G01 X93.9899 Y0.9588
G01 X93.9998 Y0.9685
G01 X94.0094 Y0.9785
G01 X94.0279 Y0.9991
G01 X94.0454 Y1.0205
G01 X94.0537 Y1.0316
G01 X94.0695 Y1.0543
G01 X94.0842 Y1.0778
G01 X94.0911 Y1.0898
G01 X94.1040 Y1.1143
G01 X94.1100 Y1.1267
G01 X94.1157 Y1.1394
G01 X94.1260 Y1.1650
G01 X94.1352 Y1.1911
G01 X94.1392 Y1.2044
G01 X94.1628 Y1.2853
G01 X94.1691 Y1.3110
G01 X94.1717 Y1.3240
G01 X94.1761 Y1.3502
G01 X94.1793 Y1.3765
G01 X94.1804 Y1.3897
G01 X94.1816 Y1.4162
G01 X94.1818 Y1.4295
G01 X94.1818 Y58.9615
G01 X94.1812 Y58.9880
G01 X94.1804 Y59.0013
G01 X94.1778 Y59.0277
G01 X94.1761 Y59.0408
G01 X94.1717 Y59.0670
G01 X94.1691 Y59.0800
G01 X94.1577 Y59.1323
G01 X94.1511 Y59.1594
G01 X94.1431 Y59.1861
G01 X94.1387 Y59.1992
G01 X94.1339 Y59.2123
G01 X94.1233 Y59.2381
G01 X94.1115 Y59.2633
G01 X94.1051 Y59.2757
G01 X94.0984 Y59.2879
G01 X94.0841 Y59.3118
G01 X94.0765 Y59.3235
G01 X94.0604 Y59.3462
G01 X94.0433 Y59.3682
G01 X93.9878 Y59.4324
G01 X93.9692 Y59.4529
G01 X93.9495 Y59.4724
G01 X93.9289 Y59.4909
G01 X93.9075 Y59.5084
G01 X93.8964 Y59.5167
G01 X93.8737 Y59.5325
G01 X93.8502 Y59.5472
G01 X93.8261 Y59.5607
G01 X93.8137 Y59.5670
G01 X93.7886 Y59.5787
G01 X93.7630 Y59.5890
G01 X93.7369 Y59.5982
G01 X93.6555 Y59.6222
G01 X93.6299 Y59.6291
G01 X93.6040 Y59.6347
G01 X93.5778 Y59.6391
G01 X93.5515 Y59.6423
G01 X93.5250 Y59.6442
G01 X93.5118 Y59.6446
G01 X92.8883 Y59.6448
G01 X92.8617 Y59.6442
G01 X92.8306 Y59.6421
G01 X92.8042 Y59.6396
G01 X92.7779 Y59.6358
G01 X92.7519 Y59.6308
G01 X92.7261 Y59.6245
G01 X92.7007 Y59.6170
G01 X92.6756 Y59.6084
G01 X92.6632 Y59.6036
G01 X92.6388 Y59.5931
G01 X92.5743 Y59.5637
G01 X92.5494 Y59.5515
G01 X92.5251 Y59.5382
G01 X92.5016 Y59.5237
G01 X92.4901 Y59.5160
G01 X92.4677 Y59.4997
G01 X92.4461 Y59.4824
G01 X92.4254 Y59.4640
G01 X92.4056 Y59.4446
G01 X92.3869 Y59.4243
G01 X92.3779 Y59.4138
G01 X92.3691 Y59.4030
G01 X92.3525 Y59.3809
G01 X92.3369 Y59.3580
G01 X92.2986 Y59.2983
G01 X92.2842 Y59.2746
G01 X92.2774 Y59.2626
G01 X92.2648 Y59.2379
G01 X92.2535 Y59.2127
G01 X92.2434 Y59.1869
G01 X92.2347 Y59.1606
G01 X92.2272 Y59.1340
G01 X92.2211 Y59.1070
G01 X92.2185 Y59.0934
G01 X92.2144 Y59.0660
G01 X92.2128 Y59.0523
G01 X92.2116 Y59.0385
G01 X92.2103 Y59.0108
G01 X92.2101 Y58.9260
G01 X92.2107 Y58.8995
G01 X92.2115 Y58.8862
G01 X92.2140 Y58.8598
G01 X92.2158 Y58.8467
G01 X92.2202 Y58.8205
G01 X92.2239 Y58.8028
G01 X92.2239 Y58.4744
G01 X92.2052 Y58.4856
G01 X92.1804 Y58.4995
G01 X92.0719 Y58.5539
G01 X92.0486 Y58.5649
G01 X92.0261 Y58.5747
G01 X92.0020 Y58.5841
G01 X91.9898 Y58.5884
G01 X91.9665 Y58.5960
G01 X91.9417 Y58.6031
G01 X91.9179 Y58.6089
G01 X91.8926 Y58.6143
G01 X91.8671 Y58.6184
G01 X91.8299 Y58.6230
G01 X91.8042 Y58.6248
G01 X91.7797 Y58.6258
G01 X91.3858 Y58.6260
G01 X91.3721 Y58.6258
G01 X91.3462 Y58.6247
G01 X91.3326 Y58.6239
G01 X91.3053 Y58.6212
G01 X91.2796 Y58.6175
G01 X91.2527 Y58.6129
G01 X91.2260 Y58.6069
G01 X91.2009 Y58.6004
G01 X91.1715 Y58.5914
G01 X91.1553 Y58.5966
G01 X91.1290 Y58.6039
G01 X91.1037 Y58.6100
G01 X91.0769 Y58.6154
G01 X91.0513 Y58.6193
G01 X91.0241 Y58.6227
G01 X91.0105 Y58.6239
G01 X90.9846 Y58.6253
G01 X90.9572 Y58.6260
G01 X90.4810 Y58.6260
G01 X90.4537 Y58.6253
G01 X90.4278 Y58.6239
G01 X90.4142 Y58.6227
G01 X90.3870 Y58.6193
G01 X90.3614 Y58.6154
G01 X90.3479 Y58.6129
G01 X90.3345 Y58.6100
G01 X90.3093 Y58.6039
G01 X90.2830 Y58.5966
G01 X90.2699 Y58.5925
G01 X90.2454 Y58.5839
G01 X90.2199 Y58.5740
G01 X90.2074 Y58.5686
G01 X90.1813 Y58.5565
G01 X90.0778 Y58.5910
G01 X90.0492 Y58.5996
G01 X90.0218 Y58.6070
G01 X90.0072 Y58.6103
G01 X89.9779 Y58.6159
G01 X89.9499 Y58.6203
G01 X89.9202 Y58.6235
G01 X89.8769 Y58.6258
G01 X89.7668 Y58.6260
G01 X89.7518 Y58.6258
G01 X89.7235 Y58.6245
G01 X89.6937 Y58.6221
G01 X89.6789 Y58.6203
G01 X89.6362 Y58.6133
G01 X89.6215 Y58.6103
G01 X89.5925 Y58.6032
G01 X89.5652 Y58.5955
G01 X89.5510 Y58.5910
G01 X89.4081 Y58.5433
G01 X89.3838 Y58.5346
G01 X89.3610 Y58.5256
G01 X89.3373 Y58.5152
G01 X89.3038 Y58.4986
G01 X89.2812 Y58.4860
G01 X89.2513 Y58.4676
G01 X89.2380 Y58.4785
G01 X89.2159 Y58.4953
G01 X89.1826 Y58.5181
G01 X89.1588 Y58.5326
G01 X89.1357 Y58.5454
G01 X89.1110 Y58.5581
G01 X89.0856 Y58.5696
G01 X89.0612 Y58.5797
G01 X89.0350 Y58.5893
G01 X89.0099 Y58.5972
G01 X88.9831 Y58.6048
G01 X88.9559 Y58.6110
G01 X88.9300 Y58.6161
G01 X88.9025 Y58.6202
G01 X88.8762 Y58.6230
G01 X88.8485 Y58.6251
G01 X88.8206 Y58.6258
G01 X88.7942 Y58.6256
G01 X88.7664 Y58.6243
G01 X88.7401 Y58.6218
G01 X88.7125 Y58.6183
G01 X88.6851 Y58.6135
G01 X88.6592 Y58.6081
G01 X88.6322 Y58.6012
G01 X88.6070 Y58.5935
G01 X88.5806 Y58.5847
G01 X88.5676 Y58.5797
G01 X88.5432 Y58.5696
G01 X88.5178 Y58.5581
G01 X88.4930 Y58.5454
G01 X88.4699 Y58.5326
G01 X88.4462 Y58.5181
G01 X88.4187 Y58.4994
G01 X88.2984 Y58.5596
G01 X88.2642 Y58.5747
G01 X88.2401 Y58.5841
G01 X88.2279 Y58.5884
G01 X88.1922 Y58.5997
G01 X88.1672 Y58.6063
G01 X88.1434 Y58.6117
G01 X88.1180 Y58.6165
G01 X88.1052 Y58.6184
G01 X88.0809 Y58.6217
G01 X88.0552 Y58.6241
G01 X88.0307 Y58.6254
G01 X88.0049 Y58.6260
G01 X87.6102 Y58.6258
G01 X87.5706 Y58.6239
G01 X87.5434 Y58.6212
G01 X87.5042 Y58.6154
G01 X87.4774 Y58.6100
G01 X87.4572 Y58.6052
G01 X87.4371 Y58.6100
G01 X87.4102 Y58.6154
G01 X87.3710 Y58.6212
G01 X87.3438 Y58.6239
G01 X87.3042 Y58.6258
G01 X86.7055 Y58.6258
G01 X86.6659 Y58.6239
G01 X86.6387 Y58.6212
G01 X86.5995 Y58.6154
G01 X86.5860 Y58.6129
G01 X86.5593 Y58.6069
G01 X86.5342 Y58.6004
G01 X86.5211 Y58.5966
G01 X86.5080 Y58.5925
G01 X86.4835 Y58.5839
G01 X86.4707 Y58.5791
G01 X86.4454 Y58.5686
G01 X86.4096 Y58.5517
G01 X86.3975 Y58.5454
G01 X86.3737 Y58.5319
G01 X86.3515 Y58.5184
G01 X86.3400 Y58.5110
G01 X86.3288 Y58.5032
G01 X86.3078 Y58.4879
G01 X86.2863 Y58.4711
G01 X86.2758 Y58.4623
G01 X86.2565 Y58.4450
G01 X86.2366 Y58.4261
G01 X86.2271 Y58.4163
G01 X86.2005 Y58.3870
G01 X86.1917 Y58.3765
G01 X86.1756 Y58.3559
G01 X86.1575 Y58.3750
G01 X86.1477 Y58.3846
G01 X86.1288 Y58.4024
G01 X86.1186 Y58.4115
G01 X86.0975 Y58.4289
G01 X86.0770 Y58.4448
G01 X86.0659 Y58.4528
G01 X86.0547 Y58.4606
G01 X86.0329 Y58.4747
G01 X86.0094 Y58.4888
G01 X85.9975 Y58.4954
G01 X85.9744 Y58.5073
G01 X85.9497 Y58.5191
G01 X85.9245 Y58.5296
G01 X85.8998 Y58.5390
G01 X85.8873 Y58.5433
G01 X85.7444 Y58.5910
G01 X85.7159 Y58.5996
G01 X85.6885 Y58.6070
G01 X85.6593 Y58.6133
G01 X85.6165 Y58.6203
G01 X85.5868 Y58.6235
G01 X85.5585 Y58.6252
G01 X85.5287 Y58.6260
G01 X85.2777 Y58.6258
G01 X85.2532 Y58.6248
G01 X85.2274 Y58.6230
G01 X85.2017 Y58.6201
G01 X85.1775 Y58.6165
G01 X85.1647 Y58.6143
G01 X85.1395 Y58.6089
G01 X85.1032 Y58.5997
G01 X85.0675 Y58.5884
G01 X85.0432 Y58.5796
G01 X85.0194 Y58.5696
G01 X84.9970 Y58.5596
G01 X84.8858 Y58.5041
G01 X84.7862 Y58.5539
G01 X84.7628 Y58.5649
G01 X84.7284 Y58.5796
G01 X84.6931 Y58.5921
G01 X84.6808 Y58.5960
G01 X84.6560 Y58.6031
G01 X84.6321 Y58.6089
G01 X84.6069 Y58.6143
G01 X84.5814 Y58.6184
G01 X84.5571 Y58.6217
G01 X84.5314 Y58.6241
G01 X84.5185 Y58.6248
G01 X84.4810 Y58.6260
G01 X84.2906 Y58.6260
G01 X84.2708 Y58.6256
G01 X84.2483 Y58.6247
G01 X84.2312 Y58.6234
G01 X84.2041 Y58.6204
G01 X84.1817 Y58.6172
G01 X84.1515 Y58.6116
G01 X84.1162 Y58.6033
G01 X84.0867 Y58.5948
G01 X84.0653 Y58.5876
G01 X84.0396 Y58.5781
G01 X84.0113 Y58.5661
G01 X83.9854 Y58.5539
G01 X83.9564 Y58.5394
G01 X83.9321 Y58.5523
G01 X83.9091 Y58.5635
G01 X83.8845 Y58.5742
G01 X83.8719 Y58.5792
G01 X83.8480 Y58.5881
G01 X83.8224 Y58.5964
G01 X83.7978 Y58.6033
G01 X83.7717 Y58.6098
G01 X83.7453 Y58.6150
G01 X83.7201 Y58.6191
G01 X83.7067 Y58.6209
G01 X83.6800 Y58.6235
G01 X83.6545 Y58.6253
G01 X83.6276 Y58.6259
G01 X83.6020 Y58.6255
G01 X83.5752 Y58.6242
G01 X83.5484 Y58.6217
G01 X83.5230 Y58.6184
G01 X83.5097 Y58.6164
G01 X83.4965 Y58.6139
G01 X83.4715 Y58.6086
G01 X83.4584 Y58.6056
G01 X83.4324 Y58.5985
G01 X83.3953 Y58.5865
G01 X83.3702 Y58.5770
G01 X83.3577 Y58.5718
G01 X83.3344 Y58.5615
G01 X83.3222 Y58.5557
G01 X83.2906 Y58.5389
G01 X83.2589 Y58.5557
G01 X83.2468 Y58.5615
G01 X83.2234 Y58.5718
G01 X83.1985 Y58.5819
G01 X83.1858 Y58.5865
G01 X83.1487 Y58.5985
G01 X83.1358 Y58.6022
G01 X83.1096 Y58.6086
G01 X83.0847 Y58.6139
G01 X83.0714 Y58.6164
G01 X83.0581 Y58.6184
G01 X83.0328 Y58.6217
G01 X83.0060 Y58.6242
G01 X82.9791 Y58.6255
G01 X82.9536 Y58.6259
G01 X82.9401 Y58.6258
G01 X82.9267 Y58.6253
G01 X82.9012 Y58.6235
G01 X82.8744 Y58.6209
G01 X82.8611 Y58.6191
G01 X82.8226 Y58.6125
G01 X82.7963 Y58.6067
G01 X82.7587 Y58.5964
G01 X82.7331 Y58.5881
G01 X82.7191 Y58.5829
G01 X82.6922 Y58.5925
G01 X82.6791 Y58.5966
G01 X82.6528 Y58.6039
G01 X82.6275 Y58.6100
G01 X82.6142 Y58.6129
G01 X82.6007 Y58.6154
G01 X82.5751 Y58.6193
G01 X82.5615 Y58.6212
G01 X82.5343 Y58.6239
G01 X82.4947 Y58.6258
G01 X82.4674 Y58.6258
G01 X82.4278 Y58.6239
G01 X82.4006 Y58.6212
G01 X82.3614 Y58.6154
G01 X82.3345 Y58.6100
G01 X82.3093 Y58.6039
G01 X82.2830 Y58.5966
G01 X82.2570 Y58.5880
G01 X82.2326 Y58.5791
G01 X82.2199 Y58.5740
G01 X82.1953 Y58.5631
G01 X82.1700 Y58.5743
G01 X82.1575 Y58.5794
G01 X82.1320 Y58.5886
G01 X82.1076 Y58.5966
G01 X82.0947 Y58.6004
G01 X82.0684 Y58.6071
G01 X82.0434 Y58.6127
G01 X82.0301 Y58.6153
G01 X82.0034 Y58.6194
G01 X81.9779 Y58.6225
G01 X81.9644 Y58.6238
G01 X81.9374 Y58.6253
G01 X81.9117 Y58.6259
G01 X81.8847 Y58.6255
G01 X81.8590 Y58.6240
G01 X81.8365 Y58.6220
G01 X81.8240 Y58.6270
G01 X81.7997 Y58.6359
G01 X81.7737 Y58.6444
G01 X81.7605 Y58.6482
G01 X81.7354 Y58.6547
G01 X81.7087 Y58.6606
G01 X81.6817 Y58.6653
G01 X81.6561 Y58.6689
G01 X81.6425 Y58.6704
G01 X81.6288 Y58.6715
G01 X81.6029 Y58.6729
G01 X81.5756 Y58.6736
G01 X81.5619 Y58.6734
G01 X81.5360 Y58.6723
G01 X81.5087 Y58.6702
G01 X81.4951 Y58.6687
G01 X81.4694 Y58.6650
G01 X81.4559 Y58.6629
G01 X81.4291 Y58.6575
G01 X81.4039 Y58.6513
G01 X81.3775 Y58.6440
G01 X81.3516 Y58.6354
G01 X81.3272 Y58.6265
G01 X81.3019 Y58.6160
G01 X81.2784 Y58.6050
G01 X81.2661 Y58.5990
G01 X81.2420 Y58.5861
G01 X81.2197 Y58.5729
G01 X81.1966 Y58.5582
G01 X81.1742 Y58.5424
G01 X81.1535 Y58.5268
G01 X81.1429 Y58.5183
G01 X81.1222 Y58.5004
G01 X81.1031 Y58.4828
G01 X81.0933 Y58.4732
G01 X81.0744 Y58.4534
G01 X81.0572 Y58.4340
G01 X81.0398 Y58.4129
G01 X81.0163 Y58.3810
G01 X80.9328 Y58.2561
G01 X80.9172 Y58.2765
G01 X80.9077 Y58.2880
G01 X80.8787 Y58.3202
G01 X80.8207 Y58.3785
G01 X80.7990 Y58.3991
G01 X80.7778 Y58.4178
G01 X80.7663 Y58.4274
G01 X80.7425 Y58.4455
G01 X80.7194 Y58.4619
G01 X80.7069 Y58.4701
G01 X80.6814 Y58.4856
G01 X80.6566 Y58.4995
G01 X80.6434 Y58.5063
G01 X80.5365 Y58.5596
G01 X80.5023 Y58.5747
G01 X80.4782 Y58.5841
G01 X80.4550 Y58.5921
G01 X80.4303 Y58.5997
G01 X80.3941 Y58.6089
G01 X80.3814 Y58.6117
G01 X80.3561 Y58.6165
G01 X80.3318 Y58.6201
G01 X80.3061 Y58.6230
G01 X80.2688 Y58.6254
G01 X80.2430 Y58.6260
G01 X79.8620 Y58.6260
G01 X79.8483 Y58.6258
G01 X79.8224 Y58.6247
G01 X79.8087 Y58.6239
G01 X79.7815 Y58.6212
G01 X79.7558 Y58.6175
G01 X79.7289 Y58.6129
G01 X79.7022 Y58.6069
G01 X79.6771 Y58.6004
G01 X79.6509 Y58.5925
G01 X79.6239 Y58.5829
G01 X79.5969 Y58.5925
G01 X79.5839 Y58.5966
G01 X79.5575 Y58.6039
G01 X79.5323 Y58.6100
G01 X79.5189 Y58.6129
G01 X79.4920 Y58.6175
G01 X79.4663 Y58.6212
G01 X79.4527 Y58.6227
G01 X79.4254 Y58.6247
G01 X79.3995 Y58.6258
G01 X79.3858 Y58.6260
G01 X79.3721 Y58.6258
G01 X79.3462 Y58.6247
G01 X79.3189 Y58.6227
G01 X79.3053 Y58.6212
G01 X79.2796 Y58.6175
G01 X79.2527 Y58.6129
G01 X79.2260 Y58.6069
G01 X79.2009 Y58.6004
G01 X79.1877 Y58.5966
G01 X79.1618 Y58.5880
G01 X79.1374 Y58.5791
G01 X79.1247 Y58.5740
G01 X79.1001 Y58.5631
G01 X79.0748 Y58.5743
G01 X79.0622 Y58.5794
G01 X79.0496 Y58.5841
G01 X79.0253 Y58.5924
G01 X79.0124 Y58.5966
G01 X78.9864 Y58.6039
G01 X78.9482 Y58.6127
G01 X78.9349 Y58.6153
G01 X78.9081 Y58.6194
G01 X78.8826 Y58.6225
G01 X78.8692 Y58.6238
G01 X78.8557 Y58.6247
G01 X78.8300 Y58.6257
G01 X78.8165 Y58.6259
G01 X78.7894 Y58.6255
G01 X78.7503 Y58.6229
G01 X78.7234 Y58.6199
G01 X78.6847 Y58.6135
G01 X78.6583 Y58.6078
G01 X78.6451 Y58.6045
G01 X78.6203 Y58.5977
G01 X78.6072 Y58.5938
G01 X78.5943 Y58.5895
G01 X78.5705 Y58.5808
G01 X78.5454 Y58.5707
G01 X78.5330 Y58.5652
G01 X78.5050 Y58.5517
G01 X78.4889 Y58.5596
G01 X78.4547 Y58.5747
G01 X78.4306 Y58.5841
G01 X78.3951 Y58.5960
G01 X78.3703 Y58.6031
G01 X78.3338 Y58.6117
G01 X78.3084 Y58.6165
G01 X78.2714 Y58.6217
G01 X78.2585 Y58.6230
G01 X78.2327 Y58.6248
G01 X78.1953 Y58.6260
G01 X77.8007 Y58.6258
G01 X77.7611 Y58.6239
G01 X77.7475 Y58.6227
G01 X77.7204 Y58.6193
G01 X77.6947 Y58.6154
G01 X77.6813 Y58.6129
G01 X77.6679 Y58.6100
G01 X77.6427 Y58.6039
G01 X77.6163 Y58.5966
G01 X77.6033 Y58.5925
G01 X77.5660 Y58.5791
G01 X77.5407 Y58.5686
G01 X77.5029 Y58.5507
G01 X77.5030 Y58.8041
G01 X77.5091 Y58.8302
G01 X77.5140 Y58.8574
G01 X77.5176 Y58.8849
G01 X77.5189 Y58.8986
G01 X77.5198 Y58.9124
G01 X77.5207 Y58.9401
G01 X77.5202 Y58.9678
G01 X77.5183 Y58.9954
G01 X77.5150 Y59.0229
G01 X77.5028 Y59.1068
G01 X77.4975 Y59.1340
G01 X77.4909 Y59.1609
G01 X77.4829 Y59.1874
G01 X77.4736 Y59.2134
G01 X77.4685 Y59.2263
G01 X77.4573 Y59.2516
G01 X77.4513 Y59.2641
G01 X77.4449 Y59.2764
G01 X77.4313 Y59.3004
G01 X77.4165 Y59.3238
G01 X77.4086 Y59.3352
G01 X77.3921 Y59.3574
G01 X77.3745 Y59.3788
G01 X77.3280 Y59.4324
G01 X77.3094 Y59.4529
G01 X77.2997 Y59.4628
G01 X77.2796 Y59.4818
G01 X77.2585 Y59.4998
G01 X77.2366 Y59.5167
G01 X77.2254 Y59.5248
G01 X77.2023 Y59.5400
G01 X77.1905 Y59.5472
G01 X77.1663 Y59.5607
G01 X77.1540 Y59.5670
G01 X77.1289 Y59.5787
G01 X77.1032 Y59.5890
G01 X77.0771 Y59.5982
G01 X76.9957 Y59.6222
G01 X76.9701 Y59.6291
G01 X76.9442 Y59.6347
G01 X76.9311 Y59.6371
G01 X76.9049 Y59.6408
G01 X76.8917 Y59.6423
G01 X76.8652 Y59.6442
G01 X76.8520 Y59.6446
G01 X0.8510 Y59.6448
G01 X0.8245 Y59.6442
G01 X0.8112 Y59.6434
G01 X0.7848 Y59.6408
G01 X0.7717 Y59.6391
G01 X0.7455 Y59.6347
G01 X0.7325 Y59.6321
G01 X0.6802 Y59.6207
G01 X0.6531 Y59.6141
G01 X0.6264 Y59.6061
G01 X0.6133 Y59.6017
G01 X0.5872 Y59.5917
G01 X0.5744 Y59.5863
G01 X0.5617 Y59.5805
G01 X0.5368 Y59.5681
G01 X0.5126 Y59.5544
G01 X0.5007 Y59.5471
G01 X0.4776 Y59.5316
G01 X0.4663 Y59.5234
G01 X0.4443 Y59.5063
G01 X0.3801 Y59.4508
G01 X0.3697 Y59.4416
G01 X0.3497 Y59.4225
G01 X0.3307 Y59.4023
G01 X0.3216 Y59.3919
G01 X0.3041 Y59.3705
G01 X0.2877 Y59.3482
G01 X0.2800 Y59.3367
G01 X0.2725 Y59.3251
G01 X0.2584 Y59.3012
G01 X0.2455 Y59.2767
G01 X0.2395 Y59.2643
G01 X0.2338 Y59.2516
G01 X0.2235 Y59.2260
G01 X0.2187 Y59.2130
G01 X0.2103 Y59.1866
G01 X0.1867 Y59.1057
G01 X0.1804 Y59.0800
G01 X0.1754 Y59.0539
G01 X0.1734 Y59.0408
G01 X0.1702 Y59.0145
G01 X0.1691 Y59.0013
G01 X0.1683 Y58.9880
G01 X0.1677 Y58.9615
G01 X0.1677 Y1.4295
G01 X0.1683 Y1.4030
G01 X0.1702 Y1.3765
G01 X0.1717 Y1.3633
G01 X0.1754 Y1.3371
G01 X0.1804 Y1.3110
G00 Z2.0000
G00 X0.3225 Y1.3419
G01 F60.00
G01 Z-0.1200
G01 F120.00
G01 X0.3362 Y1.2796
G01 X0.3388 Y1.2696
G01 X0.3446 Y1.2499
G01 X0.3515 Y1.2305
G01 X0.3593 Y1.2114
G01 X0.3680 Y1.1928
G01 X0.3777 Y1.1746
G01 X0.3883 Y1.1569
G01 X0.3997 Y1.1398
G01 X0.4120 Y1.1233
G01 X0.4184 Y1.1153
G01 X0.4784 Y1.0461
G01 X0.4925 Y1.0313
G01 X0.5074 Y1.0173
G01 X0.5151 Y1.0105
G01 X0.5309 Y0.9976
G01 X0.5474 Y0.9855
G01 X0.5645 Y0.9742
G01 X0.5821 Y0.9638
G01 X0.5911 Y0.9590
G01 X0.6094 Y0.9499
G01 X0.6282 Y0.9417
G01 X0.6474 Y0.9345
G01 X0.6668 Y0.9283
G01 X0.7350 Y0.9083
G01 X0.7634 Y0.9010
G01 X0.7827 Y0.8973
G01 X0.8021 Y0.8945
G01 X0.8216 Y0.8926
G01 X0.8510 Y0.8916
G01 X93.4985 Y0.8916
G01 X93.5279 Y0.8926
G01 X93.5474 Y0.8945
G01 X93.5668 Y0.8973
G01 X93.5861 Y0.9010
G01 X93.6384 Y0.9124
G01 X93.6584 Y0.9173
G01 X93.6781 Y0.9231
G01 X93.6879 Y0.9264
G01 X93.6975 Y0.9300
G01 X93.7166 Y0.9378
G01 X93.7260 Y0.9421
G01 X93.7444 Y0.9513
G01 X93.7534 Y0.9562
G01 X93.7711 Y0.9668
G01 X93.7797 Y0.9724
G01 X93.7965 Y0.9843
G01 X93.8127 Y0.9969
G01 X93.8742 Y1.0501
G01 X93.8819 Y1.0569
G01 X93.8967 Y1.0710
G01 X93.9107 Y1.0859
G01 X93.9175 Y1.0936
G01 X93.9304 Y1.1094
G01 X93.9425 Y1.1259
G01 X93.9482 Y1.1344
G01 X93.9591 Y1.1517
G01 X93.9642 Y1.1606
G01 X93.9690 Y1.1696
G01 X93.9781 Y1.1879
G01 X93.9863 Y1.2067
G01 X93.9935 Y1.2259
G01 X93.9997 Y1.2453
G01 X94.0224 Y1.3229
G01 X94.0290 Y1.3515
G01 X94.0335 Y1.3806
G01 X94.0354 Y1.4001
G01 X94.0364 Y1.4295
G01 X94.0364 Y58.9615
G01 X94.0359 Y58.9811
G01 X94.0345 Y59.0007
G01 X94.0307 Y59.0298
G01 X94.0270 Y59.0491
G01 X94.0156 Y59.1014
G01 X94.0107 Y59.1214
G01 X94.0079 Y59.1313
G01 X94.0016 Y59.1509
G01 X93.9942 Y59.1701
G01 X93.9902 Y59.1796
G01 X93.9859 Y59.1890
G01 X93.9767 Y59.2074
G01 X93.9666 Y59.2253
G01 X93.9612 Y59.2341
G01 X93.9498 Y59.2512
G01 X93.9437 Y59.2595
G01 X93.9311 Y59.2757
G01 X93.8779 Y59.3372
G01 X93.8641 Y59.3524
G01 X93.8496 Y59.3668
G01 X93.8421 Y59.3737
G01 X93.8266 Y59.3870
G01 X93.8186 Y59.3934
G01 X93.8021 Y59.4055
G01 X93.7850 Y59.4168
G01 X93.7674 Y59.4272
G01 X93.7493 Y59.4367
G01 X93.7307 Y59.4453
G01 X93.7118 Y59.4530
G01 X93.7021 Y59.4565
G01 X93.6827 Y59.4627
G01 X93.6051 Y59.4854
G01 X93.5765 Y59.4920
G01 X93.5474 Y59.4965
G01 X93.5181 Y59.4989
G01 X93.4985 Y59.4994
G01 X92.8883 Y59.4994
G01 X92.8687 Y59.4989
G01 X92.8312 Y59.4963
G01 X92.8020 Y59.4924
G01 X92.7732 Y59.4865
G01 X92.7449 Y59.4786
G01 X92.7173 Y59.4686
G01 X92.6992 Y59.4609
G01 X92.6254 Y59.4270
G01 X92.6163 Y59.4225
G01 X92.5983 Y59.4126
G01 X92.5809 Y59.4019
G01 X92.5724 Y59.3962
G01 X92.5641 Y59.3903
G01 X92.5478 Y59.3779
G01 X92.5322 Y59.3647
G01 X92.5172 Y59.3507
G01 X92.5030 Y59.3360
G01 X92.4961 Y59.3284
G01 X92.4830 Y59.3127
G01 X92.4768 Y59.3046
G01 X92.4649 Y59.2880
G01 X92.4209 Y59.2197
G01 X92.4102 Y59.2022
G01 X92.4052 Y59.1933
G01 X92.3959 Y59.1751
G01 X92.3876 Y59.1564
G01 X92.3801 Y59.1373
G01 X92.3736 Y59.1179
G01 X92.3681 Y59.0982
G01 X92.3636 Y59.0783
G01 X92.3600 Y59.0581
G01 X92.3575 Y59.0378
G01 X92.3566 Y59.0277
G01 X92.3556 Y59.0072
G01 X92.3555 Y58.9260
G01 X92.3559 Y58.9064
G01 X92.3573 Y58.8868
G01 X92.3597 Y58.8674
G01 X92.3629 Y58.8480
G01 X92.3693 Y58.8202
G01 X92.3693 Y58.1257
G01 X92.3553 Y58.1478
G01 X92.3346 Y58.1766
G01 X92.3207 Y58.1938
G01 X92.3135 Y58.2021
G01 X92.2970 Y58.2202
G01 X92.2893 Y58.2281
G01 X92.2338 Y58.2834
G01 X92.2074 Y58.3071
G01 X92.1989 Y58.3142
G01 X92.1813 Y58.3275
G01 X92.1614 Y58.3417
G01 X92.1428 Y58.3537
G01 X92.1216 Y58.3659
G01 X92.1021 Y58.3763
G01 X92.0069 Y58.4239
G01 X91.9790 Y58.4367
G01 X91.9525 Y58.4474
G01 X91.9325 Y58.4543
G01 X91.9142 Y58.4599
G01 X91.8845 Y58.4674
G01 X91.8658 Y58.4714
G01 X91.8469 Y58.4745
G01 X91.8260 Y58.4773
G01 X91.8070 Y58.4791
G01 X91.7859 Y58.4801
G01 X91.7668 Y58.4806
G01 X91.3858 Y58.4806
G01 X91.3656 Y58.4801
G01 X91.3432 Y58.4789
G01 X91.3231 Y58.4769
G01 X91.3010 Y58.4737
G01 X91.2811 Y58.4703
G01 X91.2613 Y58.4658
G01 X91.2396 Y58.4603
G01 X91.2203 Y58.4544
G01 X91.1897 Y58.4435
G01 X91.1715 Y58.4359
G01 X91.1533 Y58.4435
G01 X91.1228 Y58.4544
G01 X91.1034 Y58.4603
G01 X91.0817 Y58.4658
G01 X91.0620 Y58.4703
G01 X91.0299 Y58.4755
G01 X91.0099 Y58.4780
G01 X90.9897 Y58.4795
G01 X90.9572 Y58.4806
G01 X90.4810 Y58.4806
G01 X90.4486 Y58.4795
G01 X90.4184 Y58.4769
G01 X90.3962 Y58.4737
G01 X90.3763 Y58.4703
G01 X90.3447 Y58.4629
G01 X90.3155 Y58.4544
G01 X90.2849 Y58.4435
G01 X90.2571 Y58.4315
G01 X90.2279 Y58.4172
G01 X90.2103 Y58.4072
G01 X90.1951 Y58.3980
G01 X90.1747 Y58.4054
G01 X90.0213 Y58.4564
G01 X89.9871 Y58.4658
G01 X89.9655 Y58.4705
G01 X89.9546 Y58.4724
G01 X89.9304 Y58.4762
G01 X89.9195 Y58.4775
G01 X89.8975 Y58.4793
G01 X89.8730 Y58.4804
G01 X89.7668 Y58.4806
G01 X89.7447 Y58.4800
G01 X89.7203 Y58.4785
G01 X89.6983 Y58.4762
G01 X89.6633 Y58.4705
G01 X89.6417 Y58.4658
G01 X89.6075 Y58.4564
G01 X89.4541 Y58.4054
G01 X89.4253 Y58.3948
G01 X89.4077 Y58.3875
G01 X89.3904 Y58.3794
G01 X89.3631 Y58.3654
G01 X89.3367 Y58.3496
G01 X89.3207 Y58.3392
G01 X89.2960 Y58.3211
G01 X89.2810 Y58.3092
G01 X89.2580 Y58.2889
G01 X89.2397 Y58.2712
G01 X89.2243 Y58.2905
G01 X89.2107 Y58.3059
G01 X89.1876 Y58.3296
G01 X89.1802 Y58.3367
G01 X89.1648 Y58.3504
G01 X89.1391 Y58.3713
G01 X89.1121 Y58.3903
G01 X89.0949 Y58.4015
G01 X89.0661 Y58.4178
G01 X89.0570 Y58.4226
G01 X89.0385 Y58.4316
G01 X89.0080 Y58.4444
G01 X88.9887 Y58.4515
G01 X88.9571 Y58.4613
G01 X88.9371 Y58.4663
G01 X88.9047 Y58.4729
G01 X88.8844 Y58.4760
G01 X88.8515 Y58.4793
G01 X88.8309 Y58.4803
G01 X88.8206 Y58.4804
G01 X88.7876 Y58.4799
G01 X88.7546 Y58.4771
G01 X88.7342 Y58.4746
G01 X88.7017 Y58.4685
G01 X88.6816 Y58.4639
G01 X88.6499 Y58.4547
G01 X88.6304 Y58.4481
G01 X88.6208 Y58.4444
G01 X88.5903 Y58.4316
G01 X88.5718 Y58.4226
G01 X88.5427 Y58.4068
G01 X88.5252 Y58.3960
G01 X88.4979 Y58.3774
G01 X88.4815 Y58.3649
G01 X88.4562 Y58.3436
G01 X88.4411 Y58.3296
G01 X88.4307 Y58.3191
G01 X88.4085 Y58.3354
G01 X88.3903 Y58.3478
G01 X88.3714 Y58.3592
G01 X88.3501 Y58.3712
G01 X88.2450 Y58.4239
G01 X88.2277 Y58.4320
G01 X88.2084 Y58.4405
G01 X88.1906 Y58.4474
G01 X88.1706 Y58.4543
G01 X88.1523 Y58.4599
G01 X88.1338 Y58.4648
G01 X88.1132 Y58.4695
G01 X88.0945 Y58.4730
G01 X88.0735 Y58.4761
G01 X88.0546 Y58.4783
G01 X88.0239 Y58.4801
G01 X88.0049 Y58.4806
G01 X87.6239 Y58.4806
G01 X87.6037 Y58.4801
G01 X87.5713 Y58.4780
G01 X87.5512 Y58.4755
G01 X87.5291 Y58.4721
G01 X87.5093 Y58.4682
G01 X87.4875 Y58.4629
G01 X87.4680 Y58.4575
G01 X87.4572 Y58.4540
G01 X87.4464 Y58.4575
G01 X87.4270 Y58.4629
G01 X87.4052 Y58.4682
G01 X87.3854 Y58.4721
G01 X87.3633 Y58.4755
G01 X87.3432 Y58.4780
G01 X87.3230 Y58.4795
G01 X87.3007 Y58.4805
G01 X86.7191 Y58.4806
G01 X86.6989 Y58.4801
G01 X86.6766 Y58.4789
G01 X86.6565 Y58.4769
G01 X86.6343 Y58.4737
G01 X86.6144 Y58.4703
G01 X86.5947 Y58.4658
G01 X86.5730 Y58.4603
G01 X86.5536 Y58.4544
G01 X86.5230 Y58.4435
G01 X86.5044 Y58.4357
G01 X86.4841 Y58.4263
G01 X86.4660 Y58.4172
G01 X86.4484 Y58.4072
G01 X86.4208 Y58.3901
G01 X86.4043 Y58.3785
G01 X86.3864 Y58.3650
G01 X86.3708 Y58.3522
G01 X86.3541 Y58.3373
G01 X86.3394 Y58.3233
G01 X86.3255 Y58.3087
G01 X86.3106 Y58.2920
G01 X86.2977 Y58.2764
G01 X86.2843 Y58.2585
G01 X86.2727 Y58.2419
G01 X86.2555 Y58.2143
G01 X86.2456 Y58.1967
G01 X86.2365 Y58.1787
G01 X86.2230 Y58.1491
G01 X86.2158 Y58.1302
G01 X86.2083 Y58.1091
G01 X86.2025 Y58.0898
G01 X86.1969 Y58.0681
G01 X86.1925 Y58.0484
G01 X86.1901 Y58.0352
G01 X86.1836 Y58.0572
G01 X86.1730 Y58.0879
G01 X86.1653 Y58.1066
G01 X86.1562 Y58.1270
G01 X86.1472 Y58.1451
G01 X86.1363 Y58.1647
G01 X86.1260 Y58.1821
G01 X86.1148 Y58.1989
G01 X86.1018 Y58.2172
G01 X86.0894 Y58.2331
G01 X86.0750 Y58.2502
G01 X86.0614 Y58.2652
G01 X86.0472 Y58.2796
G01 X86.0234 Y58.3017
G01 X86.0078 Y58.3145
G01 X85.9901 Y58.3282
G01 X85.9736 Y58.3399
G01 X85.9548 Y58.3521
G01 X85.9286 Y58.3674
G01 X85.9087 Y58.3776
G01 X85.8904 Y58.3863
G01 X85.8718 Y58.3941
G01 X85.8506 Y58.4022
G01 X85.6985 Y58.4530
G01 X85.6773 Y58.4595
G01 X85.6537 Y58.4658
G01 X85.6321 Y58.4705
G01 X85.6080 Y58.4746
G01 X85.5861 Y58.4775
G01 X85.5641 Y58.4793
G01 X85.5397 Y58.4804
G01 X85.5287 Y58.4806
G01 X85.2810 Y58.4805
G01 X85.2504 Y58.4791
G01 X85.2314 Y58.4773
G01 X85.2010 Y58.4730
G01 X85.1822 Y58.4695
G01 X85.1523 Y58.4625
G01 X85.1249 Y58.4543
G01 X85.0959 Y58.4441
G01 X85.0677 Y58.4320
G01 X85.0504 Y58.4239
G01 X84.9454 Y58.3712
G01 X84.9145 Y58.3537
G01 X84.8959 Y58.3417
G01 X84.8858 Y58.3346
G01 X84.8757 Y58.3417
G01 X84.8571 Y58.3537
G01 X84.8262 Y58.3712
G01 X84.7126 Y58.4281
G01 X84.6933 Y58.4367
G01 X84.6757 Y58.4441
G01 X84.6577 Y58.4506
G01 X84.6377 Y58.4572
G01 X84.6193 Y58.4625
G01 X84.5987 Y58.4674
G01 X84.5801 Y58.4714
G01 X84.5612 Y58.4745
G01 X84.5403 Y58.4773
G01 X84.5213 Y58.4791
G01 X84.5001 Y58.4801
G01 X84.4810 Y58.4806
G01 X84.2805 Y58.4805
G01 X84.2555 Y58.4794
G01 X84.2350 Y58.4777
G01 X84.2117 Y58.4747
G01 X84.1913 Y58.4713
G01 X84.1600 Y58.4644
G01 X84.1401 Y58.4591
G01 X84.1096 Y58.4491
G01 X84.0903 Y58.4418
G01 X84.0744 Y58.4351
G01 X84.0504 Y58.4239
G01 X83.9472 Y58.3722
G01 X83.9292 Y58.3854
G01 X83.9126 Y58.3963
G01 X83.8852 Y58.4127
G01 X83.8676 Y58.4220
G01 X83.8387 Y58.4358
G01 X83.8203 Y58.4433
G01 X83.7902 Y58.4542
G01 X83.7712 Y58.4599
G01 X83.7499 Y58.4656
G01 X83.7305 Y58.4699
G01 X83.6990 Y58.4753
G01 X83.6792 Y58.4777
G01 X83.6473 Y58.4801
G01 X83.6274 Y58.4806
G01 X83.5955 Y58.4798
G01 X83.5756 Y58.4784
G01 X83.5537 Y58.4759
G01 X83.5341 Y58.4730
G01 X83.5145 Y58.4692
G01 X83.4930 Y58.4644
G01 X83.4643 Y58.4562
G01 X83.4434 Y58.4493
G01 X83.4248 Y58.4423
G01 X83.4046 Y58.4336
G01 X83.3865 Y58.4253
G01 X83.3689 Y58.4160
G01 X83.3497 Y58.4053
G01 X83.3328 Y58.3948
G01 X83.3146 Y58.3824
G01 X83.2906 Y58.3646
G01 X83.2666 Y58.3824
G01 X83.2484 Y58.3948
G01 X83.2315 Y58.4053
G01 X83.2123 Y58.4160
G01 X83.1946 Y58.4253
G01 X83.1766 Y58.4336
G01 X83.1563 Y58.4423
G01 X83.1377 Y58.4493
G01 X83.1168 Y58.4562
G01 X83.0881 Y58.4644
G01 X83.0666 Y58.4692
G01 X83.0471 Y58.4730
G01 X83.0274 Y58.4759
G01 X83.0055 Y58.4784
G01 X82.9757 Y58.4802
G01 X82.9537 Y58.4806
G01 X82.9338 Y58.4801
G01 X82.9118 Y58.4786
G01 X82.8920 Y58.4766
G01 X82.8724 Y58.4737
G01 X82.8507 Y58.4699
G01 X82.8313 Y58.4656
G01 X82.8100 Y58.4599
G01 X82.7815 Y58.4510
G01 X82.7516 Y58.4396
G01 X82.7334 Y58.4317
G01 X82.7192 Y58.4248
G01 X82.6865 Y58.4397
G01 X82.6677 Y58.4470
G01 X82.6466 Y58.4544
G01 X82.6174 Y58.4629
G01 X82.5957 Y58.4682
G01 X82.5759 Y58.4721
G01 X82.5537 Y58.4755
G01 X82.5337 Y58.4780
G01 X82.5013 Y58.4801
G01 X82.4709 Y58.4805
G01 X82.4486 Y58.4795
G01 X82.4284 Y58.4780
G01 X82.4083 Y58.4755
G01 X82.3763 Y58.4703
G01 X82.3447 Y58.4629
G01 X82.3155 Y58.4544
G01 X82.2849 Y58.4435
G01 X82.2571 Y58.4315
G01 X82.2279 Y58.4172
G01 X82.2103 Y58.4072
G01 X82.1954 Y58.3982
G01 X82.1699 Y58.4132
G01 X82.1523 Y58.4226
G01 X82.1342 Y58.4312
G01 X82.1047 Y58.4439
G01 X82.0744 Y58.4546
G01 X82.0552 Y58.4605
G01 X82.0359 Y58.4654
G01 X82.0143 Y58.4703
G01 X81.9946 Y58.4738
G01 X81.9627 Y58.4779
G01 X81.9428 Y58.4795
G01 X81.9106 Y58.4806
G01 X81.8906 Y58.4802
G01 X81.8585 Y58.4781
G01 X81.8387 Y58.4759
G01 X81.8151 Y58.4721
G01 X81.7997 Y58.4794
G01 X81.7813 Y58.4876
G01 X81.7508 Y58.4989
G01 X81.7219 Y58.5081
G01 X81.6904 Y58.5159
G01 X81.6606 Y58.5214
G01 X81.6284 Y58.5257
G01 X81.5959 Y58.5277
G01 X81.5757 Y58.5282
G01 X81.5555 Y58.5277
G01 X81.5231 Y58.5256
G01 X81.5030 Y58.5231
G01 X81.4809 Y58.5196
G01 X81.4611 Y58.5157
G01 X81.4394 Y58.5103
G01 X81.4199 Y58.5049
G01 X81.4007 Y58.4986
G01 X81.3797 Y58.4909
G01 X81.3610 Y58.4831
G01 X81.3316 Y58.4692
G01 X81.3138 Y58.4597
G01 X81.2946 Y58.4482
G01 X81.2775 Y58.4374
G01 X81.2610 Y58.4257
G01 X81.2352 Y58.4060
G01 X81.2108 Y58.3845
G01 X81.1891 Y58.3633
G01 X81.1740 Y58.3468
G01 X81.1608 Y58.3315
G01 X81.1411 Y58.3056
G01 X81.1295 Y58.2891
G01 X80.9214 Y57.9770
G01 X80.9137 Y57.9933
G01 X80.8610 Y58.0983
G01 X80.8491 Y58.1197
G01 X80.8376 Y58.1386
G01 X80.8315 Y58.1478
G01 X80.8174 Y58.1677
G01 X80.8108 Y58.1766
G01 X80.7969 Y58.1938
G01 X80.7732 Y58.2202
G01 X80.7100 Y58.2834
G01 X80.6919 Y58.2998
G01 X80.6751 Y58.3142
G01 X80.6575 Y58.3275
G01 X80.6376 Y58.3417
G01 X80.6190 Y58.3537
G01 X80.5978 Y58.3659
G01 X80.5783 Y58.3763
G01 X80.4831 Y58.4239
G01 X80.4658 Y58.4320
G01 X80.4465 Y58.4405
G01 X80.4287 Y58.4474
G01 X80.3996 Y58.4572
G01 X80.3812 Y58.4625
G01 X80.3607 Y58.4674
G01 X80.3420 Y58.4714
G01 X80.3231 Y58.4745
G01 X80.3022 Y58.4773
G01 X80.2832 Y58.4791
G01 X80.2620 Y58.4801
G01 X80.2430 Y58.4806
G01 X79.8620 Y58.4806
G01 X79.8418 Y58.4801
G01 X79.8194 Y58.4789
G01 X79.7993 Y58.4769
G01 X79.7672 Y58.4721
G01 X79.7474 Y58.4682
G01 X79.7158 Y58.4603
G01 X79.6965 Y58.4544
G01 X79.6659 Y58.4435
G01 X79.6472 Y58.4357
G01 X79.6239 Y58.4248
G01 X79.5913 Y58.4397
G01 X79.5724 Y58.4470
G01 X79.5513 Y58.4544
G01 X79.5222 Y58.4629
G01 X79.4906 Y58.4703
G01 X79.4706 Y58.4737
G01 X79.4485 Y58.4769
G01 X79.4183 Y58.4795
G01 X79.3858 Y58.4806
G01 X79.3656 Y58.4801
G01 X79.3432 Y58.4789
G01 X79.3131 Y58.4755
G01 X79.2811 Y58.4703
G01 X79.2494 Y58.4629
G01 X79.2203 Y58.4544
G01 X79.1897 Y58.4435
G01 X79.1618 Y58.4315
G01 X79.1327 Y58.4172
G01 X79.1151 Y58.4072
G01 X79.1002 Y58.3982
G01 X79.0852 Y58.4072
G01 X79.0659 Y58.4180
G01 X79.0481 Y58.4270
G01 X79.0279 Y58.4362
G01 X79.0001 Y58.4474
G01 X78.9791 Y58.4546
G01 X78.9600 Y58.4605
G01 X78.9406 Y58.4654
G01 X78.9190 Y58.4703
G01 X78.8993 Y58.4738
G01 X78.8774 Y58.4768
G01 X78.8575 Y58.4789
G01 X78.8375 Y58.4800
G01 X78.8154 Y58.4806
G01 X78.7954 Y58.4802
G01 X78.7733 Y58.4789
G01 X78.7534 Y58.4771
G01 X78.7216 Y58.4724
G01 X78.6922 Y58.4665
G01 X78.6707 Y58.4609
G01 X78.6514 Y58.4553
G01 X78.6326 Y58.4488
G01 X78.6119 Y58.4409
G01 X78.5935 Y58.4330
G01 X78.5736 Y58.4234
G01 X78.5471 Y58.4093
G01 X78.5282 Y58.3978
G01 X78.5106 Y58.3864
G01 X78.4269 Y58.4281
G01 X78.3988 Y58.4405
G01 X78.3810 Y58.4474
G01 X78.3610 Y58.4543
G01 X78.3428 Y58.4599
G01 X78.3130 Y58.4674
G01 X78.2849 Y58.4730
G01 X78.2546 Y58.4773
G01 X78.2260 Y58.4796
G01 X78.1953 Y58.4806
G01 X77.8144 Y58.4806
G01 X77.7819 Y58.4795
G01 X77.7617 Y58.4780
G01 X77.7295 Y58.4737
G01 X77.6997 Y58.4682
G01 X77.6682 Y58.4603
G01 X77.6393 Y58.4511
G01 X77.6089 Y58.4397
G01 X77.5793 Y58.4263
G01 X77.5524 Y58.4123
G01 X77.5245 Y58.3956
G01 X77.4995 Y58.3785
G01 X77.4737 Y58.3587
G01 X77.4493 Y58.3373
G01 X77.4347 Y58.3233
G01 X77.4125 Y58.2996
G01 X77.3930 Y58.2764
G01 X77.3736 Y58.2503
G01 X77.3573 Y58.2253
G01 X77.3576 Y58.8241
G01 X77.3621 Y58.8398
G01 X77.3667 Y58.8598
G01 X77.3704 Y58.8799
G01 X77.3718 Y58.8900
G01 X77.3740 Y58.9104
G01 X77.3747 Y58.9206
G01 X77.3753 Y58.9410
G01 X77.3753 Y58.9512
G01 X77.3744 Y58.9717
G01 X77.3725 Y58.9920
G01 X77.3610 Y59.0725
G01 X77.3576 Y59.0926
G01 X77.3532 Y59.1126
G01 X77.3478 Y59.1323
G01 X77.3414 Y59.1518
G01 X77.3341 Y59.1709
G01 X77.3301 Y59.1803
G01 X77.3214 Y59.1988
G01 X77.3167 Y59.2079
G01 X77.3066 Y59.2257
G01 X77.3012 Y59.2344
G01 X77.2898 Y59.2514
G01 X77.2776 Y59.2678
G01 X77.2712 Y59.2758
G01 X77.2181 Y59.3372
G01 X77.2044 Y59.3524
G01 X77.1972 Y59.3597
G01 X77.1823 Y59.3737
G01 X77.1668 Y59.3870
G01 X77.1506 Y59.3995
G01 X77.1338 Y59.4112
G01 X77.1165 Y59.4221
G01 X77.1076 Y59.4272
G01 X77.0986 Y59.4320
G01 X77.0803 Y59.4411
G01 X77.0615 Y59.4493
G01 X77.0424 Y59.4565
G01 X77.0327 Y59.4597
G01 X76.9548 Y59.4827
G01 X76.9263 Y59.4900
G01 X76.9070 Y59.4937
G01 X76.8876 Y59.4965
G01 X76.8681 Y59.4984
G01 X76.8485 Y59.4993
G01 X0.8510 Y59.4994
G01 X0.8314 Y59.4989
G01 X0.8118 Y59.4975
G01 X0.7827 Y59.4937
G01 X0.7634 Y59.4900
G01 X0.7111 Y59.4786
G01 X0.6911 Y59.4737
G01 X0.6812 Y59.4709
G01 X0.6616 Y59.4646
G01 X0.6424 Y59.4572
G01 X0.6329 Y59.4532
G01 X0.6235 Y59.4489
G01 X0.6051 Y59.4397
G01 X0.5872 Y59.4296
G01 X0.5784 Y59.4242
G01 X0.5698 Y59.4186
G01 X0.5530 Y59.4067
G01 X0.5368 Y59.3941
G01 X0.4753 Y59.3409
G01 X0.4676 Y59.3341
G01 X0.4528 Y59.3200
G01 X0.4388 Y59.3051
G01 X0.4320 Y59.2974
G01 X0.4191 Y59.2816
G01 X0.4130 Y59.2734
G01 X0.4013 Y59.2566
G01 X0.3957 Y59.2480
G01 X0.3853 Y59.2304
G01 X0.3805 Y59.2214
G01 X0.3714 Y59.2031
G01 X0.3632 Y59.1843
G01 X0.3560 Y59.1651
G01 X0.3498 Y59.1457
G01 X0.3271 Y59.0681
G01 X0.3205 Y59.0395
G01 X0.3160 Y59.0104
G01 X0.3141 Y58.9909
G01 X0.3131 Y58.9615
G01 X0.3131 Y1.4295
G01 X0.3136 Y1.4099
G01 X0.3160 Y1.3806
G01 X0.3188 Y1.3612
G01 X0.3225 Y1.3419
G00 Z2.0000
G00 X0.4646 Y1.3728
G01 F60.00
G01 Z-0.1200
G01 F120.00
G01 X0.4774 Y1.3140
G01 X0.4829 Y1.2948
G01 X0.4873 Y1.2822
G01 X0.4924 Y1.2699
G01 X0.4980 Y1.2579
G01 X0.5043 Y1.2461
G01 X0.5148 Y1.2291
G01 X0.5224 Y1.2182
G01 X0.5307 Y1.2077
G01 X0.5858 Y1.1440
G01 X0.5950 Y1.1345
G01 X0.6096 Y1.1210
G01 X0.6199 Y1.1126
G01 X0.6305 Y1.1048
G01 X0.6416 Y1.0975
G01 X0.6530 Y1.0908
G01 X0.6647 Y1.0846
G01 X0.6767 Y1.0790
G01 X0.6952 Y1.0718
G01 X0.7078 Y1.0678
G01 X0.7759 Y1.0478
G01 X0.7943 Y1.0431
G01 X0.8131 Y1.0397
G01 X0.8257 Y1.0382
G01 X0.8383 Y1.0373
G01 X0.8510 Y1.0370
G01 X93.4985 Y1.0370
G01 X93.5175 Y1.0376
G01 X93.5301 Y1.0389
G01 X93.5427 Y1.0407
G01 X93.6075 Y1.0544
G01 X93.6204 Y1.0576
G01 X93.6395 Y1.0635
G01 X93.6581 Y1.0709
G01 X93.6761 Y1.0796
G01 X93.6933 Y1.0896
G01 X93.7044 Y1.0970
G01 X93.7203 Y1.1092
G01 X93.7790 Y1.1599
G01 X93.7888 Y1.1689
G01 X93.8026 Y1.1831
G01 X93.8112 Y1.1932
G01 X93.8232 Y1.2090
G01 X93.8339 Y1.2257
G01 X93.8404 Y1.2373
G01 X93.8463 Y1.2492
G01 X93.8515 Y1.2613
G01 X93.8562 Y1.2737
G01 X93.8602 Y1.2863
G01 X93.8819 Y1.3605
G01 X93.8862 Y1.3791
G01 X93.8891 Y1.3979
G01 X93.8904 Y1.4105
G01 X93.8910 Y1.4295
G01 X93.8910 Y58.9615
G01 X93.8907 Y58.9742
G01 X93.8898 Y58.9868
G01 X93.8873 Y59.0057
G01 X93.8736 Y59.0705
G01 X93.8704 Y59.0834
G01 X93.8645 Y59.1025
G01 X93.8571 Y59.1211
G01 X93.8484 Y59.1391
G01 X93.8384 Y59.1563
G01 X93.8271 Y59.1728
G01 X93.8188 Y59.1833
G01 X93.7681 Y59.2420
G01 X93.7591 Y59.2518
G01 X93.7497 Y59.2612
G01 X93.7399 Y59.2700
G01 X93.7244 Y59.2823
G01 X93.7135 Y59.2899
G01 X93.6965 Y59.3002
G01 X93.6848 Y59.3064
G01 X93.6728 Y59.3120
G01 X93.6543 Y59.3192
G01 X93.6417 Y59.3232
G01 X93.5736 Y59.3432
G01 X93.5613 Y59.3465
G01 X93.5489 Y59.3492
G01 X93.5364 Y59.3513
G01 X93.5238 Y59.3528
G01 X93.5112 Y59.3537
G01 X93.4985 Y59.3540
G01 X92.8883 Y59.3540
G01 X92.8756 Y59.3537
G01 X92.8513 Y59.3521
G01 X92.8324 Y59.3500
G01 X92.8199 Y59.3479
G01 X92.8075 Y59.3452
G01 X92.7953 Y59.3419
G01 X92.7832 Y59.3381
G01 X92.7654 Y59.3312
G01 X92.6950 Y59.2992
G01 X92.6773 Y59.2903
G01 X92.6659 Y59.2836
G01 X92.6548 Y59.2764
G01 X92.6388 Y59.2645
G01 X92.6287 Y59.2560
G01 X92.6191 Y59.2469
G01 X92.6098 Y59.2374
G01 X92.6011 Y59.2275
G01 X92.5929 Y59.2171
G01 X92.5815 Y59.2008
G01 X92.5397 Y59.1355
G01 X92.5300 Y59.1181
G01 X92.5243 Y59.1062
G01 X92.5191 Y59.0940
G01 X92.5126 Y59.0753
G01 X92.5090 Y59.0625
G01 X92.5061 Y59.0496
G01 X92.5029 Y59.0300
G01 X92.5016 Y59.0168
G01 X92.5009 Y59.0036
G01 X92.5009 Y58.9260
G01 X92.5012 Y58.9133
G01 X92.5027 Y58.8944
G01 X92.5057 Y58.8756
G01 X92.5099 Y58.8570
G01 X92.5147 Y58.8406
G01 X92.5147 Y52.9415
G01 X77.2093 Y52.9415
G01 X77.2093 Y58.8408
G01 X77.2157 Y58.8574
G01 X77.2196 Y58.8701
G01 X77.2230 Y58.8829
G01 X77.2256 Y58.8958
G01 X77.2285 Y58.9155
G01 X77.2295 Y58.9287
G01 X77.2299 Y58.9419
G01 X77.2297 Y58.9551
G01 X77.2288 Y58.9684
G01 X77.2272 Y58.9815
G01 X77.2171 Y59.0518
G01 X77.2149 Y59.0648
G01 X77.2104 Y59.0842
G01 X77.2066 Y59.0968
G01 X77.2022 Y59.1093
G01 X77.1971 Y59.1215
G01 X77.1915 Y59.1335
G01 X77.1852 Y59.1452
G01 X77.1748 Y59.1621
G01 X77.1672 Y59.1729
G01 X77.1548 Y59.1884
G01 X77.1083 Y59.2420
G01 X77.0993 Y59.2518
G01 X77.0900 Y59.2612
G01 X77.0801 Y59.2700
G01 X77.0698 Y59.2784
G01 X77.0592 Y59.2862
G01 X77.0481 Y59.2935
G01 X77.0367 Y59.3002
G01 X77.0250 Y59.3064
G01 X77.0130 Y59.3120
G01 X77.0007 Y59.3169
G01 X76.9882 Y59.3213
G01 X76.9077 Y59.3449
G01 X76.8954 Y59.3479
G01 X76.8829 Y59.3503
G01 X76.8703 Y59.3521
G01 X76.8577 Y59.3534
G01 X76.8387 Y59.3540
G01 X0.8510 Y59.3540
G01 X0.8383 Y59.3537
G01 X0.8257 Y59.3528
G01 X0.8068 Y59.3503
G01 X0.7420 Y59.3366
G01 X0.7291 Y59.3334
G01 X0.7100 Y59.3275
G01 X0.6914 Y59.3201
G01 X0.6734 Y59.3114
G01 X0.6562 Y59.3014
G01 X0.6397 Y59.2901
G01 X0.6292 Y59.2818
G01 X0.5705 Y59.2311
G01 X0.5607 Y59.2221
G01 X0.5469 Y59.2079
G01 X0.5341 Y59.1926
G01 X0.5226 Y59.1765
G01 X0.5156 Y59.1653
G01 X0.5091 Y59.1537
G01 X0.5032 Y59.1418
G01 X0.4980 Y59.1297
G01 X0.4933 Y59.1173
G01 X0.4893 Y59.1047
G01 X0.4676 Y59.0305
G01 X0.4633 Y59.0119
G01 X0.4604 Y58.9931
G01 X0.4591 Y58.9805
G01 X0.4585 Y58.9615
G01 X0.4585 Y1.4295
G01 X0.4591 Y1.4105
G01 X0.4604 Y1.3979
G01 X0.4622 Y1.3853
G01 X0.4646 Y1.3728
G00 Z2.0000
G00 X0.6066 Y1.4037
G01 F60.00
G01 Z-0.1200
G01 F120.00
G01 X0.6194 Y1.3455
G01 X0.6243 Y1.3312
G01 X0.6309 Y1.3176
G01 X0.6357 Y1.3099
G01 X0.6429 Y1.3001
G01 X0.6913 Y1.2442
G01 X0.7019 Y1.2334
G01 X0.7112 Y1.2258
G01 X0.7212 Y1.2192
G01 X0.7319 Y1.2136
G01 X0.7430 Y1.2091
G01 X0.8224 Y1.1858
G01 X0.8366 Y1.1832
G01 X0.8510 Y1.1824
G01 X93.4985 Y1.1824
G01 X93.5100 Y1.1829
G01 X93.5214 Y1.1845
G01 X93.5825 Y1.1979
G01 X93.5911 Y1.2006
G01 X93.5996 Y1.2040
G01 X93.6078 Y1.2079
G01 X93.6156 Y1.2125
G01 X93.6279 Y1.2214
G01 X93.6883 Y1.2739
G01 X93.6946 Y1.2804
G01 X93.7003 Y1.2873
G01 X93.7088 Y1.2997
G01 X93.7156 Y1.3131
G01 X93.7199 Y1.3244
G01 X93.7407 Y1.3954
G01 X93.7429 Y1.4037
G01 X93.7444 Y1.4123
G01 X93.7453 Y1.4209
G01 X93.7456 Y1.4295
G01 X93.7456 Y58.9615
G01 X93.7451 Y58.9730
G01 X93.7435 Y58.9844
G01 X93.7301 Y59.0455
G01 X93.7274 Y59.0541
G01 X93.7240 Y59.0626
G01 X93.7201 Y59.0708
G01 X93.7155 Y59.0786
G01 X93.7066 Y59.0909
G01 X93.6562 Y59.1491
G01 X93.6454 Y59.1595
G01 X93.6334 Y59.1686
G01 X93.6257 Y59.1733
G01 X93.6176 Y59.1774
G01 X93.6036 Y59.1829
G01 X93.5326 Y59.2037
G01 X93.5186 Y59.2070
G01 X93.5100 Y59.2081
G01 X93.4985 Y59.2086
G01 X92.8825 Y59.2085
G01 X92.8588 Y59.2068
G01 X92.8503 Y59.2057
G01 X92.8390 Y59.2032
G01 X92.8280 Y59.1997
G01 X92.8200 Y59.1964
G01 X92.7527 Y59.1656
G01 X92.7422 Y59.1598
G01 X92.7299 Y59.1512
G01 X92.7231 Y59.1453
G01 X92.7167 Y59.1389
G01 X92.7072 Y59.1272
G01 X92.6639 Y59.0599
G01 X92.6581 Y59.0494
G01 X92.6535 Y59.0383
G01 X92.6499 Y59.0268
G01 X92.6481 Y59.0180
G01 X92.6468 Y59.0090
G01 X92.6463 Y59.0000
G01 X92.6462 Y58.9260
G01 X92.6465 Y58.9174
G01 X92.6475 Y58.9088
G01 X92.6496 Y58.8974
G01 X92.6601 Y58.8615
G01 X92.6601 Y52.7961
G01 X77.0639 Y52.7962
G01 X77.0639 Y58.8705
G01 X77.0646 Y58.8735
G01 X77.0760 Y58.8988
G01 X77.0807 Y58.9131
G01 X77.0826 Y58.9219
G01 X77.0839 Y58.9308
G01 X77.0845 Y58.9398
G01 X77.0845 Y58.9488
G01 X77.0833 Y58.9608
G01 X77.0728 Y59.0341
G01 X77.0693 Y59.0487
G01 X77.0641 Y59.0628
G01 X77.0572 Y59.0761
G01 X77.0487 Y59.0885
G01 X76.9964 Y59.1491
G01 X76.9879 Y59.1576
G01 X76.9761 Y59.1669
G01 X76.9632 Y59.1747
G01 X76.9523 Y59.1798
G01 X76.9410 Y59.1837
G01 X76.8701 Y59.2045
G01 X76.8588 Y59.2070
G01 X76.8502 Y59.2081
G01 X76.8387 Y59.2086
G01 X0.8510 Y59.2086
G01 X0.8395 Y59.2081
G01 X0.8281 Y59.2065
G01 X0.7670 Y59.1931
G01 X0.7584 Y59.1904
G01 X0.7499 Y59.1870
G01 X0.7417 Y59.1831
G01 X0.7339 Y59.1785
G01 X0.7216 Y59.1696
G01 X0.6612 Y59.1171
G01 X0.6549 Y59.1106
G01 X0.6492 Y59.1037
G01 X0.6407 Y59.0913
G01 X0.6339 Y59.0779
G01 X0.6296 Y59.0666
G01 X0.6088 Y58.9956
G01 X0.6066 Y58.9873
G01 X0.6051 Y58.9787
G01 X0.6042 Y58.9701
G01 X0.6039 Y58.9615
G01 X0.6039 Y1.4295
G01 X0.6044 Y1.4180
G01 X0.6066 Y1.4037
G00 Z2.0000
G00 X9.3141 Y2.5249
G01 F60.00
G01 Z-0.1200
G01 F120.00
G01 X9.3613 Y2.3832
G01 X9.4394 Y2.2569
G01 X9.5444 Y2.1520
G01 X9.6708 Y2.0740
G01 X9.8130 Y2.0268
G01 X9.8979 Y2.0181
G01 X10.1919 Y2.0181
G01 X10.1919 Y2.2839
G01 X9.9420 Y2.2839
G01 X9.9116 Y2.2852
G01 X9.9027 Y2.2860
G01 X9.8755 Y2.2900
G01 X9.8667 Y2.2916
G01 X9.8371 Y2.2990
G01 X9.8286 Y2.3017
G01 X9.8000 Y2.3121
G01 X9.7724 Y2.3250
G01 X9.7644 Y2.3291
G01 X9.7383 Y2.3448
G01 X9.7309 Y2.3498
G01 X9.7065 Y2.3681
G01 X9.6839 Y2.3885
G01 X9.6755 Y2.3969
G01 X9.6551 Y2.4195
G01 X9.6368 Y2.4439
G01 X9.6302 Y2.4538
G01 X9.6133 Y2.4827
G01 X9.6003 Y2.5102
G01 X9.5970 Y2.5185
G01 X9.5868 Y2.5473
G01 X9.5786 Y2.5797
G01 X9.5734 Y2.6127
G01 X9.5724 Y2.6216
G01 X9.5709 Y2.6520
G01 X9.5709 Y2.6799
G01 X9.3052 Y2.6799
G01 X9.3052 Y2.6108
G01 X9.3141 Y2.5249
G00 Z2.0000
G00 X9.3051 Y3.4301
G01 F60.00
G01 Z-0.1200
G01 F120.00
G01 X9.5709 Y3.4301
G01 X9.5709 Y3.4580
G01 X9.5722 Y3.4854
G01 X9.5730 Y3.4943
G01 X9.5780 Y3.5274
G01 X9.5860 Y3.5599
G01 X9.5970 Y3.5915
G01 X9.6015 Y3.6025
G01 X9.6147 Y3.6300
G01 X9.6318 Y3.6587
G01 X9.6514 Y3.6858
G01 X9.6590 Y3.6950
G01 X9.6796 Y3.7174
G01 X9.7065 Y3.7419
G01 X9.7309 Y3.7602
G01 X9.7408 Y3.7668
G01 X9.7670 Y3.7823
G01 X9.7972 Y3.7967
G01 X9.8055 Y3.8000
G01 X9.8343 Y3.8102
G01 X9.8638 Y3.8177
G01 X9.8755 Y3.8200
G01 X9.9086 Y3.8246
G01 X9.9420 Y3.8261
G01 X10.1919 Y3.8261
G01 X10.1919 Y4.0918
G01 X9.8980 Y4.0918
G01 X9.8119 Y4.0829
G01 X9.6702 Y4.0357
G01 X9.5439 Y3.9576
G01 X9.4387 Y3.8522
G01 X9.3608 Y3.7258
G01 X9.3138 Y3.5840
G01 X9.3052 Y3.4993
G01 X9.3051 Y3.4301
G00 Z2.0000
G00 X10.9421 Y4.0919
G01 F60.00
G01 Z-0.1200
G01 F120.00
G01 X10.9421 Y3.8261
G01 X11.1920 Y3.8261
G01 X11.2254 Y3.8246
G01 X11.2343 Y3.8236
G01 X11.2644 Y3.8190
G01 X11.2940 Y3.8118
G01 X11.3054 Y3.8083
G01 X11.3368 Y3.7967
G01 X11.3670 Y3.7823
G01 X11.3932 Y3.7668
G01 X11.4031 Y3.7602
G01 X11.4275 Y3.7419
G01 X11.4544 Y3.7174
G01 X11.4750 Y3.6950
G01 X11.4826 Y3.6858
G01 X11.5022 Y3.6587
G01 X11.5193 Y3.6300
G01 X11.5325 Y3.6025
G01 X11.5370 Y3.5915
G01 X11.5480 Y3.5599
G01 X11.5560 Y3.5274
G01 X11.5610 Y3.4943
G01 X11.5618 Y3.4854
G01 X11.5631 Y3.4580
G01 X11.5631 Y3.4301
G01 X11.8288 Y3.4301
G01 X11.8288 Y3.4992
G01 X11.8199 Y3.5851
G01 X11.7727 Y3.7268
G01 X11.6943 Y3.8534
G01 X11.5892 Y3.9583
G01 X11.4628 Y4.0362
G01 X11.3210 Y4.0832
G01 X11.2361 Y4.0919
G01 X10.9421 Y4.0919
G00 Z2.0000
G00 X10.9421 Y2.2839
G01 F60.00
G01 Z-0.1200
G01 F120.00
G01 X10.9421 Y2.0182
G01 X11.2360 Y2.0182
G01 X11.3221 Y2.0271
G01 X11.4638 Y2.0743
G01 X11.5904 Y2.1527
G01 X11.6953 Y2.2578
G01 X11.7730 Y2.3838
G01 X11.8202 Y2.5260
G01 X11.8288 Y2.6107
G01 X11.8289 Y2.6799
G01 X11.5631 Y2.6799
G01 X11.5631 Y2.6520
G01 X11.5618 Y2.6246
G01 X11.5610 Y2.6157
G01 X11.5560 Y2.5826
G01 X11.5480 Y2.5501
G01 X11.5370 Y2.5185
G01 X11.5325 Y2.5075
G01 X11.5193 Y2.4800
G01 X11.5022 Y2.4513
G01 X11.4826 Y2.4242
G01 X11.4750 Y2.4150
G01 X11.4544 Y2.3926
G01 X11.4275 Y2.3681
G01 X11.4031 Y2.3498
G01 X11.3932 Y2.3432
G01 X11.3670 Y2.3277
G01 X11.3368 Y2.3133
G01 X11.3054 Y2.3017
G01 X11.2940 Y2.2982
G01 X11.2644 Y2.2910
G01 X11.2343 Y2.2864
G01 X11.2254 Y2.2854
G01 X11.1920 Y2.2839
G01 X10.9421 Y2.2839
G00 Z2.0000
G00 X14.6086 Y4.2699
G01 F60.00
G01 Z-0.1200
G01 F120.00
G01 X14.6873 Y4.0706
G01 X14.8004 Y3.8842
G01 X14.9435 Y3.7192
G01 X15.1126 Y3.5805
G01 X15.3025 Y3.4725
G01 X15.5077 Y3.3981
G01 X15.7249 Y3.3588
G01 X15.7390 Y3.3581
G01 X16.6689 Y3.3581
G01 X16.6689 Y3.6239
G01 X15.8381 Y3.6240
G01 X15.7439 Y3.6288
G01 X15.6506 Y3.6425
G01 X15.6390 Y3.6448
G01 X15.5476 Y3.6678
G01 X15.4532 Y3.7016
G01 X15.3679 Y3.7418
G01 X15.3575 Y3.7474
G01 X15.2767 Y3.7959
G01 X15.2009 Y3.8520
G01 X15.1917 Y3.8595
G01 X15.1262 Y3.9188
G01 X15.1178 Y3.9272
G01 X15.0546 Y3.9972
G01 X14.9949 Y4.0777
G01 X14.9434 Y4.1636
G01 X14.9018 Y4.2515
G01 X14.8948 Y4.2699
G01 X14.6086 Y4.2699
G00 Z2.0000
G00 X15.2495 Y6.1426
G01 F60.00
G01 Z-0.1200
G01 F120.00
G01 X15.2909 Y6.0819
G01 X15.3015 Y6.0651
G01 X15.3078 Y6.0534
G01 X15.3136 Y6.0415
G01 X15.3187 Y6.0293
G01 X15.3232 Y6.0169
G01 X15.3272 Y6.0042
G01 X15.3304 Y5.9914
G01 X15.3331 Y5.9785
G01 X15.3358 Y5.9588
G01 X15.3371 Y5.9390
G01 X15.3391 Y5.8680
G01 X15.3391 Y5.8548
G01 X15.3385 Y5.8415
G01 X15.3372 Y5.8284
G01 X15.3352 Y5.8153
G01 X15.3327 Y5.8023
G01 X15.3294 Y5.7895
G01 X15.3256 Y5.7768
G01 X15.3211 Y5.7643
G01 X15.3132 Y5.7461
G01 X15.3040 Y5.7285
G01 X15.2578 Y5.6524
G01 X15.2884 Y5.6706
G01 X15.2999 Y5.6768
G01 X15.3916 Y5.7202
G01 X15.4098 Y5.7274
G01 X15.4991 Y5.7593
G01 X15.5180 Y5.7648
G01 X15.6037 Y5.7862
G01 X15.6164 Y5.7891
G01 X15.6293 Y5.7914
G01 X15.7167 Y5.8043
G01 X15.7297 Y5.8059
G01 X15.7427 Y5.8069
G01 X15.8309 Y5.8112
G01 X15.8440 Y5.8115
G01 X18.2440 Y5.8115
G01 X18.2571 Y5.8112
G01 X18.3453 Y5.8069
G01 X18.3583 Y5.8059
G01 X18.3713 Y5.8043
G01 X18.4587 Y5.7914
G01 X18.4716 Y5.7891
G01 X18.4843 Y5.7862
G01 X18.5763 Y5.7631
G01 X18.5950 Y5.7572
G01 X18.6782 Y5.7274
G01 X18.6964 Y5.7202
G01 X18.7881 Y5.6768
G01 X18.7996 Y5.6706
G01 X18.8377 Y5.6479
G01 X18.7971 Y5.7075
G01 X18.7865 Y5.7243
G01 X18.7802 Y5.7359
G01 X18.7744 Y5.7479
G01 X18.7693 Y5.7601
G01 X18.7627 Y5.7788
G01 X18.7591 Y5.7915
G01 X18.7561 Y5.8044
G01 X18.7538 Y5.8175
G01 X18.7521 Y5.8306
G01 X18.7509 Y5.8504
G01 X18.7488 Y5.9280
G01 X18.7491 Y5.9412
G01 X18.7501 Y5.9544
G01 X18.7517 Y5.9676
G01 X18.7539 Y5.9806
G01 X18.7585 Y5.9999
G01 X18.7624 Y6.0126
G01 X18.7669 Y6.0250
G01 X18.7747 Y6.0433
G01 X18.7839 Y6.0609
G01 X18.8240 Y6.1273
G01 X18.8308 Y6.1380
G01 X18.7996 Y6.1194
G01 X18.7881 Y6.1132
G01 X18.6964 Y6.0698
G01 X18.6782 Y6.0626
G01 X18.5889 Y6.0307
G01 X18.5700 Y6.0252
G01 X18.4843 Y6.0038
G01 X18.4716 Y6.0009
G01 X18.4587 Y5.9986
G01 X18.3713 Y5.9857
G01 X18.3583 Y5.9841
G01 X18.3453 Y5.9831
G01 X18.2571 Y5.9788
G01 X18.2440 Y5.9785
G01 X15.8440 Y5.9785
G01 X15.8309 Y5.9788
G01 X15.7427 Y5.9831
G01 X15.7297 Y5.9841
G01 X15.7167 Y5.9857
G01 X15.6293 Y5.9986
G01 X15.6164 Y6.0009
G01 X15.6037 Y6.0038
G01 X15.5117 Y6.0269
G01 X15.4930 Y6.0328
G01 X15.4098 Y6.0626
G01 X15.3916 Y6.0698
G01 X15.2999 Y6.1132
G01 X15.2884 Y6.1194
G01 X15.2495 Y6.1426
G00 Z2.0000
G00 X16.3773 Y8.5569
G01 F60.00
G01 Z-0.1200
G01 F120.00
G01 X16.3693 Y8.5300
G01 X16.3649 Y8.5175
G01 X16.3573 Y8.4992
G01 X16.3514 Y8.4873
G01 X16.3449 Y8.4757
G01 X16.3342 Y8.4590
G01 X16.3222 Y8.4432
G01 X16.3092 Y8.4283
G01 X16.2950 Y8.4143
G01 X16.2364 Y8.3635
G01 X16.2261 Y8.3550
G01 X16.2154 Y8.3470
G01 X16.1987 Y8.3362
G01 X16.1811 Y8.3265
G01 X16.1630 Y8.3183
G01 X16.1446 Y8.3115
G01 X16.3773 Y8.3115
G01 X16.3773 Y8.5569
G00 Z2.0000
G00 X17.9565 Y8.3115
G01 F60.00
G01 Z-0.1200
G01 F120.00
G01 X17.9290 Y8.3197
G01 X17.9165 Y8.3241
G01 X17.9042 Y8.3290
G01 X17.8863 Y8.3376
G01 X17.8747 Y8.3441
G01 X17.8580 Y8.3548
G01 X17.8422 Y8.3668
G01 X17.8273 Y8.3798
G01 X17.8133 Y8.3940
G01 X17.7625 Y8.4526
G01 X17.7540 Y8.4629
G01 X17.7460 Y8.4736
G01 X17.7352 Y8.4903
G01 X17.7255 Y8.5079
G01 X17.7173 Y8.5260
G01 X17.7107 Y8.5438
G01 X17.7107 Y8.3115
G01 X17.9565 Y8.3115
G00 Z2.0000
G00 X16.1321 Y11.2993
G01 F60.00
G01 Z-0.1200
G01 F120.00
G01 X16.1590 Y11.2913
G01 X16.1715 Y11.2869
G01 X16.1898 Y11.2793
G01 X16.2017 Y11.2734
G01 X16.2133 Y11.2669
G01 X16.2300 Y11.2562
G01 X16.2458 Y11.2442
G01 X16.2607 Y11.2312
G01 X16.2747 Y11.2170
G01 X16.3255 Y11.1584
G01 X16.3340 Y11.1481
G01 X16.3420 Y11.1374
G01 X16.3528 Y11.1207
G01 X16.3625 Y11.1031
G01 X16.3707 Y11.0850
G01 X16.3773 Y11.0672
G01 X16.3773 Y11.1233
G01 X16.2013 Y11.2993
G01 X16.1321 Y11.2993
G00 Z2.0000
G00 X13.0099 Y11.2573
G01 F60.00
G01 Z-0.1200
G01 F120.00
G01 X13.0772 Y11.2921
G01 X13.0923 Y11.2993
G01 X13.0410 Y11.2993
G01 X13.0099 Y11.2573
G00 Z2.0000
G00 X12.4092 Y10.6960
G01 F60.00
G01 Z-0.1200
G01 F120.00
G01 X12.4148 Y10.6946
G01 X12.4146 Y10.6974
G01 X12.4092 Y10.6960
G00 Z2.0000
G00 X13.0959 Y12.6327
G01 F60.00
G01 Z-0.1200
G01 F120.00
G01 X13.0689 Y12.6407
G01 X13.0562 Y12.6452
G01 X13.0377 Y12.6530
G01 X13.0187 Y12.6628
G01 X13.0410 Y12.6327
G01 X13.0959 Y12.6327
G00 Z2.0000
G00 X12.8531 Y12.8423
G01 F60.00
G01 Z-0.1200
G01 F120.00
G01 X12.8239 Y12.9063
G01 X12.8169 Y12.9246
G01 X12.8129 Y12.9370
G01 X12.8082 Y12.9560
G01 X12.8048 Y12.9753
G01 X12.8029 Y12.9948
G01 X12.8024 Y13.0078
G01 X12.8025 Y13.0202
G01 X12.7954 Y13.0023
G01 X12.7730 Y12.9550
G01 X12.7668 Y12.9435
G01 X12.7534 Y12.9209
G01 X12.8194 Y12.8718
G01 X12.8295 Y12.8635
G01 X12.8531 Y12.8423
G00 Z2.0000
G00 X11.5153 Y13.5694
G01 F60.00
G01 Z-0.1200
G01 F120.00
G01 X11.5073 Y13.5425
G01 X11.5012 Y13.5256
G01 X11.5153 Y13.5397
G01 X11.5153 Y13.5694
G00 Z2.0000
G00 X11.1293 Y13.1537
G01 F60.00
G01 Z-0.1200
G01 F120.00
G01 X11.1047 Y13.1404
G01 X11.0880 Y13.1325
G01 X11.1081 Y13.1325
G01 X11.1293 Y13.1537
G00 Z2.0000
G00 X11.2695 Y15.8210
G01 F60.00
G01 Z-0.1200
G01 F120.00
G01 X11.2970 Y15.8128
G01 X11.3095 Y15.8084
G01 X11.3278 Y15.8008
G01 X11.3397 Y15.7949
G01 X11.3569 Y15.7850
G01 X11.3734 Y15.7738
G01 X11.3889 Y15.7615
G01 X11.3987 Y15.7527
G01 X11.4127 Y15.7385
G01 X11.4635 Y15.6799
G01 X11.4720 Y15.6696
G01 X11.4800 Y15.6589
G01 X11.4908 Y15.6422
G01 X11.5005 Y15.6246
G01 X11.5087 Y15.6065
G01 X11.5153 Y15.5887
G01 X11.5153 Y15.8210
G01 X11.2695 Y15.8210
G00 Z2.0000
G00 X10.0683 Y16.2207
G01 F60.00
G01 Z-0.1200
G01 F120.00
G01 X10.1011 Y16.2107
G01 X10.1197 Y16.2035
G01 X10.1041 Y16.2207
G01 X10.0683 Y16.2207
G00 Z2.0000
G00 X10.1249 Y17.7772
G01 F60.00
G01 Z-0.1200
G01 F120.00
G01 X10.0942 Y17.7614
G01 X10.0792 Y17.7543
G01 X10.1041 Y17.7543
G01 X10.1249 Y17.7772
G00 Z2.0000
G00 X10.6573 Y18.2575
G01 F60.00
G01 Z-0.1200
G01 F120.00
G01 X10.6522 Y18.2588
G01 X10.6523 Y18.2562
G01 X10.6573 Y18.2575
G00 Z2.0000
G00 X8.7551 Y17.7543
G01 F60.00
G01 Z-0.1200
G01 F120.00
G01 X8.7285 Y17.7622
G01 X8.7117 Y17.7682
G01 X8.7256 Y17.7543
G01 X8.7551 Y17.7543
G00 Z2.0000
G00 X7.4176 Y19.0623
G01 F60.00
G01 Z-0.1200
G01 F120.00
G01 X7.4044 Y19.0867
G01 X7.3968 Y19.1028
G01 X7.3968 Y19.0831
G01 X7.4176 Y19.0623
G00 Z2.0000
G00 X6.0087 Y18.7596
G01 F60.00
G01 Z-0.1200
G01 F120.00
G01 X6.0116 Y18.7046
G01 X6.0205 Y18.6443
G01 X6.0354 Y18.5851
G01 X6.0559 Y18.5277
G01 X6.0820 Y18.4726
G01 X6.1133 Y18.4203
G01 X6.1497 Y18.3713
G01 X6.1865 Y18.3304
G01 X7.9686 Y16.5481
G01 X8.0138 Y16.5072
G01 X8.0579 Y16.4742
G01 X8.0678 Y16.4676
G01 X8.1099 Y16.4424
G01 X8.1177 Y16.4381
G01 X8.1702 Y16.4134
G01 X8.2220 Y16.3947
G01 X8.2333 Y16.3913
G01 X8.2868 Y16.3780
G01 X8.3412 Y16.3698
G01 X8.3530 Y16.3687
G01 X8.4050 Y16.3661
G01 X10.1729 Y16.3661
G01 X10.1946 Y16.3374
G01 X10.2558 Y16.2697
G01 X10.2621 Y16.2634
G01 X10.3342 Y16.1981
G01 X10.4122 Y16.1401
G01 X10.4197 Y16.1353
G01 X10.4955 Y16.0899
G01 X10.5059 Y16.0843
G01 X10.5912 Y16.0441
G01 X10.6799 Y16.0122
G01 X10.6884 Y16.0095
G01 X10.7770 Y15.9873
G01 X10.7886 Y15.9850
G01 X10.8819 Y15.9713
G01 X10.9761 Y15.9665
G01 X11.6606 Y15.9664
G01 X11.6606 Y13.4795
G01 X11.1683 Y12.9871
G01 X9.6845 Y12.9871
G01 X9.5844 Y12.9822
G01 X9.4911 Y12.9685
G01 X9.4795 Y12.9662
G01 X9.3881 Y12.9432
G01 X9.2937 Y12.9094
G01 X9.2031 Y12.8666
G01 X9.1222 Y12.8182
G01 X9.1123 Y12.8116
G01 X9.0367 Y12.7554
G01 X8.9624 Y12.6881
G01 X8.8951 Y12.6138
G01 X8.8354 Y12.5333
G01 X8.7869 Y12.4525
G01 X8.7813 Y12.4421
G01 X8.7411 Y12.3568
G01 X8.7092 Y12.2681
G01 X8.7057 Y12.2567
G01 X8.6830 Y12.1652
G01 X8.6690 Y12.0720
G01 X8.6678 Y12.0602
G01 X8.6635 Y11.9719
G01 X8.6635 Y11.9601
G01 X8.6683 Y11.8659
G01 X8.6830 Y11.7668
G01 X8.7073 Y11.6696
G01 X8.7411 Y11.5752
G01 X8.7839 Y11.4846
G01 X8.8354 Y11.3987
G01 X8.8951 Y11.3182
G01 X8.9583 Y11.2482
G01 X8.9646 Y11.2419
G01 X9.0367 Y11.1766
G01 X9.1172 Y11.1169
G01 X9.2031 Y11.0654
G01 X9.2883 Y11.0250
G01 X9.2993 Y11.0204
G01 X9.3824 Y10.9907
G01 X9.3938 Y10.9872
G01 X9.4853 Y10.9645
G01 X9.5844 Y10.9498
G01 X9.6845 Y10.9449
G01 X12.0875 Y10.9449
G01 X12.1787 Y10.9493
G01 X12.1905 Y10.9505
G01 X12.2837 Y10.9645
G01 X12.3752 Y10.9872
G01 X12.3866 Y10.9907
G01 X12.4753 Y11.0226
G01 X12.5606 Y11.0628
G01 X12.5685 Y11.0669
G01 X12.6518 Y11.1169
G01 X12.7276 Y11.1730
G01 X12.7368 Y11.1805
G01 X12.8044 Y11.2419
G01 X12.8107 Y11.2482
G01 X12.8700 Y11.3137
G01 X12.8757 Y11.3205
G01 X12.9319 Y11.3962
G01 X12.9367 Y11.4037
G01 X12.9613 Y11.4446
G01 X16.2615 Y11.4446
G01 X16.5226 Y11.1835
G01 X16.5226 Y8.1661
G01 X15.8410 Y8.1661
G01 X15.7439 Y8.1612
G01 X15.6506 Y8.1475
G01 X15.6419 Y8.1459
G01 X15.5476 Y8.1222
G01 X15.4588 Y8.0906
G01 X15.4478 Y8.0860
G01 X15.3626 Y8.0456
G01 X15.2817 Y7.9972
G01 X15.2718 Y7.9906
G01 X15.1962 Y7.9344
G01 X15.1241 Y7.8691
G01 X15.1178 Y7.8628
G01 X15.0585 Y7.7973
G01 X15.0510 Y7.7881
G01 X14.9949 Y7.7123
G01 X14.9434 Y7.6264
G01 X14.9006 Y7.5358
G01 X14.8687 Y7.4471
G01 X14.8652 Y7.4357
G01 X14.8438 Y7.3500
G01 X14.8415 Y7.3384
G01 X14.8278 Y7.2451
G01 X14.8229 Y7.1450
G01 X14.8278 Y7.0449
G01 X14.8415 Y6.9516
G01 X14.8438 Y6.9400
G01 X14.8652 Y6.8543
G01 X14.8687 Y6.8429
G01 X14.9006 Y6.7542
G01 X14.9434 Y6.6636
G01 X14.9918 Y6.5827
G01 X14.9984 Y6.5728
G01 X15.0546 Y6.4972
G01 X15.1178 Y6.4272
G01 X15.1262 Y6.4188
G01 X15.1962 Y6.3556
G01 X15.2767 Y6.2959
G01 X15.3575 Y6.2474
G01 X15.3679 Y6.2418
G01 X15.4532 Y6.2016
G01 X15.5419 Y6.1697
G01 X15.5533 Y6.1662
G01 X15.6448 Y6.1435
G01 X15.7380 Y6.1295
G01 X15.7498 Y6.1283
G01 X15.8440 Y6.1239
G01 X18.2440 Y6.1239
G01 X18.3441 Y6.1288
G01 X18.4432 Y6.1435
G01 X18.5404 Y6.1678
G01 X18.6348 Y6.2016
G01 X18.7201 Y6.2418
G01 X18.7305 Y6.2474
G01 X18.8063 Y6.2928
G01 X18.8162 Y6.2994
G01 X18.8918 Y6.3556
G01 X18.9618 Y6.4188
G01 X18.9681 Y6.4251
G01 X19.0334 Y6.4972
G01 X19.0931 Y6.5777
G01 X19.1446 Y6.6636
G01 X19.1874 Y6.7542
G01 X19.2212 Y6.8486
G01 X19.2455 Y6.9458
G01 X19.2602 Y7.0449
G01 X19.2650 Y7.1391
G01 X19.2650 Y7.1509
G01 X19.2607 Y7.2392
G01 X19.2595 Y7.2510
G01 X19.2455 Y7.3442
G01 X19.2228 Y7.4357
G01 X19.2193 Y7.4471
G01 X19.1874 Y7.5358
G01 X19.1446 Y7.6264
G01 X19.0931 Y7.7123
G01 X19.0334 Y7.7928
G01 X18.9661 Y7.8671
G01 X18.8963 Y7.9305
G01 X18.8871 Y7.9380
G01 X18.8113 Y7.9941
G01 X18.7254 Y8.0456
G01 X18.6402 Y8.0860
G01 X18.6292 Y8.0906
G01 X18.5461 Y8.1203
G01 X18.5347 Y8.1238
G01 X18.4432 Y8.1465
G01 X18.3500 Y8.1605
G01 X18.3382 Y8.1617
G01 X18.2499 Y8.1660
G01 X17.5654 Y8.1661
G01 X17.5652 Y11.4054
G01 X17.5628 Y11.4506
G01 X17.5553 Y11.5012
G01 X17.5429 Y11.5508
G01 X17.5257 Y11.5990
G01 X17.5038 Y11.6453
G01 X17.4775 Y11.6891
G01 X17.4470 Y11.7302
G01 X17.4127 Y11.7682
G01 X16.8462 Y12.3347
G01 X16.8105 Y12.3671
G01 X16.8036 Y12.3727
G01 X16.7671 Y12.3995
G01 X16.7284 Y12.4229
G01 X16.7180 Y12.4285
G01 X16.6770 Y12.4477
G01 X16.6345 Y12.4630
G01 X16.6231 Y12.4665
G01 X16.5821 Y12.4767
G01 X16.5734 Y12.4783
G01 X16.5286 Y12.4848
G01 X16.4775 Y12.4874
G01 X12.9613 Y12.4874
G01 X12.9367 Y12.5283
G01 X12.9319 Y12.5358
G01 X12.8757 Y12.6115
G01 X12.8700 Y12.6183
G01 X12.8107 Y12.6838
G01 X12.8023 Y12.6922
G01 X12.7323 Y12.7554
G01 X12.6543 Y12.8134
G01 X12.6468 Y12.8182
G01 X12.5685 Y12.8651
G01 X12.5364 Y12.8806
G01 X12.5548 Y12.8992
G01 X12.5811 Y12.9283
G01 X12.5869 Y12.9351
G01 X12.6155 Y12.9739
G01 X12.6389 Y13.0126
G01 X12.6432 Y13.0204
G01 X12.6637 Y13.0640
G01 X12.6809 Y13.1122
G01 X12.6933 Y13.1618
G01 X12.7001 Y13.2065
G01 X12.7013 Y13.2183
G01 X12.7034 Y13.2635
G01 X12.7034 Y15.9664
G01 X13.3879 Y15.9665
G01 X13.4762 Y15.9708
G01 X13.4880 Y15.9720
G01 X13.5812 Y15.9860
G01 X13.6727 Y16.0087
G01 X13.6841 Y16.0122
G01 X13.7672 Y16.0419
G01 X13.7782 Y16.0465
G01 X13.8634 Y16.0869
G01 X13.9493 Y16.1384
G01 X14.0251 Y16.1945
G01 X14.0343 Y16.2020
G01 X14.1041 Y16.2654
G01 X14.1714 Y16.3397
G01 X14.2311 Y16.4202
G01 X14.2826 Y16.5061
G01 X14.3254 Y16.5967
G01 X14.3573 Y16.6854
G01 X14.3608 Y16.6968
G01 X14.3835 Y16.7883
G01 X14.3975 Y16.8815
G01 X14.3987 Y16.8933
G01 X14.4030 Y16.9816
G01 X14.4030 Y16.9934
G01 X14.3982 Y17.0876
G01 X14.3835 Y17.1867
G01 X14.3592 Y17.2839
G01 X14.3254 Y17.3783
G01 X14.2826 Y17.4689
G01 X14.2311 Y17.5548
G01 X14.1714 Y17.6353
G01 X14.1061 Y17.7074
G01 X14.0998 Y17.7137
G01 X14.0298 Y17.7769
G01 X13.9542 Y17.8331
G01 X13.9443 Y17.8397
G01 X13.8685 Y17.8851
G01 X13.8581 Y17.8907
G01 X13.7728 Y17.9309
G01 X13.6784 Y17.9647
G01 X13.5812 Y17.9890
G01 X13.4821 Y18.0037
G01 X13.3820 Y18.0086
G01 X10.9790 Y18.0086
G01 X10.8819 Y18.0037
G01 X10.7886 Y17.9900
G01 X10.7770 Y17.9877
G01 X10.6856 Y17.9647
G01 X10.5968 Y17.9331
G01 X10.5858 Y17.9285
G01 X10.5033 Y17.8894
G01 X10.4955 Y17.8851
G01 X10.4147 Y17.8366
G01 X10.3389 Y17.7805
G01 X10.3319 Y17.7749
G01 X10.2642 Y17.7137
G01 X10.2579 Y17.7074
G01 X10.1946 Y17.6376
G01 X10.1729 Y17.6089
G01 X8.6654 Y17.6089
G01 X7.2514 Y19.0229
G01 X7.2514 Y37.1941
G01 X11.6414 Y37.1941
G01 X11.6414 Y36.6155
G01 X11.6458 Y36.5213
G01 X11.6466 Y36.5125
G01 X11.6610 Y36.4163
G01 X11.6853 Y36.3191
G01 X11.7191 Y36.2247
G01 X11.7593 Y36.1394
G01 X11.7634 Y36.1315
G01 X11.8103 Y36.0532
G01 X11.8169 Y36.0433
G01 X11.8731 Y35.9677
G01 X11.9363 Y35.8977
G01 X11.9447 Y35.8893
G01 X12.0147 Y35.8261
G01 X12.0952 Y35.7664
G01 X12.1760 Y35.7179
G01 X12.1864 Y35.7123
G01 X12.2717 Y35.6721
G01 X12.3604 Y35.6402
G01 X12.3718 Y35.6367
G01 X12.4633 Y35.6140
G01 X12.5624 Y35.5993
G01 X12.6625 Y35.5944
G01 X12.7626 Y35.5993
G01 X12.8617 Y35.6140
G01 X12.9589 Y35.6383
G01 X13.0533 Y35.6721
G01 X13.1439 Y35.7149
G01 X13.2298 Y35.7664
G01 X13.3056 Y35.8225
G01 X13.3148 Y35.8300
G01 X13.3846 Y35.8934
G01 X13.4480 Y35.9632
G01 X13.4555 Y35.9724
G01 X13.5081 Y36.0433
G01 X13.5147 Y36.0532
G01 X13.5631 Y36.1341
G01 X13.6035 Y36.2193
G01 X13.6081 Y36.2303
G01 X13.6397 Y36.3191
G01 X13.6640 Y36.4163
G01 X13.6787 Y36.5154
G01 X13.6836 Y36.6155
G01 X13.6836 Y39.0155
G01 X13.6787 Y39.1156
G01 X13.6650 Y39.2089
G01 X13.6634 Y39.2176
G01 X13.6397 Y39.3119
G01 X13.6081 Y39.4007
G01 X13.6035 Y39.4117
G01 X13.5631 Y39.4969
G01 X13.5147 Y39.5778
G01 X13.5081 Y39.5877
G01 X13.4519 Y39.6633
G01 X13.3887 Y39.7333
G01 X13.3803 Y39.7417
G01 X13.3103 Y39.8049
G01 X13.2347 Y39.8611
G01 X13.2248 Y39.8677
G01 X13.1439 Y39.9161
G01 X13.0587 Y39.9565
G01 X13.0477 Y39.9611
G01 X12.9646 Y39.9908
G01 X12.9561 Y39.9935
G01 X12.8617 Y40.0170
G01 X12.7685 Y40.0310
G01 X12.7567 Y40.0322
G01 X12.6625 Y40.0366
G01 X12.5683 Y40.0322
G01 X12.5565 Y40.0310
G01 X12.4633 Y40.0170
G01 X12.3661 Y39.9927
G01 X12.2717 Y39.9589
G01 X12.1864 Y39.9187
G01 X12.1760 Y39.9131
G01 X12.0952 Y39.8646
G01 X12.0194 Y39.8085
G01 X12.0102 Y39.8010
G01 X11.9404 Y39.7376
G01 X11.8751 Y39.6656
G01 X11.8695 Y39.6586
G01 X11.8134 Y39.5828
G01 X11.7649 Y39.5020
G01 X11.7593 Y39.4916
G01 X11.7191 Y39.4063
G01 X11.6872 Y39.3176
G01 X11.6837 Y39.3062
G01 X11.6610 Y39.2147
G01 X11.6463 Y39.1156
G01 X11.6414 Y39.0185
G01 X11.6414 Y38.4369
G01 X7.2514 Y38.4369
G01 X7.2514 Y56.2271
G01 X7.3954 Y56.3711
G01 X27.7891 Y56.3711
G01 X27.7891 Y52.5826
G01 X27.7796 Y52.5825
G01 X27.7491 Y52.5809
G01 X27.7131 Y52.5755
G01 X27.6778 Y52.5667
G01 X27.6435 Y52.5544
G01 X27.6105 Y52.5388
G01 X27.5793 Y52.5201
G01 X27.5500 Y52.4984
G01 X27.5231 Y52.4739
G01 X27.4986 Y52.4470
G01 X27.4769 Y52.4177
G01 X27.4582 Y52.3865
G01 X27.4426 Y52.3535
G01 X27.4303 Y52.3192
G01 X27.4215 Y52.2839
G01 X27.4161 Y52.2479
G01 X27.4144 Y52.2115
G01 X27.4144 Y51.4085
G01 X27.4161 Y51.3751
G01 X27.4205 Y51.3450
G01 X27.4228 Y51.3333
G01 X27.4312 Y51.3009
G01 X27.4426 Y51.2695
G01 X27.4568 Y51.2392
G01 X27.4737 Y51.2103
G01 X27.4803 Y51.2004
G01 X27.4986 Y51.1760
G01 X27.5231 Y51.1491
G01 X27.5500 Y51.1246
G01 X27.5744 Y51.1063
G01 X27.5818 Y51.1013
G01 X27.6054 Y51.0871
G01 X27.6159 Y51.0815
G01 X27.6435 Y51.0686
G01 X27.6778 Y51.0563
G01 X27.7131 Y51.0475
G01 X27.7432 Y51.0429
G01 X27.7551 Y51.0417
G01 X27.7855 Y51.0404
G01 X29.0355 Y51.0404
G01 X29.0719 Y51.0421
G01 X29.1050 Y51.0469
G01 X29.1375 Y51.0547
G01 X29.1489 Y51.0582
G01 X29.1775 Y51.0686
G01 X29.2105 Y51.0842
G01 X29.2417 Y51.1029
G01 X29.2663 Y51.1209
G01 X29.2755 Y51.1285
G01 X29.2979 Y51.1491
G01 X29.3185 Y51.1715
G01 X29.3261 Y51.1807
G01 X29.3441 Y51.2053
G01 X29.3628 Y51.2365
G01 X29.3760 Y51.2640
G01 X29.3805 Y51.2750
G01 X29.3907 Y51.3038
G01 X29.3989 Y51.3362
G01 X29.4005 Y51.3450
G01 X29.4049 Y51.3751
G01 X29.4066 Y51.4115
G01 X29.4066 Y52.2115
G01 X29.4053 Y52.2419
G01 X29.4041 Y52.2538
G01 X29.3995 Y52.2839
G01 X29.3907 Y52.3192
G01 X29.3784 Y52.3535
G01 X29.3655 Y52.3811
G01 X29.3599 Y52.3916
G01 X29.3457 Y52.4152
G01 X29.3407 Y52.4226
G01 X29.3224 Y52.4470
G01 X29.2979 Y52.4739
G01 X29.2710 Y52.4984
G01 X29.2466 Y52.5167
G01 X29.2392 Y52.5217
G01 X29.2156 Y52.5359
G01 X29.2051 Y52.5415
G01 X29.1775 Y52.5544
G01 X29.1432 Y52.5667
G01 X29.1079 Y52.5755
G01 X29.0778 Y52.5801
G01 X29.0659 Y52.5813
G01 X29.0319 Y52.5826
G01 X29.0319 Y56.3711
G01 X63.7766 Y56.3711
G01 X65.1126 Y55.0351
G01 X65.1126 Y51.5756
G01 X64.5340 Y51.5756
G01 X64.4398 Y51.5712
G01 X64.4280 Y51.5700
G01 X64.3348 Y51.5560
G01 X64.2404 Y51.5325
G01 X64.2319 Y51.5298
G01 X64.1488 Y51.5001
G01 X64.1378 Y51.4955
G01 X64.0526 Y51.4551
G01 X63.9667 Y51.4036
G01 X63.8909 Y51.3475
G01 X63.8817 Y51.3400
G01 X63.8119 Y51.2766
G01 X63.7485 Y51.2068
G01 X63.7410 Y51.1976
G01 X63.6884 Y51.1267
G01 X63.6818 Y51.1168
G01 X63.6334 Y51.0359
G01 X63.5906 Y50.9453
G01 X63.5568 Y50.8509
G01 X63.5338 Y50.7595
G01 X63.5315 Y50.7479
G01 X63.5185 Y50.6605
G01 X63.5173 Y50.6487
G01 X63.5129 Y50.5545
G01 X63.5178 Y50.4544
G01 X63.5325 Y50.3553
G01 X63.5552 Y50.2638
G01 X63.5587 Y50.2524
G01 X63.5884 Y50.1693
G01 X63.5930 Y50.1583
G01 X63.6334 Y50.0731
G01 X63.6849 Y49.9872
G01 X63.7410 Y49.9114
G01 X63.7485 Y49.9022
G01 X63.8119 Y49.8324
G01 X63.8817 Y49.7690
G01 X63.8909 Y49.7615
G01 X63.9667 Y49.7054
G01 X64.0526 Y49.6539
G01 X64.1432 Y49.6111
G01 X64.2319 Y49.5792
G01 X64.2433 Y49.5757
G01 X64.3348 Y49.5530
G01 X64.4280 Y49.5390
G01 X64.4398 Y49.5378
G01 X64.5340 Y49.5334
G01 X66.9340 Y49.5334
G01 X67.0282 Y49.5378
G01 X67.0370 Y49.5386
G01 X67.1332 Y49.5530
G01 X67.2304 Y49.5773
G01 X67.3248 Y49.6111
G01 X67.4101 Y49.6513
G01 X67.4180 Y49.6554
G01 X67.5013 Y49.7054
G01 X67.5771 Y49.7615
G01 X67.5841 Y49.7671
G01 X67.6518 Y49.8283
G01 X67.6581 Y49.8346
G01 X67.7214 Y49.9044
G01 X67.7431 Y49.9331
G01 X71.4211 Y49.9331
G01 X73.4354 Y47.9189
G01 X73.4354 Y47.1320
G01 X73.4369 Y47.1016
G01 X73.4379 Y47.0927
G01 X73.4425 Y47.0626
G01 X73.4505 Y47.0301
G01 X73.4615 Y46.9985
G01 X73.4660 Y46.9875
G01 X73.4792 Y46.9600
G01 X73.4979 Y46.9288
G01 X73.5159 Y46.9042
G01 X73.5235 Y46.8950
G01 X73.5441 Y46.8726
G01 X73.5688 Y46.8500
G01 X73.5954 Y46.8298
G01 X73.6053 Y46.8232
G01 X73.6315 Y46.8077
G01 X73.6617 Y46.7933
G01 X73.6931 Y46.7817
G01 X73.7016 Y46.7790
G01 X73.7341 Y46.7710
G01 X73.7631 Y46.7665
G01 X73.7631 Y41.3114
G01 X72.4761 Y40.0244
G01 X64.8565 Y40.0244
G01 X64.7986 Y40.0214
G01 X64.7383 Y40.0125
G01 X64.6791 Y39.9976
G01 X64.6272 Y39.9792
G01 X64.6163 Y39.9747
G01 X64.5719 Y39.9537
G01 X64.5614 Y39.9481
G01 X64.5143 Y39.9197
G01 X64.4653 Y39.8833
G01 X64.4201 Y39.8424
G01 X62.4516 Y37.8739
G01 X62.4107 Y37.8287
G01 X62.3777 Y37.7846
G01 X62.3727 Y37.7772
G01 X62.3459 Y37.7326
G01 X62.3403 Y37.7221
G01 X62.3169 Y37.6723
G01 X62.2982 Y37.6205
G01 X62.2948 Y37.6092
G01 X62.2815 Y37.5557
G01 X62.2733 Y37.5013
G01 X62.2723 Y37.4924
G01 X62.2696 Y37.4345
G01 X62.2696 Y36.4951
G01 X62.2409 Y36.4734
G01 X62.1732 Y36.4122
G01 X62.1669 Y36.4059
G01 X62.1016 Y36.3338
G01 X62.0454 Y36.2582
G01 X62.0403 Y36.2508
G01 X61.9904 Y36.1674
G01 X61.9476 Y36.0768
G01 X61.9138 Y35.9824
G01 X61.8901 Y35.8881
G01 X61.8885 Y35.8794
G01 X61.8748 Y35.7861
G01 X61.8699 Y35.6860
G01 X61.8699 Y33.2860
G01 X61.8748 Y33.1859
G01 X61.8885 Y33.0926
G01 X61.8908 Y33.0810
G01 X61.9138 Y32.9896
G01 X61.9476 Y32.8952
G01 X61.9904 Y32.8046
G01 X62.0388 Y32.7237
G01 X62.0454 Y32.7138
G01 X62.0980 Y32.6429
G01 X62.1055 Y32.6337
G01 X62.1689 Y32.5639
G01 X62.2387 Y32.5005
G01 X62.2479 Y32.4930
G01 X62.3188 Y32.4404
G01 X62.3287 Y32.4338
G01 X62.4096 Y32.3854
G01 X62.5002 Y32.3426
G01 X62.5889 Y32.3107
G01 X62.6003 Y32.3072
G01 X62.6918 Y32.2845
G01 X62.7880 Y32.2701
G01 X62.7968 Y32.2693
G01 X62.8910 Y32.2649
G01 X62.9911 Y32.2698
G01 X63.0902 Y32.2845
G01 X63.1874 Y32.3088
G01 X63.2818 Y32.3426
G01 X63.3724 Y32.3854
G01 X63.4583 Y32.4369
G01 X63.5388 Y32.4966
G01 X63.6131 Y32.5639
G01 X63.6804 Y32.6382
G01 X63.7401 Y32.7187
G01 X63.7916 Y32.8046
G01 X63.8344 Y32.8952
G01 X63.8682 Y32.9896
G01 X63.8925 Y33.0868
G01 X63.9065 Y33.1800
G01 X63.9077 Y33.1918
G01 X63.9121 Y33.2860
G01 X63.9121 Y35.6860
G01 X63.9072 Y35.7861
G01 X63.8925 Y35.8852
G01 X63.8682 Y35.9824
G01 X63.8344 Y36.0768
G01 X63.7942 Y36.1621
G01 X63.7901 Y36.1700
G01 X63.7401 Y36.2533
G01 X63.6840 Y36.3291
G01 X63.6784 Y36.3361
G01 X63.6172 Y36.4038
G01 X63.6109 Y36.4101
G01 X63.5411 Y36.4734
G01 X63.5124 Y36.4951
G01 X63.5124 Y37.1771
G01 X65.1169 Y38.7816
G01 X72.7335 Y38.7816
G01 X72.7944 Y38.7846
G01 X72.8547 Y38.7935
G01 X72.9139 Y38.8084
G01 X72.9658 Y38.8268
G01 X72.9767 Y38.8313
G01 X73.0264 Y38.8550
G01 X73.0737 Y38.8831
G01 X73.0836 Y38.8897
G01 X73.1277 Y38.9227
G01 X73.1708 Y38.9615
G01 X74.8239 Y40.6146
G01 X74.8610 Y40.6553
G01 X74.8685 Y40.6645
G01 X74.9012 Y40.7088
G01 X74.9325 Y40.7611
G01 X74.9586 Y40.8162
G01 X74.9773 Y40.8680
G01 X74.9807 Y40.8793
G01 X74.9927 Y40.9270
G01 X74.9950 Y40.9386
G01 X75.0029 Y40.9931
G01 X75.0059 Y41.0510
G01 X75.0059 Y47.8485
G01 X75.0033 Y47.9035
G01 X75.0026 Y47.9117
G01 X75.0025 Y48.4409
G01 X75.0009 Y48.4714
G01 X74.9955 Y48.5074
G01 X74.9867 Y48.5427
G01 X74.9765 Y48.5715
G01 X74.9732 Y48.5798
G01 X74.9615 Y48.6046
G01 X74.9574 Y48.6126
G01 X74.9417 Y48.6387
G01 X74.9367 Y48.6461
G01 X74.9203 Y48.6681
G01 X74.9145 Y48.6750
G01 X74.8939 Y48.6974
G01 X74.8715 Y48.7180
G01 X74.8646 Y48.7238
G01 X74.8402 Y48.7419
G01 X74.8327 Y48.7468
G01 X74.8091 Y48.7609
G01 X74.8011 Y48.7650
G01 X74.7735 Y48.7779
G01 X74.7421 Y48.7893
G01 X74.7097 Y48.7977
G01 X74.6980 Y48.8000
G01 X74.6679 Y48.8044
G01 X74.6374 Y48.8060
G01 X74.3056 Y48.8061
G01 X72.1158 Y50.9960
G01 X72.0727 Y51.0348
G01 X72.0286 Y51.0678
G01 X72.0187 Y51.0744
G01 X71.9714 Y51.1025
G01 X71.9217 Y51.1262
G01 X71.9108 Y51.1307
G01 X71.8645 Y51.1473
G01 X71.8532 Y51.1507
G01 X71.8055 Y51.1627
G01 X71.7939 Y51.1650
G01 X71.7394 Y51.1729
G01 X71.6785 Y51.1759
G01 X67.7431 Y51.1759
G01 X67.7214 Y51.2046
G01 X67.6602 Y51.2723
G01 X67.6539 Y51.2786
G01 X67.5818 Y51.3439
G01 X67.5038 Y51.4019
G01 X67.4963 Y51.4067
G01 X67.4205 Y51.4521
G01 X67.4101 Y51.4577
G01 X67.3248 Y51.4979
G01 X67.2361 Y51.5298
G01 X67.2276 Y51.5325
G01 X67.1332 Y51.5560
G01 X67.0400 Y51.5700
G01 X67.0282 Y51.5712
G01 X66.9340 Y51.5756
G01 X66.3554 Y51.5756
G01 X66.3554 Y55.2925
G01 X66.3524 Y55.3534
G01 X66.3435 Y55.4137
G01 X66.3286 Y55.4729
G01 X66.3092 Y55.5275
G01 X66.3057 Y55.5357
G01 X66.2820 Y55.5854
G01 X66.2507 Y55.6377
G01 X66.2143 Y55.6867
G01 X66.1755 Y55.7298
G01 X64.4713 Y57.4340
G01 X64.4282 Y57.4728
G01 X64.3841 Y57.5058
G01 X64.3742 Y57.5124
G01 X64.3321 Y57.5376
G01 X64.3216 Y57.5432
G01 X64.2718 Y57.5666
G01 X64.2144 Y57.5871
G01 X64.1552 Y57.6020
G01 X64.0979 Y57.6106
G01 X64.0890 Y57.6113
G01 X64.0340 Y57.6139
G01 X7.1380 Y57.6139
G01 X7.0771 Y57.6109
G01 X7.0168 Y57.6020
G01 X6.9576 Y57.5871
G01 X6.9057 Y57.5687
G01 X6.8975 Y57.5654
G01 X6.8451 Y57.5405
G01 X6.7928 Y57.5092
G01 X6.7438 Y57.4728
G01 X6.7029 Y57.4360
G01 X6.1906 Y56.9239
G01 X6.1497 Y56.8787
G01 X6.1133 Y56.8297
G01 X6.0849 Y56.7826
G01 X6.0793 Y56.7721
G01 X6.0583 Y56.7277
G01 X6.0538 Y56.7168
G01 X6.0354 Y56.6649
G01 X6.0205 Y56.6057
G01 X6.0116 Y56.5454
G01 X6.0086 Y56.4875
G01 X6.0087 Y18.7596
G00 Z2.0000
G00 X10.6573 Y20.7975
G01 F60.00
G01 Z-0.1200
G01 F120.00
G01 X10.6521 Y20.7988
G01 X10.6523 Y20.7962
G01 X10.6573 Y20.7975
G00 Z2.0000
G00 X9.9665 Y21.9615
G01 F60.00
G01 Z-0.1200
G01 F120.00
G01 X9.9805 Y21.8683
G01 X10.0048 Y21.7711
G01 X10.0386 Y21.6767
G01 X10.0788 Y21.5914
G01 X10.0844 Y21.5810
G01 X10.1298 Y21.5052
G01 X10.1364 Y21.4953
G01 X10.1926 Y21.4197
G01 X10.2599 Y21.3454
G01 X10.3342 Y21.2781
G01 X10.4098 Y21.2219
G01 X10.4197 Y21.2153
G01 X10.4955 Y21.1699
G01 X10.5059 Y21.1643
G01 X10.5912 Y21.1241
G01 X10.6856 Y21.0903
G01 X10.7828 Y21.0660
G01 X10.8819 Y21.0513
G01 X10.9820 Y21.0464
G01 X13.3820 Y21.0464
G01 X13.4821 Y21.0513
G01 X13.5783 Y21.0654
G01 X13.5870 Y21.0673
G01 X13.6784 Y21.0903
G01 X13.7672 Y21.1219
G01 X13.7782 Y21.1265
G01 X13.8634 Y21.1669
G01 X13.9443 Y21.2153
G01 X13.9542 Y21.2219
G01 X14.0275 Y21.2763
G01 X14.0343 Y21.2820
G01 X14.1041 Y21.3454
G01 X14.1675 Y21.4152
G01 X14.1732 Y21.4220
G01 X14.2276 Y21.4953
G01 X14.2327 Y21.5027
G01 X14.2811 Y21.5835
G01 X14.2852 Y21.5914
G01 X14.2993 Y21.6212
G01 X15.4036 Y21.6212
G01 X15.4140 Y21.5915
G01 X15.4185 Y21.5805
G01 X15.4317 Y21.5530
G01 X15.4504 Y21.5218
G01 X15.4721 Y21.4925
G01 X15.4925 Y21.4699
G01 X15.4987 Y21.4635
G01 X15.5190 Y21.4450
G01 X15.5282 Y21.4374
G01 X15.5528 Y21.4194
G01 X15.5840 Y21.4007
G01 X15.6170 Y21.3851
G01 X15.6456 Y21.3747
G01 X15.6570 Y21.3712
G01 X15.6837 Y21.3646
G01 X15.6925 Y21.3630
G01 X15.7226 Y21.3586
G01 X15.7590 Y21.3569
G01 X17.0590 Y21.3569
G01 X17.0954 Y21.3586
G01 X17.1255 Y21.3630
G01 X17.1372 Y21.3653
G01 X17.1667 Y21.3728
G01 X17.1955 Y21.3830
G01 X17.2065 Y21.3875
G01 X17.2340 Y21.4007
G01 X17.2602 Y21.4162
G01 X17.2701 Y21.4228
G01 X17.2967 Y21.4430
G01 X17.3214 Y21.4656
G01 X17.3420 Y21.4880
G01 X17.3478 Y21.4949
G01 X17.3659 Y21.5193
G01 X17.3834 Y21.5479
G01 X17.3877 Y21.5557
G01 X17.4019 Y21.5860
G01 X17.4095 Y21.6067
G01 X18.9144 Y21.6067
G01 X18.9401 Y21.5352
G01 X18.9829 Y21.4446
G01 X19.0344 Y21.3587
G01 X19.0905 Y21.2829
G01 X19.0980 Y21.2737
G01 X19.1573 Y21.2082
G01 X19.1657 Y21.1998
G01 X19.2357 Y21.1366
G01 X19.3113 Y21.0804
G01 X19.3212 Y21.0738
G01 X19.3970 Y21.0284
G01 X19.4074 Y21.0228
G01 X19.4927 Y20.9826
G01 X19.5871 Y20.9488
G01 X19.6843 Y20.9245
G01 X19.7775 Y20.9105
G01 X19.7893 Y20.9093
G01 X19.8835 Y20.9049
