(G-CODE GENERATED BY FLATCAM v8.992 - www.flatcam.org - Version Date: 2020/05/03)

(Name: NPN Tracer V1-F_Cu_deeper.gbr_iso_1_cnc)
(Type: G-code from Geometry)
(Units: MM)

(Created on Thursday, 23 February 2023 at 20:42)

(This preprocessor is the default preprocessor used by FlatCAM.)
(It is made to work with MACH3 compatible motion controllers.)

(TOOL DIAMETER: 0.2458 mm)
(Feedrate_XY: 60.0 mm/min)
(Feedrate_Z: 50.0 mm/min)
(Feedrate rapids 1500.0 mm/min)

(Z_Cut: -0.13 mm)
(Z_Move: 2.0 mm)
(Z Start: None mm)
(Z End: 10.0 mm)
(Steps per circle: 64)
(Preprocessor Geometry: default)

(X range:   -0.1353 ...   94.4848  mm)
(Y range:    0.4432 ...   59.9478  mm)

(Spindle Speed: None RPM)
G21
G90
G94



G01 F60.00
G00 Z2.0000

M03
G00 X-0.1156 Y1.2466
G01 F50.00
G01 Z-0.1300
G01 F60.00
G01 X-0.1043 Y1.1943
G01 X-0.0994 Y1.1733
G01 X-0.0941 Y1.1525
G01 X-0.0882 Y1.1318
G01 X-0.0818 Y1.1113
G01 X-0.0749 Y1.0910
G01 X-0.0675 Y1.0708
G01 X-0.0596 Y1.0508
G01 X-0.0512 Y1.0310
G01 X-0.0423 Y1.0114
G01 X-0.0329 Y0.9921
G01 X-0.0231 Y0.9730
G01 X-0.0127 Y0.9541
G01 X-0.0019 Y0.9355
G01 X0.0094 Y0.9172
G01 X0.0211 Y0.8992
G01 X0.0332 Y0.8815
G01 X0.0458 Y0.8641
G01 X0.0589 Y0.8470
G01 X0.0723 Y0.8302
G01 X0.0862 Y0.8138
G01 X0.1327 Y0.7601
G01 X0.1469 Y0.7442
G01 X0.1615 Y0.7285
G01 X0.1764 Y0.7133
G01 X0.1918 Y0.6984
G01 X0.2075 Y0.6839
G01 X0.2235 Y0.6698
G01 X0.2400 Y0.6562
G01 X0.2567 Y0.6429
G01 X0.2738 Y0.6300
G01 X0.2911 Y0.6176
G01 X0.3088 Y0.6056
G01 X0.3268 Y0.5941
G01 X0.3450 Y0.5830
G01 X0.3636 Y0.5723
G01 X0.3824 Y0.5621
G01 X0.4014 Y0.5524
G01 X0.4206 Y0.5432
G01 X0.4401 Y0.5344
G01 X0.4598 Y0.5262
G01 X0.4797 Y0.5184
G01 X0.4998 Y0.5111
G01 X0.5201 Y0.5043
G01 X0.5405 Y0.4980
G01 X0.6283 Y0.4725
G01 X0.6681 Y0.4629
G01 X0.6882 Y0.4587
G01 X0.7286 Y0.4520
G01 X0.7692 Y0.4471
G01 X0.8101 Y0.4442
G01 X0.8510 Y0.4432
G01 X93.4985 Y0.4432
G01 X93.5190 Y0.4434
G01 X93.5599 Y0.4454
G01 X93.5803 Y0.4471
G01 X93.6209 Y0.4520
G01 X93.6412 Y0.4551
G01 X93.6814 Y0.4629
G01 X93.7337 Y0.4742
G01 X93.7547 Y0.4791
G01 X93.7755 Y0.4844
G01 X93.7962 Y0.4903
G01 X93.8167 Y0.4967
G01 X93.8370 Y0.5036
G01 X93.8572 Y0.5110
G01 X93.8772 Y0.5189
G01 X93.8970 Y0.5273
G01 X93.9166 Y0.5362
G01 X93.9359 Y0.5456
G01 X93.9550 Y0.5554
G01 X93.9739 Y0.5658
G01 X93.9925 Y0.5766
G01 X94.0108 Y0.5879
G01 X94.0288 Y0.5996
G01 X94.0465 Y0.6117
G01 X94.0639 Y0.6243
G01 X94.0810 Y0.6374
G01 X94.0978 Y0.6508
G01 X94.1142 Y0.6647
G01 X94.1838 Y0.7254
G01 X94.1995 Y0.7400
G01 X94.2147 Y0.7549
G01 X94.2296 Y0.7703
G01 X94.2441 Y0.7860
G01 X94.2582 Y0.8020
G01 X94.2718 Y0.8185
G01 X94.2851 Y0.8352
G01 X94.2980 Y0.8523
G01 X94.3104 Y0.8696
G01 X94.3224 Y0.8873
G01 X94.3339 Y0.9053
G01 X94.3450 Y0.9235
G01 X94.3557 Y0.9421
G01 X94.3659 Y0.9609
G01 X94.3756 Y0.9799
G01 X94.3848 Y0.9991
G01 X94.3936 Y1.0186
G01 X94.4018 Y1.0383
G01 X94.4096 Y1.0582
G01 X94.4169 Y1.0783
G01 X94.4237 Y1.0986
G01 X94.4300 Y1.1190
G01 X94.4555 Y1.2068
G01 X94.4651 Y1.2466
G01 X94.4693 Y1.2667
G01 X94.4760 Y1.3071
G01 X94.4787 Y1.3274
G01 X94.4809 Y1.3477
G01 X94.4838 Y1.3886
G01 X94.4848 Y1.4295
G01 X94.4848 Y58.9615
G01 X94.4846 Y58.9820
G01 X94.4826 Y59.0229
G01 X94.4809 Y59.0433
G01 X94.4760 Y59.0839
G01 X94.4693 Y59.1243
G01 X94.4651 Y59.1444
G01 X94.4538 Y59.1967
G01 X94.4489 Y59.2177
G01 X94.4436 Y59.2385
G01 X94.4377 Y59.2592
G01 X94.4313 Y59.2797
G01 X94.4244 Y59.3000
G01 X94.4170 Y59.3202
G01 X94.4091 Y59.3402
G01 X94.4007 Y59.3600
G01 X94.3918 Y59.3796
G01 X94.3824 Y59.3989
G01 X94.3726 Y59.4180
G01 X94.3622 Y59.4369
G01 X94.3514 Y59.4555
G01 X94.3401 Y59.4738
G01 X94.3284 Y59.4918
G01 X94.3163 Y59.5095
G01 X94.3037 Y59.5269
G01 X94.2906 Y59.5440
G01 X94.2772 Y59.5608
G01 X94.2633 Y59.5772
G01 X94.2168 Y59.6309
G01 X94.2026 Y59.6468
G01 X94.1880 Y59.6625
G01 X94.1731 Y59.6777
G01 X94.1577 Y59.6926
G01 X94.1420 Y59.7071
G01 X94.1260 Y59.7212
G01 X94.1095 Y59.7348
G01 X94.0928 Y59.7481
G01 X94.0757 Y59.7610
G01 X94.0584 Y59.7734
G01 X94.0407 Y59.7854
G01 X94.0227 Y59.7969
G01 X94.0045 Y59.8080
G01 X93.9859 Y59.8187
G01 X93.9671 Y59.8289
G01 X93.9481 Y59.8386
G01 X93.9289 Y59.8478
G01 X93.9094 Y59.8566
G01 X93.8897 Y59.8648
G01 X93.8698 Y59.8726
G01 X93.8497 Y59.8799
G01 X93.8294 Y59.8867
G01 X93.8090 Y59.8930
G01 X93.7212 Y59.9185
G01 X93.6814 Y59.9281
G01 X93.6613 Y59.9323
G01 X93.6209 Y59.9390
G01 X93.6006 Y59.9417
G01 X93.5599 Y59.9456
G01 X93.5190 Y59.9476
G01 X93.4985 Y59.9478
G01 X92.8883 Y59.9478
G01 X92.8473 Y59.9468
G01 X92.7885 Y59.9426
G01 X92.7479 Y59.9378
G01 X92.7075 Y59.9310
G01 X92.6675 Y59.9223
G01 X92.6280 Y59.9117
G01 X92.5890 Y59.8992
G01 X92.5506 Y59.8849
G01 X92.5130 Y59.8688
G01 X92.4484 Y59.8393
G01 X92.4291 Y59.8302
G01 X92.4100 Y59.8206
G01 X92.3911 Y59.8105
G01 X92.3725 Y59.8000
G01 X92.3542 Y59.7890
G01 X92.3362 Y59.7776
G01 X92.3184 Y59.7657
G01 X92.3010 Y59.7533
G01 X92.2838 Y59.7406
G01 X92.2670 Y59.7274
G01 X92.2505 Y59.7138
G01 X92.2344 Y59.6998
G01 X92.2186 Y59.6855
G01 X92.2031 Y59.6707
G01 X92.1881 Y59.6555
G01 X92.1734 Y59.6400
G01 X92.1591 Y59.6241
G01 X92.1452 Y59.6079
G01 X92.1317 Y59.5913
G01 X92.1187 Y59.5744
G01 X92.1060 Y59.5572
G01 X92.0938 Y59.5397
G01 X92.0820 Y59.5218
G01 X92.0323 Y59.4440
G01 X92.0214 Y59.4256
G01 X92.0110 Y59.4069
G01 X92.0011 Y59.3880
G01 X91.9916 Y59.3689
G01 X91.9826 Y59.3495
G01 X91.9741 Y59.3299
G01 X91.9661 Y59.3101
G01 X91.9586 Y59.2901
G01 X91.9515 Y59.2699
G01 X91.9450 Y59.2496
G01 X91.9390 Y59.2291
G01 X91.9335 Y59.2085
G01 X91.9285 Y59.1877
G01 X91.9240 Y59.1668
G01 X91.9200 Y59.1458
G01 X91.9166 Y59.1247
G01 X91.9137 Y59.1035
G01 X91.9113 Y59.0823
G01 X91.9095 Y59.0610
G01 X91.9081 Y59.0397
G01 X91.9073 Y59.0184
G01 X91.9071 Y58.9970
G01 X91.9072 Y58.9188
G01 X91.8778 Y58.9227
G01 X91.8580 Y58.9247
G01 X91.8182 Y58.9275
G01 X91.7867 Y58.9288
G01 X91.3858 Y58.9290
G01 X91.3647 Y58.9287
G01 X91.3313 Y58.9273
G01 X91.3103 Y58.9260
G01 X91.2892 Y58.9242
G01 X91.2682 Y58.9219
G01 X91.2352 Y58.9173
G01 X91.2143 Y58.9139
G01 X91.1936 Y58.9100
G01 X91.1715 Y58.9053
G01 X91.1495 Y58.9100
G01 X91.1287 Y58.9139
G01 X91.0957 Y58.9191
G01 X91.0748 Y58.9219
G01 X91.0538 Y58.9242
G01 X91.0328 Y58.9260
G01 X91.0117 Y58.9273
G01 X90.9784 Y58.9287
G01 X90.9572 Y58.9290
G01 X90.4599 Y58.9287
G01 X90.4266 Y58.9273
G01 X90.4055 Y58.9260
G01 X90.3845 Y58.9242
G01 X90.3635 Y58.9219
G01 X90.3426 Y58.9191
G01 X90.3096 Y58.9139
G01 X90.2888 Y58.9100
G01 X90.2682 Y58.9057
G01 X90.2357 Y58.8978
G01 X90.2153 Y58.8924
G01 X90.1950 Y58.8866
G01 X90.1716 Y58.8791
G01 X90.1516 Y58.8854
G01 X90.1165 Y58.8954
G01 X90.0942 Y58.9012
G01 X90.0717 Y58.9064
G01 X90.0491 Y58.9110
G01 X90.0264 Y58.9150
G01 X89.9904 Y58.9205
G01 X89.9675 Y58.9233
G01 X89.9445 Y58.9255
G01 X89.9215 Y58.9270
G01 X89.8851 Y58.9287
G01 X89.8620 Y58.9290
G01 X89.7437 Y58.9287
G01 X89.7073 Y58.9270
G01 X89.6842 Y58.9255
G01 X89.6613 Y58.9233
G01 X89.6384 Y58.9205
G01 X89.6023 Y58.9150
G01 X89.5796 Y58.9110
G01 X89.5570 Y58.9064
G01 X89.5345 Y58.9012
G01 X89.4993 Y58.8918
G01 X89.4771 Y58.8854
G01 X89.4552 Y58.8784
G01 X89.3123 Y58.8308
G01 X89.2935 Y58.8243
G01 X89.2719 Y58.8162
G01 X89.2427 Y58.8310
G01 X89.2232 Y58.8401
G01 X89.2035 Y58.8487
G01 X89.1721 Y58.8617
G01 X89.1520 Y58.8693
G01 X89.1317 Y58.8764
G01 X89.0993 Y58.8867
G01 X89.0787 Y58.8928
G01 X89.0580 Y58.8984
G01 X89.0371 Y58.9034
G01 X89.0161 Y58.9080
G01 X88.9827 Y58.9145
G01 X88.9615 Y58.9179
G01 X88.9402 Y58.9209
G01 X88.9064 Y58.9245
G01 X88.8850 Y58.9264
G01 X88.8636 Y58.9278
G01 X88.8421 Y58.9286
G01 X88.8206 Y58.9288
G01 X88.7866 Y58.9286
G01 X88.7652 Y58.9278
G01 X88.7437 Y58.9264
G01 X88.7099 Y58.9233
G01 X88.6885 Y58.9209
G01 X88.6672 Y58.9179
G01 X88.6460 Y58.9145
G01 X88.6127 Y58.9080
G01 X88.5917 Y58.9034
G01 X88.5708 Y58.8984
G01 X88.5500 Y58.8928
G01 X88.5294 Y58.8867
G01 X88.4970 Y58.8764
G01 X88.4767 Y58.8693
G01 X88.4567 Y58.8617
G01 X88.4368 Y58.8536
G01 X88.4096 Y58.8419
G01 X88.3805 Y58.8545
G01 X88.3620 Y58.8620
G01 X88.3245 Y58.8756
G01 X88.2946 Y58.8854
G01 X88.2755 Y58.8911
G01 X88.2369 Y58.9012
G01 X88.2061 Y58.9082
G01 X88.1866 Y58.9121
G01 X88.1472 Y58.9185
G01 X88.1159 Y58.9227
G01 X88.0961 Y58.9247
G01 X88.0563 Y58.9275
G01 X88.0248 Y58.9288
G01 X88.0049 Y58.9290
G01 X87.6028 Y58.9287
G01 X87.5694 Y58.9273
G01 X87.5484 Y58.9260
G01 X87.5273 Y58.9242
G01 X87.5063 Y58.9219
G01 X87.4854 Y58.9191
G01 X87.4572 Y58.9147
G01 X87.4291 Y58.9191
G01 X87.4081 Y58.9219
G01 X87.3872 Y58.9242
G01 X87.3661 Y58.9260
G01 X87.3450 Y58.9273
G01 X87.3117 Y58.9287
G01 X86.7191 Y58.9290
G01 X86.6980 Y58.9287
G01 X86.6647 Y58.9273
G01 X86.6436 Y58.9260
G01 X86.6226 Y58.9242
G01 X86.6016 Y58.9219
G01 X86.5807 Y58.9191
G01 X86.5477 Y58.9139
G01 X86.5269 Y58.9100
G01 X86.5063 Y58.9057
G01 X86.4857 Y58.9008
G01 X86.4534 Y58.8924
G01 X86.4331 Y58.8866
G01 X86.4130 Y58.8802
G01 X86.3815 Y58.8692
G01 X86.3617 Y58.8618
G01 X86.3421 Y58.8540
G01 X86.3227 Y58.8457
G01 X86.3035 Y58.8369
G01 X86.2734 Y58.8224
G01 X86.2546 Y58.8126
G01 X86.2361 Y58.8025
G01 X86.2179 Y58.7918
G01 X86.1894 Y58.7744
G01 X86.1575 Y58.7532
G01 X86.1223 Y58.7720
G01 X86.0924 Y58.7869
G01 X86.0733 Y58.7958
G01 X86.0539 Y58.8041
G01 X86.0343 Y58.8120
G01 X86.0025 Y58.8241
G01 X85.9831 Y58.8308
G01 X85.8403 Y58.8784
G01 X85.8183 Y58.8854
G01 X85.7832 Y58.8954
G01 X85.7609 Y58.9012
G01 X85.7384 Y58.9064
G01 X85.7158 Y58.9110
G01 X85.6931 Y58.9150
G01 X85.6570 Y58.9205
G01 X85.6341 Y58.9233
G01 X85.6112 Y58.9255
G01 X85.5748 Y58.9277
G01 X85.5517 Y58.9287
G01 X85.5287 Y58.9290
G01 X85.2706 Y58.9288
G01 X85.2192 Y58.9264
G01 X85.1795 Y58.9227
G01 X85.1482 Y58.9185
G01 X85.1089 Y58.9121
G01 X85.0698 Y58.9038
G01 X85.0392 Y58.8964
G01 X85.0200 Y58.8911
G01 X84.9819 Y58.8793
G01 X84.9521 Y58.8690
G01 X84.9149 Y58.8545
G01 X84.8858 Y58.8419
G01 X84.8567 Y58.8545
G01 X84.8382 Y58.8620
G01 X84.8007 Y58.8756
G01 X84.7708 Y58.8854
G01 X84.7516 Y58.8911
G01 X84.7131 Y58.9012
G01 X84.6823 Y58.9082
G01 X84.6627 Y58.9121
G01 X84.6234 Y58.9185
G01 X84.5921 Y58.9227
G01 X84.5723 Y58.9247
G01 X84.5524 Y58.9264
G01 X84.5209 Y58.9281
G01 X84.4810 Y58.9290
G01 X84.2906 Y58.9290
G01 X84.2601 Y58.9284
G01 X84.2301 Y58.9271
G01 X84.2090 Y58.9256
G01 X84.1846 Y58.9233
G01 X84.1549 Y58.9195
G01 X84.1340 Y58.9165
G01 X84.1098 Y58.9123
G01 X84.0891 Y58.9082
G01 X84.0685 Y58.9036
G01 X84.0394 Y58.8964
G01 X84.0158 Y58.8899
G01 X83.9955 Y58.8838
G01 X83.9572 Y58.8708
G01 X83.9291 Y58.8805
G01 X83.9093 Y58.8867
G01 X83.8777 Y58.8956
G01 X83.8575 Y58.9008
G01 X83.8373 Y58.9056
G01 X83.8170 Y58.9098
G01 X83.7965 Y58.9136
G01 X83.7641 Y58.9189
G01 X83.7435 Y58.9217
G01 X83.7229 Y58.9240
G01 X83.7022 Y58.9257
G01 X83.6694 Y58.9279
G01 X83.6486 Y58.9287
G01 X83.6279 Y58.9289
G01 X83.5950 Y58.9284
G01 X83.5742 Y58.9277
G01 X83.5535 Y58.9265
G01 X83.5328 Y58.9247
G01 X83.5121 Y58.9225
G01 X83.4796 Y58.9183
G01 X83.4590 Y58.9151
G01 X83.4386 Y58.9114
G01 X83.4065 Y58.9046
G01 X83.3862 Y58.8999
G01 X83.3661 Y58.8947
G01 X83.3461 Y58.8890
G01 X83.3263 Y58.8828
G01 X83.2906 Y58.8708
G01 X83.2549 Y58.8828
G01 X83.2350 Y58.8890
G01 X83.2150 Y58.8947
G01 X83.1949 Y58.8999
G01 X83.1747 Y58.9046
G01 X83.1425 Y58.9114
G01 X83.1221 Y58.9151
G01 X83.1016 Y58.9183
G01 X83.0690 Y58.9225
G01 X83.0483 Y58.9247
G01 X83.0276 Y58.9265
G01 X83.0069 Y58.9277
G01 X82.9741 Y58.9287
G01 X82.9533 Y58.9289
G01 X82.9325 Y58.9287
G01 X82.9117 Y58.9279
G01 X82.8790 Y58.9257
G01 X82.8583 Y58.9240
G01 X82.8376 Y58.9217
G01 X82.8170 Y58.9189
G01 X82.7965 Y58.9157
G01 X82.7642 Y58.9098
G01 X82.7438 Y58.9056
G01 X82.7190 Y58.8997
G01 X82.6939 Y58.9057
G01 X82.6733 Y58.9100
G01 X82.6525 Y58.9139
G01 X82.6195 Y58.9191
G01 X82.5986 Y58.9219
G01 X82.5776 Y58.9242
G01 X82.5566 Y58.9260
G01 X82.5355 Y58.9273
G01 X82.5022 Y58.9287
G01 X82.4810 Y58.9290
G01 X82.4599 Y58.9287
G01 X82.4266 Y58.9273
G01 X82.4055 Y58.9260
G01 X82.3845 Y58.9242
G01 X82.3635 Y58.9219
G01 X82.3426 Y58.9191
G01 X82.3096 Y58.9139
G01 X82.2888 Y58.9100
G01 X82.2682 Y58.9057
G01 X82.2476 Y58.9008
G01 X82.2153 Y58.8924
G01 X82.1953 Y58.8866
G01 X82.1567 Y58.8975
G01 X82.1245 Y58.9051
G01 X82.1041 Y58.9096
G01 X82.0836 Y58.9135
G01 X82.0630 Y58.9169
G01 X82.0423 Y58.9199
G01 X82.0095 Y58.9239
G01 X81.9887 Y58.9258
G01 X81.9679 Y58.9272
G01 X81.9470 Y58.9281
G01 X81.9140 Y58.9289
G01 X81.8803 Y58.9285
G01 X81.8613 Y58.9345
G01 X81.8410 Y58.9403
G01 X81.8087 Y58.9487
G01 X81.7882 Y58.9535
G01 X81.7675 Y58.9579
G01 X81.7467 Y58.9617
G01 X81.7138 Y58.9668
G01 X81.6928 Y58.9697
G01 X81.6718 Y58.9720
G01 X81.6508 Y58.9737
G01 X81.6297 Y58.9750
G01 X81.5964 Y58.9764
G01 X81.5753 Y58.9766
G01 X81.5541 Y58.9763
G01 X81.5208 Y58.9749
G01 X81.4997 Y58.9736
G01 X81.4787 Y58.9718
G01 X81.4577 Y58.9694
G01 X81.4246 Y58.9647
G01 X81.4038 Y58.9614
G01 X81.3830 Y58.9575
G01 X81.3624 Y58.9531
G01 X81.3418 Y58.9482
G01 X81.3095 Y58.9398
G01 X81.2893 Y58.9339
G01 X81.2691 Y58.9275
G01 X81.2492 Y58.9206
G01 X81.2178 Y58.9091
G01 X81.1983 Y58.9012
G01 X81.1789 Y58.8929
G01 X81.1486 Y58.8788
G01 X81.1296 Y58.8695
G01 X81.1109 Y58.8598
G01 X81.0924 Y58.8496
G01 X81.0742 Y58.8389
G01 X81.0457 Y58.8215
G01 X81.0280 Y58.8100
G01 X81.0106 Y58.7980
G01 X80.9935 Y58.7856
G01 X80.9669 Y58.7655
G01 X80.9504 Y58.7523
G01 X80.9342 Y58.7387
G01 X80.8985 Y58.7063
G01 X80.8707 Y58.7251
G01 X80.8511 Y58.7373
G01 X80.8312 Y58.7490
G01 X80.7994 Y58.7667
G01 X80.7789 Y58.7773
G01 X80.6657 Y58.8337
G01 X80.6370 Y58.8467
G01 X80.6001 Y58.8620
G01 X80.5626 Y58.8756
G01 X80.5327 Y58.8854
G01 X80.4943 Y58.8964
G01 X80.4637 Y58.9038
G01 X80.4247 Y58.9121
G01 X80.3853 Y58.9185
G01 X80.3540 Y58.9227
G01 X80.3143 Y58.9264
G01 X80.2828 Y58.9281
G01 X80.2430 Y58.9290
G01 X79.8620 Y58.9290
G01 X79.8409 Y58.9287
G01 X79.8198 Y58.9279
G01 X79.7865 Y58.9260
G01 X79.7654 Y58.9242
G01 X79.7444 Y58.9219
G01 X79.7235 Y58.9191
G01 X79.6905 Y58.9139
G01 X79.6698 Y58.9100
G01 X79.6491 Y58.9057
G01 X79.6239 Y58.8996
G01 X79.5987 Y58.9057
G01 X79.5780 Y58.9100
G01 X79.5573 Y58.9139
G01 X79.5243 Y58.9191
G01 X79.5034 Y58.9219
G01 X79.4824 Y58.9242
G01 X79.4614 Y58.9260
G01 X79.4403 Y58.9273
G01 X79.4069 Y58.9287
G01 X79.3858 Y58.9290
G01 X79.3647 Y58.9287
G01 X79.3313 Y58.9273
G01 X79.3103 Y58.9260
G01 X79.2892 Y58.9242
G01 X79.2682 Y58.9219
G01 X79.2352 Y58.9173
G01 X79.2143 Y58.9139
G01 X79.1936 Y58.9100
G01 X79.1729 Y58.9057
G01 X79.1405 Y58.8978
G01 X79.1201 Y58.8924
G01 X79.1000 Y58.8866
G01 X79.0614 Y58.8975
G01 X79.0293 Y58.9051
G01 X79.0089 Y58.9096
G01 X78.9884 Y58.9135
G01 X78.9678 Y58.9169
G01 X78.9471 Y58.9199
G01 X78.9143 Y58.9239
G01 X78.8935 Y58.9258
G01 X78.8727 Y58.9272
G01 X78.8396 Y58.9285
G01 X78.8188 Y58.9289
G01 X78.7979 Y58.9288
G01 X78.7770 Y58.9282
G01 X78.7561 Y58.9271
G01 X78.7232 Y58.9247
G01 X78.7024 Y58.9226
G01 X78.6817 Y58.9200
G01 X78.6490 Y58.9149
G01 X78.6285 Y58.9113
G01 X78.6080 Y58.9071
G01 X78.5876 Y58.9025
G01 X78.5556 Y58.8943
G01 X78.5353 Y58.8886
G01 X78.5048 Y58.8790
G01 X78.4850 Y58.8854
G01 X78.4467 Y58.8964
G01 X78.4161 Y58.9038
G01 X78.3770 Y58.9121
G01 X78.3574 Y58.9155
G01 X78.3262 Y58.9201
G01 X78.2866 Y58.9247
G01 X78.2667 Y58.9264
G01 X78.2352 Y58.9281
G01 X78.1953 Y58.9290
G01 X77.8235 Y58.9290
G01 X77.8236 Y58.9596
G01 X77.8229 Y58.9809
G01 X77.8217 Y59.0023
G01 X77.8200 Y59.0236
G01 X77.8177 Y59.0448
G01 X77.8150 Y59.0660
G01 X77.8016 Y59.1574
G01 X77.7977 Y59.1784
G01 X77.7934 Y59.1993
G01 X77.7885 Y59.2201
G01 X77.7831 Y59.2408
G01 X77.7773 Y59.2613
G01 X77.7709 Y59.2817
G01 X77.7639 Y59.3019
G01 X77.7565 Y59.3220
G01 X77.7486 Y59.3418
G01 X77.7403 Y59.3615
G01 X77.7314 Y59.3809
G01 X77.7220 Y59.4001
G01 X77.7122 Y59.4191
G01 X77.7019 Y59.4378
G01 X77.6911 Y59.4563
G01 X77.6799 Y59.4745
G01 X77.6683 Y59.4924
G01 X77.6562 Y59.5100
G01 X77.6436 Y59.5273
G01 X77.6307 Y59.5442
G01 X77.6173 Y59.5609
G01 X77.5570 Y59.6309
G01 X77.5428 Y59.6468
G01 X77.5282 Y59.6625
G01 X77.5133 Y59.6777
G01 X77.4979 Y59.6926
G01 X77.4822 Y59.7071
G01 X77.4662 Y59.7212
G01 X77.4498 Y59.7348
G01 X77.4330 Y59.7481
G01 X77.4160 Y59.7610
G01 X77.3986 Y59.7734
G01 X77.3809 Y59.7854
G01 X77.3629 Y59.7969
G01 X77.3447 Y59.8080
G01 X77.3261 Y59.8187
G01 X77.3074 Y59.8289
G01 X77.2883 Y59.8386
G01 X77.2691 Y59.8478
G01 X77.2496 Y59.8566
G01 X77.2299 Y59.8648
G01 X77.2100 Y59.8726
G01 X77.1899 Y59.8799
G01 X77.1696 Y59.8867
G01 X77.0811 Y59.9130
G01 X77.0415 Y59.9235
G01 X77.0216 Y59.9281
G01 X76.9814 Y59.9359
G01 X76.9408 Y59.9417
G01 X76.9001 Y59.9456
G01 X76.8592 Y59.9476
G01 X0.8510 Y59.9478
G01 X0.8305 Y59.9476
G01 X0.7896 Y59.9456
G01 X0.7489 Y59.9417
G01 X0.7286 Y59.9390
G01 X0.6882 Y59.9323
G01 X0.6681 Y59.9281
G01 X0.6158 Y59.9168
G01 X0.5948 Y59.9119
G01 X0.5740 Y59.9066
G01 X0.5533 Y59.9007
G01 X0.5328 Y59.8943
G01 X0.5125 Y59.8874
G01 X0.4923 Y59.8800
G01 X0.4723 Y59.8721
G01 X0.4525 Y59.8637
G01 X0.4329 Y59.8548
G01 X0.4136 Y59.8454
G01 X0.3945 Y59.8356
G01 X0.3756 Y59.8252
G01 X0.3570 Y59.8144
G01 X0.3387 Y59.8031
G01 X0.3207 Y59.7914
G01 X0.3030 Y59.7793
G01 X0.2856 Y59.7667
G01 X0.2685 Y59.7536
G01 X0.2517 Y59.7402
G01 X0.2353 Y59.7263
G01 X0.1657 Y59.6656
G01 X0.1500 Y59.6510
G01 X0.1348 Y59.6361
G01 X0.1199 Y59.6207
G01 X0.1054 Y59.6050
G01 X0.0913 Y59.5890
G01 X0.0777 Y59.5725
G01 X0.0644 Y59.5558
G01 X0.0515 Y59.5387
G01 X0.0391 Y59.5214
G01 X0.0271 Y59.5037
G01 X0.0156 Y59.4857
G01 X0.0045 Y59.4675
G01 X-0.0062 Y59.4489
G01 X-0.0164 Y59.4301
G01 X-0.0261 Y59.4111
G01 X-0.0353 Y59.3919
G01 X-0.0441 Y59.3724
G01 X-0.0523 Y59.3527
G01 X-0.0601 Y59.3328
G01 X-0.0674 Y59.3127
G01 X-0.0742 Y59.2924
G01 X-0.0805 Y59.2720
G01 X-0.1060 Y59.1842
G01 X-0.1110 Y59.1643
G01 X-0.1198 Y59.1243
G01 X-0.1265 Y59.0839
G01 X-0.1314 Y59.0433
G01 X-0.1331 Y59.0229
G01 X-0.1343 Y59.0024
G01 X-0.1353 Y58.9615
G01 X-0.1353 Y1.4295
G01 X-0.1343 Y1.3886
G01 X-0.1314 Y1.3477
G01 X-0.1292 Y1.3274
G01 X-0.1234 Y1.2868
G01 X-0.1156 Y1.2466
G00 Z2.0000
G00 X0.0285 Y1.2780
G01 F50.00
G01 Z-0.1300
G01 F60.00
G01 X0.0399 Y1.2256
G01 X0.0483 Y1.1910
G01 X0.0532 Y1.1739
G01 X0.0642 Y1.1400
G01 X0.0769 Y1.1067
G01 X0.0912 Y1.0741
G01 X0.1071 Y1.0423
G01 X0.1247 Y1.0112
G01 X0.1340 Y0.9961
G01 X0.1538 Y0.9665
G01 X0.1750 Y0.9379
G01 X0.1977 Y0.9104
G01 X0.2442 Y0.8567
G01 X0.2680 Y0.8305
G01 X0.2931 Y0.8056
G01 X0.3194 Y0.7819
G01 X0.3469 Y0.7596
G01 X0.3754 Y0.7386
G01 X0.4050 Y0.7191
G01 X0.4354 Y0.7011
G01 X0.4668 Y0.6846
G01 X0.4989 Y0.6697
G01 X0.5152 Y0.6628
G01 X0.5483 Y0.6504
G01 X0.5821 Y0.6396
G01 X0.6665 Y0.6150
G01 X0.6995 Y0.6070
G01 X0.7161 Y0.6036
G01 X0.7496 Y0.5979
G01 X0.7832 Y0.5939
G01 X0.8171 Y0.5915
G01 X0.8510 Y0.5907
G01 X93.4985 Y0.5907
G01 X93.5155 Y0.5909
G01 X93.5494 Y0.5925
G01 X93.5663 Y0.5939
G01 X93.5999 Y0.5979
G01 X93.6334 Y0.6036
G01 X93.6500 Y0.6070
G01 X93.7024 Y0.6184
G01 X93.7370 Y0.6268
G01 X93.7541 Y0.6317
G01 X93.7880 Y0.6427
G01 X93.8047 Y0.6488
G01 X93.8377 Y0.6623
G01 X93.8699 Y0.6775
G01 X93.8857 Y0.6856
G01 X93.9168 Y0.7032
G01 X93.9319 Y0.7125
G01 X93.9469 Y0.7222
G01 X93.9760 Y0.7427
G01 X94.0040 Y0.7647
G01 X94.0713 Y0.8227
G01 X94.0845 Y0.8344
G01 X94.1101 Y0.8589
G01 X94.1224 Y0.8716
G01 X94.1461 Y0.8979
G01 X94.1574 Y0.9115
G01 X94.1791 Y0.9395
G01 X94.1993 Y0.9686
G01 X94.2181 Y0.9986
G01 X94.2269 Y1.0139
G01 X94.2354 Y1.0295
G01 X94.2511 Y1.0612
G01 X94.2583 Y1.0774
G01 X94.2716 Y1.1102
G01 X94.2832 Y1.1436
G01 X94.3130 Y1.2450
G01 X94.3210 Y1.2780
G01 X94.3244 Y1.2946
G01 X94.3301 Y1.3281
G01 X94.3323 Y1.3449
G01 X94.3355 Y1.3786
G01 X94.3371 Y1.4125
G01 X94.3373 Y1.4295
G01 X94.3373 Y58.9615
G01 X94.3365 Y58.9954
G01 X94.3355 Y59.0124
G01 X94.3323 Y59.0461
G01 X94.3301 Y59.0629
G01 X94.3275 Y59.0797
G01 X94.3210 Y59.1130
G01 X94.3096 Y59.1654
G01 X94.3012 Y59.2000
G01 X94.2910 Y59.2341
G01 X94.2853 Y59.2510
G01 X94.2792 Y59.2677
G01 X94.2657 Y59.3007
G01 X94.2505 Y59.3329
G01 X94.2424 Y59.3487
G01 X94.2248 Y59.3798
G01 X94.2155 Y59.3949
G01 X94.1957 Y59.4245
G01 X94.1853 Y59.4390
G01 X94.1633 Y59.4670
G01 X94.1053 Y59.5343
G01 X94.0815 Y59.5605
G01 X94.0564 Y59.5854
G01 X94.0301 Y59.6091
G01 X94.0026 Y59.6314
G01 X93.9741 Y59.6524
G01 X93.9445 Y59.6719
G01 X93.9294 Y59.6811
G01 X93.8985 Y59.6984
G01 X93.8668 Y59.7141
G01 X93.8343 Y59.7282
G01 X93.8012 Y59.7406
G01 X93.7844 Y59.7462
G01 X93.6993 Y59.7714
G01 X93.6666 Y59.7802
G01 X93.6334 Y59.7874
G01 X93.5999 Y59.7931
G01 X93.5663 Y59.7971
G01 X93.5324 Y59.7995
G01 X93.5155 Y59.8001
G01 X92.8713 Y59.8001
G01 X92.8374 Y59.7985
G01 X92.8026 Y59.7958
G01 X92.7857 Y59.7940
G01 X92.7521 Y59.7892
G01 X92.7188 Y59.7827
G01 X92.7023 Y59.7789
G01 X92.6695 Y59.7702
G01 X92.6533 Y59.7652
G01 X92.6212 Y59.7541
G01 X92.5897 Y59.7415
G01 X92.5096 Y59.7051
G01 X92.4778 Y59.6896
G01 X92.4468 Y59.6726
G01 X92.4167 Y59.6540
G01 X92.3875 Y59.6339
G01 X92.3594 Y59.6124
G01 X92.3457 Y59.6012
G01 X92.3192 Y59.5777
G01 X92.2940 Y59.5529
G01 X92.2700 Y59.5269
G01 X92.2473 Y59.4997
G01 X92.2260 Y59.4714
G01 X92.2159 Y59.4569
G01 X92.1677 Y59.3824
G01 X92.1493 Y59.3521
G01 X92.1325 Y59.3210
G01 X92.1171 Y59.2891
G01 X92.1034 Y59.2564
G01 X92.0914 Y59.2232
G01 X92.0810 Y59.1893
G01 X92.0723 Y59.1550
G01 X92.0653 Y59.1203
G01 X92.0600 Y59.0853
G01 X92.0565 Y59.0501
G01 X92.0548 Y59.0147
G01 X92.0548 Y58.9090
G01 X92.0564 Y58.8751
G01 X92.0596 Y58.8414
G01 X92.0644 Y58.8078
G01 X92.0684 Y58.7865
G01 X92.0684 Y58.7253
G01 X92.0550 Y58.7303
G01 X92.0284 Y58.7395
G01 X91.9969 Y58.7493
G01 X91.9809 Y58.7536
G01 X91.9536 Y58.7603
G01 X91.9213 Y58.7671
G01 X91.8887 Y58.7725
G01 X91.8608 Y58.7762
G01 X91.8443 Y58.7779
G01 X91.8114 Y58.7802
G01 X91.7833 Y58.7813
G01 X91.3858 Y58.7815
G01 X91.3508 Y58.7806
G01 X91.3211 Y58.7790
G01 X91.3037 Y58.7775
G01 X91.2863 Y58.7755
G01 X91.2568 Y58.7714
G01 X91.2223 Y58.7654
G01 X91.2052 Y58.7618
G01 X91.1715 Y58.7535
G01 X91.1378 Y58.7618
G01 X91.1207 Y58.7654
G01 X91.0862 Y58.7714
G01 X91.0568 Y58.7755
G01 X91.0394 Y58.7775
G01 X91.0219 Y58.7790
G01 X90.9922 Y58.7806
G01 X90.9572 Y58.7815
G01 X90.4636 Y58.7813
G01 X90.4338 Y58.7800
G01 X90.3989 Y58.7775
G01 X90.3642 Y58.7732
G01 X90.3348 Y58.7686
G01 X90.3176 Y58.7654
G01 X90.3005 Y58.7618
G01 X90.2715 Y58.7548
G01 X90.2378 Y58.7454
G01 X90.2046 Y58.7344
G01 X90.1735 Y58.7230
G01 X90.1088 Y58.7443
G01 X90.0775 Y58.7532
G01 X90.0590 Y58.7580
G01 X90.0404 Y58.7623
G01 X90.0216 Y58.7661
G01 X90.0028 Y58.7694
G01 X89.9707 Y58.7744
G01 X89.9517 Y58.7767
G01 X89.9327 Y58.7785
G01 X89.9136 Y58.7798
G01 X89.8811 Y58.7812
G01 X89.8620 Y58.7815
G01 X89.7477 Y58.7812
G01 X89.7152 Y58.7798
G01 X89.6961 Y58.7785
G01 X89.6771 Y58.7767
G01 X89.6581 Y58.7744
G01 X89.6260 Y58.7694
G01 X89.6071 Y58.7661
G01 X89.5884 Y58.7623
G01 X89.5698 Y58.7580
G01 X89.5513 Y58.7532
G01 X89.5200 Y58.7443
G01 X89.5018 Y58.7385
G01 X89.3433 Y58.6855
G01 X89.3017 Y58.6694
G01 X89.2865 Y58.6629
G01 X89.2623 Y58.6517
G01 X89.2367 Y58.6672
G01 X89.2102 Y58.6819
G01 X89.1786 Y58.6982
G01 X89.1624 Y58.7058
G01 X89.1181 Y58.7245
G01 X89.1015 Y58.7308
G01 X89.0677 Y58.7421
G01 X89.0387 Y58.7509
G01 X89.0215 Y58.7555
G01 X88.9868 Y58.7634
G01 X88.9571 Y58.7692
G01 X88.9219 Y58.7745
G01 X88.9042 Y58.7765
G01 X88.8740 Y58.7793
G01 X88.8562 Y58.7805
G01 X88.8206 Y58.7813
G01 X88.7903 Y58.7811
G01 X88.7725 Y58.7805
G01 X88.7370 Y58.7778
G01 X88.7069 Y58.7745
G01 X88.6893 Y58.7721
G01 X88.6542 Y58.7659
G01 X88.6245 Y58.7597
G01 X88.5900 Y58.7509
G01 X88.5730 Y58.7458
G01 X88.5441 Y58.7367
G01 X88.5106 Y58.7245
G01 X88.4826 Y58.7129
G01 X88.4502 Y58.6982
G01 X88.4343 Y58.6903
G01 X88.4105 Y58.6776
G01 X88.3647 Y58.7003
G01 X88.3239 Y58.7184
G01 X88.3086 Y58.7245
G01 X88.2775 Y58.7358
G01 X88.2508 Y58.7446
G01 X88.2350 Y58.7493
G01 X88.2190 Y58.7536
G01 X88.1917 Y58.7603
G01 X88.1594 Y58.7671
G01 X88.1431 Y58.7700
G01 X88.1153 Y58.7741
G01 X88.0989 Y58.7762
G01 X88.0660 Y58.7792
G01 X88.0379 Y58.7807
G01 X88.0049 Y58.7815
G01 X87.6064 Y58.7813
G01 X87.5592 Y58.7790
G01 X87.5244 Y58.7755
G01 X87.4776 Y58.7686
G01 X87.4572 Y58.7647
G01 X87.4368 Y58.7686
G01 X87.3901 Y58.7755
G01 X87.3553 Y58.7790
G01 X87.3081 Y58.7813
G01 X86.7016 Y58.7813
G01 X86.6719 Y58.7800
G01 X86.6370 Y58.7775
G01 X86.6196 Y58.7755
G01 X86.5902 Y58.7714
G01 X86.5557 Y58.7654
G01 X86.5215 Y58.7577
G01 X86.4927 Y58.7503
G01 X86.4759 Y58.7454
G01 X86.4427 Y58.7344
G01 X86.4147 Y58.7242
G01 X86.3824 Y58.7108
G01 X86.3397 Y58.6906
G01 X86.3088 Y58.6741
G01 X86.2832 Y58.6590
G01 X86.2536 Y58.6403
G01 X86.2250 Y58.6201
G01 X86.2013 Y58.6022
G01 X86.1876 Y58.5913
G01 X86.1657 Y58.5725
G01 X86.1414 Y58.5897
G01 X86.1164 Y58.6058
G01 X86.1016 Y58.6151
G01 X86.0712 Y58.6324
G01 X86.0447 Y58.6460
G01 X86.0131 Y58.6611
G01 X85.9808 Y58.6746
G01 X85.9525 Y58.6853
G01 X85.7936 Y58.7385
G01 X85.7754 Y58.7443
G01 X85.7571 Y58.7496
G01 X85.7256 Y58.7580
G01 X85.7070 Y58.7623
G01 X85.6883 Y58.7661
G01 X85.6562 Y58.7716
G01 X85.6373 Y58.7744
G01 X85.6184 Y58.7767
G01 X85.5993 Y58.7785
G01 X85.5803 Y58.7798
G01 X85.5478 Y58.7812
G01 X85.5287 Y58.7815
G01 X85.2740 Y58.7813
G01 X85.2460 Y58.7802
G01 X85.2130 Y58.7779
G01 X85.1965 Y58.7762
G01 X85.1687 Y58.7725
G01 X85.1361 Y58.7671
G01 X85.1037 Y58.7603
G01 X85.0764 Y58.7536
G01 X85.0605 Y58.7493
G01 X85.0289 Y58.7395
G01 X85.0023 Y58.7303
G01 X84.9715 Y58.7184
G01 X84.9307 Y58.7003
G01 X84.8858 Y58.6780
G01 X84.8409 Y58.7003
G01 X84.8001 Y58.7184
G01 X84.7848 Y58.7245
G01 X84.7537 Y58.7358
G01 X84.7270 Y58.7446
G01 X84.7111 Y58.7493
G01 X84.6952 Y58.7536
G01 X84.6679 Y58.7603
G01 X84.6356 Y58.7671
G01 X84.6193 Y58.7700
G01 X84.5915 Y58.7741
G01 X84.5586 Y58.7779
G01 X84.5422 Y58.7792
G01 X84.5141 Y58.7807
G01 X84.4810 Y58.7815
G01 X84.2906 Y58.7815
G01 X84.2653 Y58.7811
G01 X84.2389 Y58.7799
G01 X84.2215 Y58.7786
G01 X84.2007 Y58.7767
G01 X84.1833 Y58.7745
G01 X84.1572 Y58.7708
G01 X84.1195 Y58.7638
G01 X84.0938 Y58.7580
G01 X84.0599 Y58.7491
G01 X84.0399 Y58.7431
G01 X83.9984 Y58.7289
G01 X83.9789 Y58.7214
G01 X83.9573 Y58.7123
G01 X83.9432 Y58.7182
G01 X83.9159 Y58.7288
G01 X83.8997 Y58.7348
G01 X83.8670 Y58.7454
G01 X83.8221 Y58.7577
G01 X83.7885 Y58.7651
G01 X83.7716 Y58.7683
G01 X83.7427 Y58.7730
G01 X83.7256 Y58.7753
G01 X83.7085 Y58.7772
G01 X83.6793 Y58.7795
G01 X83.6449 Y58.7812
G01 X83.6277 Y58.7815
G01 X83.5812 Y58.7804
G01 X83.5469 Y58.7779
G01 X83.5007 Y58.7724
G01 X83.4668 Y58.7666
G01 X83.4214 Y58.7566
G01 X83.3881 Y58.7476
G01 X83.3439 Y58.7333
G01 X83.3117 Y58.7211
G01 X83.2906 Y58.7122
G01 X83.2695 Y58.7211
G01 X83.2534 Y58.7274
G01 X83.2373 Y58.7333
G01 X83.2095 Y58.7425
G01 X83.1765 Y58.7523
G01 X83.1598 Y58.7566
G01 X83.1312 Y58.7631
G01 X83.0974 Y58.7697
G01 X83.0804 Y58.7724
G01 X83.0514 Y58.7761
G01 X83.0171 Y58.7794
G01 X82.9999 Y58.7804
G01 X82.9706 Y58.7813
G01 X82.9362 Y58.7812
G01 X82.9018 Y58.7795
G01 X82.8726 Y58.7772
G01 X82.8385 Y58.7730
G01 X82.8095 Y58.7683
G01 X82.7758 Y58.7616
G01 X82.7423 Y58.7533
G01 X82.7192 Y58.7469
G01 X82.7075 Y58.7503
G01 X82.6786 Y58.7577
G01 X82.6445 Y58.7654
G01 X82.6273 Y58.7686
G01 X82.5979 Y58.7732
G01 X82.5632 Y58.7775
G01 X82.5283 Y58.7800
G01 X82.4985 Y58.7813
G01 X82.4810 Y58.7815
G01 X82.4461 Y58.7806
G01 X82.4164 Y58.7790
G01 X82.3989 Y58.7775
G01 X82.3642 Y58.7732
G01 X82.3348 Y58.7686
G01 X82.3005 Y58.7618
G01 X82.2715 Y58.7548
G01 X82.2378 Y58.7454
G01 X82.2211 Y58.7401
G01 X82.1954 Y58.7312
G01 X82.1534 Y58.7452
G01 X82.1201 Y58.7546
G01 X82.0746 Y58.7651
G01 X82.0405 Y58.7712
G01 X81.9941 Y58.7772
G01 X81.9596 Y58.7800
G01 X81.9129 Y58.7815
G01 X81.8783 Y58.7809
G01 X81.8590 Y58.7798
G01 X81.8354 Y58.7880
G01 X81.8019 Y58.7982
G01 X81.7560 Y58.8096
G01 X81.7217 Y58.8164
G01 X81.6749 Y58.8233
G01 X81.6401 Y58.8267
G01 X81.5929 Y58.8289
G01 X81.5579 Y58.8289
G01 X81.5107 Y58.8265
G01 X81.4759 Y58.8231
G01 X81.4292 Y58.8161
G01 X81.3949 Y58.8092
G01 X81.3778 Y58.8051
G01 X81.3490 Y58.7977
G01 X81.3322 Y58.7928
G01 X81.3155 Y58.7875
G01 X81.2875 Y58.7776
G01 X81.2711 Y58.7715
G01 X81.2388 Y58.7581
G01 X81.1961 Y58.7378
G01 X81.1805 Y58.7298
G01 X81.1501 Y58.7125
G01 X81.1247 Y58.6970
G01 X81.1101 Y58.6874
G01 X81.0815 Y58.6672
G01 X81.0577 Y58.6493
G01 X81.0441 Y58.6384
G01 X81.0307 Y58.6271
G01 X81.0085 Y58.6072
G01 X80.9957 Y58.5953
G01 X80.9710 Y58.5706
G01 X80.9393 Y58.5355
G01 X80.9280 Y58.5221
G01 X80.9141 Y58.5045
G01 X80.8786 Y58.5363
G01 X80.8638 Y58.5485
G01 X80.8488 Y58.5603
G01 X80.8226 Y58.5795
G01 X80.8069 Y58.5905
G01 X80.7910 Y58.6010
G01 X80.7748 Y58.6111
G01 X80.7466 Y58.6274
G01 X80.7299 Y58.6366
G01 X80.7129 Y58.6454
G01 X80.6177 Y58.6930
G01 X80.5878 Y58.7071
G01 X80.5620 Y58.7184
G01 X80.5312 Y58.7303
G01 X80.4889 Y58.7446
G01 X80.4571 Y58.7536
G01 X80.4137 Y58.7639
G01 X80.3812 Y58.7700
G01 X80.3370 Y58.7762
G01 X80.3041 Y58.7792
G01 X80.2760 Y58.7807
G01 X80.2430 Y58.7815
G01 X79.8620 Y58.7815
G01 X79.8270 Y58.7806
G01 X79.7973 Y58.7790
G01 X79.7799 Y58.7775
G01 X79.7451 Y58.7732
G01 X79.7157 Y58.7686
G01 X79.6814 Y58.7618
G01 X79.6525 Y58.7548
G01 X79.6239 Y58.7469
G01 X79.6122 Y58.7503
G01 X79.5834 Y58.7577
G01 X79.5493 Y58.7654
G01 X79.5148 Y58.7714
G01 X79.4853 Y58.7755
G01 X79.4505 Y58.7790
G01 X79.4208 Y58.7806
G01 X79.3858 Y58.7815
G01 X79.3508 Y58.7806
G01 X79.3211 Y58.7790
G01 X79.2863 Y58.7755
G01 X79.2568 Y58.7714
G01 X79.2223 Y58.7654
G01 X79.1882 Y58.7577
G01 X79.1594 Y58.7503
G01 X79.1259 Y58.7401
G01 X79.1002 Y58.7312
G01 X79.0582 Y58.7452
G01 X79.0249 Y58.7546
G01 X78.9793 Y58.7651
G01 X78.9453 Y58.7712
G01 X78.8989 Y58.7772
G01 X78.8644 Y58.7800
G01 X78.8177 Y58.7815
G01 X78.7830 Y58.7809
G01 X78.7536 Y58.7792
G01 X78.7192 Y58.7761
G01 X78.6849 Y58.7713
G01 X78.6559 Y58.7663
G01 X78.6389 Y58.7629
G01 X78.6052 Y58.7548
G01 X78.5767 Y58.7470
G01 X78.5434 Y58.7364
G01 X78.5049 Y58.7222
G01 X78.4836 Y58.7303
G01 X78.4413 Y58.7446
G01 X78.4095 Y58.7536
G01 X78.3660 Y58.7639
G01 X78.3336 Y58.7700
G01 X78.3057 Y58.7741
G01 X78.2729 Y58.7779
G01 X78.2400 Y58.7802
G01 X78.2119 Y58.7813
G01 X78.1953 Y58.7815
G01 X77.7969 Y58.7813
G01 X77.7671 Y58.7800
G01 X77.7323 Y58.7775
G01 X77.6975 Y58.7732
G01 X77.6585 Y58.7668
G01 X77.6585 Y58.7857
G01 X77.6647 Y58.8159
G01 X77.6677 Y58.8334
G01 X77.6702 Y58.8509
G01 X77.6739 Y58.8861
G01 X77.6759 Y58.9214
G01 X77.6761 Y58.9568
G01 X77.6746 Y58.9922
G01 X77.6713 Y59.0275
G01 X77.6589 Y59.1153
G01 X77.6530 Y59.1502
G01 X77.6494 Y59.1675
G01 X77.6409 Y59.2019
G01 X77.6307 Y59.2358
G01 X77.6250 Y59.2526
G01 X77.6123 Y59.2856
G01 X77.5980 Y59.3180
G01 X77.5821 Y59.3496
G01 X77.5647 Y59.3804
G01 X77.5457 Y59.4103
G01 X77.5253 Y59.4392
G01 X77.5145 Y59.4533
G01 X77.4920 Y59.4806
G01 X77.4338 Y59.5475
G01 X77.4093 Y59.5731
G01 X77.3836 Y59.5974
G01 X77.3567 Y59.6204
G01 X77.3428 Y59.6314
G01 X77.3143 Y59.6524
G01 X77.2847 Y59.6719
G01 X77.2696 Y59.6811
G01 X77.2387 Y59.6984
G01 X77.2070 Y59.7141
G01 X77.1908 Y59.7213
G01 X77.1580 Y59.7346
G01 X77.1414 Y59.7406
G01 X77.1077 Y59.7514
G01 X77.0232 Y59.7760
G01 X76.9902 Y59.7840
G01 X76.9569 Y59.7905
G01 X76.9402 Y59.7931
G01 X76.9065 Y59.7971
G01 X76.8726 Y59.7995
G01 X76.8557 Y59.8001
G01 X0.8510 Y59.8003
G01 X0.8340 Y59.8001
G01 X0.8001 Y59.7985
G01 X0.7832 Y59.7971
G01 X0.7496 Y59.7931
G01 X0.7328 Y59.7905
G01 X0.6995 Y59.7840
G01 X0.6471 Y59.7726
G01 X0.6125 Y59.7642
G01 X0.5954 Y59.7593
G01 X0.5615 Y59.7483
G01 X0.5448 Y59.7422
G01 X0.5118 Y59.7287
G01 X0.4796 Y59.7135
G01 X0.4638 Y59.7054
G01 X0.4481 Y59.6968
G01 X0.4176 Y59.6785
G01 X0.4026 Y59.6688
G01 X0.3735 Y59.6483
G01 X0.3455 Y59.6263
G01 X0.2782 Y59.5683
G01 X0.2520 Y59.5445
G01 X0.2394 Y59.5321
G01 X0.2271 Y59.5194
G01 X0.2034 Y59.4931
G01 X0.1811 Y59.4656
G01 X0.1704 Y59.4515
G01 X0.1502 Y59.4224
G01 X0.1314 Y59.3924
G01 X0.1226 Y59.3771
G01 X0.1061 Y59.3457
G01 X0.0984 Y59.3298
G01 X0.0912 Y59.3136
G01 X0.0779 Y59.2808
G01 X0.0663 Y59.2474
G01 X0.0365 Y59.1460
G01 X0.0323 Y59.1296
G01 X0.0251 Y59.0964
G01 X0.0194 Y59.0629
G01 X0.0172 Y59.0461
G01 X0.0140 Y59.0124
G01 X0.0124 Y58.9785
G01 X0.0122 Y58.9615
G01 X0.0122 Y1.4295
G01 X0.0130 Y1.3956
G01 X0.0140 Y1.3786
G01 X0.0172 Y1.3449
G01 X0.0220 Y1.3113
G01 X0.0285 Y1.2780
G00 Z2.0000
G00 X0.1726 Y1.3093
G01 F50.00
G01 Z-0.1300
G01 F60.00
G01 X0.1871 Y1.2432
G01 X0.1945 Y1.2160
G01 X0.2032 Y1.1891
G01 X0.2133 Y1.1627
G01 X0.2247 Y1.1368
G01 X0.2373 Y1.1116
G01 X0.2512 Y1.0869
G01 X0.2586 Y1.0749
G01 X0.2743 Y1.0514
G01 X0.2912 Y1.0287
G01 X0.3091 Y1.0069
G01 X0.3556 Y0.9533
G01 X0.3745 Y0.9325
G01 X0.3944 Y0.9127
G01 X0.4153 Y0.8940
G01 X0.4371 Y0.8762
G01 X0.4597 Y0.8596
G01 X0.4832 Y0.8441
G01 X0.4952 Y0.8369
G01 X0.5197 Y0.8232
G01 X0.5448 Y0.8107
G01 X0.5706 Y0.7995
G01 X0.5969 Y0.7896
G01 X0.6236 Y0.7811
G01 X0.7047 Y0.7574
G01 X0.7308 Y0.7511
G01 X0.7440 Y0.7484
G01 X0.7705 Y0.7439
G01 X0.7973 Y0.7407
G01 X0.8241 Y0.7388
G01 X0.8510 Y0.7382
G01 X93.4985 Y0.7382
G01 X93.5120 Y0.7383
G01 X93.5388 Y0.7396
G01 X93.5656 Y0.7422
G01 X93.5790 Y0.7439
G01 X93.5922 Y0.7460
G01 X93.6187 Y0.7511
G01 X93.6710 Y0.7625
G01 X93.6985 Y0.7692
G01 X93.7120 Y0.7730
G01 X93.7389 Y0.7817
G01 X93.7522 Y0.7866
G01 X93.7783 Y0.7973
G01 X93.8039 Y0.8093
G01 X93.8164 Y0.8158
G01 X93.8288 Y0.8226
G01 X93.8531 Y0.8371
G01 X93.8766 Y0.8528
G01 X93.8880 Y0.8611
G01 X93.9103 Y0.8785
G01 X93.9747 Y0.9341
G01 X93.9955 Y0.9530
G01 X94.0055 Y0.9629
G01 X94.0153 Y0.9729
G01 X94.0340 Y0.9938
G01 X94.0518 Y1.0156
G01 X94.0684 Y1.0382
G01 X94.0763 Y1.0499
G01 X94.0911 Y1.0737
G01 X94.0981 Y1.0858
G01 X94.1112 Y1.1107
G01 X94.1173 Y1.1233
G01 X94.1285 Y1.1491
G01 X94.1336 Y1.1622
G01 X94.1428 Y1.1887
G01 X94.1469 Y1.2021
G01 X94.1706 Y1.2832
G01 X94.1769 Y1.3093
G01 X94.1796 Y1.3225
G01 X94.1841 Y1.3490
G01 X94.1858 Y1.3624
G01 X94.1884 Y1.3892
G01 X94.1897 Y1.4160
G01 X94.1898 Y1.4295
G01 X94.1898 Y58.9615
G01 X94.1892 Y58.9884
G01 X94.1884 Y59.0018
G01 X94.1858 Y59.0286
G01 X94.1841 Y59.0420
G01 X94.1796 Y59.0685
G01 X94.1769 Y59.0817
G01 X94.1655 Y59.1340
G01 X94.1588 Y59.1615
G01 X94.1550 Y59.1750
G01 X94.1463 Y59.2019
G01 X94.1414 Y59.2152
G01 X94.1307 Y59.2413
G01 X94.1248 Y59.2542
G01 X94.1122 Y59.2794
G01 X94.0983 Y59.3041
G01 X94.0909 Y59.3161
G01 X94.0832 Y59.3279
G01 X94.0669 Y59.3510
G01 X94.0495 Y59.3733
G01 X93.9939 Y59.4377
G01 X93.9750 Y59.4585
G01 X93.9551 Y59.4783
G01 X93.9342 Y59.4970
G01 X93.9124 Y59.5148
G01 X93.8898 Y59.5314
G01 X93.8781 Y59.5393
G01 X93.8543 Y59.5541
G01 X93.8298 Y59.5678
G01 X93.8047 Y59.5803
G01 X93.7919 Y59.5860
G01 X93.7658 Y59.5966
G01 X93.7393 Y59.6058
G01 X93.6578 Y59.6299
G01 X93.6318 Y59.6369
G01 X93.6055 Y59.6426
G01 X93.5790 Y59.6471
G01 X93.5522 Y59.6503
G01 X93.5388 Y59.6514
G01 X93.5120 Y59.6527
G01 X92.8883 Y59.6528
G01 X92.8614 Y59.6522
G01 X92.8300 Y59.6501
G01 X92.8032 Y59.6476
G01 X92.7766 Y59.6437
G01 X92.7502 Y59.6386
G01 X92.7240 Y59.6323
G01 X92.6982 Y59.6247
G01 X92.6728 Y59.6159
G01 X92.6478 Y59.6059
G01 X92.5582 Y59.5650
G01 X92.5333 Y59.5521
G01 X92.5090 Y59.5379
G01 X92.4855 Y59.5226
G01 X92.4740 Y59.5145
G01 X92.4517 Y59.4975
G01 X92.4303 Y59.4793
G01 X92.4097 Y59.4602
G01 X92.3998 Y59.4502
G01 X92.3808 Y59.4296
G01 X92.3628 Y59.4080
G01 X92.3459 Y59.3856
G01 X92.3302 Y59.3624
G01 X92.2918 Y59.3026
G01 X92.2772 Y59.2787
G01 X92.2704 Y59.2664
G01 X92.2576 Y59.2414
G01 X92.2461 Y59.2158
G01 X92.2408 Y59.2028
G01 X92.2359 Y59.1896
G01 X92.2270 Y59.1630
G01 X92.2194 Y59.1360
G01 X92.2132 Y59.1086
G01 X92.2106 Y59.0948
G01 X92.2064 Y59.0670
G01 X92.2036 Y59.0391
G01 X92.2022 Y59.0110
G01 X92.2020 Y58.9260
G01 X92.2027 Y58.8991
G01 X92.2035 Y58.8857
G01 X92.2060 Y58.8589
G01 X92.2078 Y58.8455
G01 X92.2123 Y58.8190
G01 X92.2159 Y58.8019
G01 X92.2159 Y58.4887
G01 X92.1842 Y58.5066
G01 X92.1708 Y58.5135
G01 X92.0637 Y58.5669
G01 X92.0412 Y58.5770
G01 X92.0170 Y58.5871
G01 X91.9814 Y58.5997
G01 X91.9564 Y58.6075
G01 X91.9310 Y58.6141
G01 X91.9069 Y58.6196
G01 X91.8812 Y58.6245
G01 X91.8567 Y58.6280
G01 X91.8307 Y58.6311
G01 X91.8045 Y58.6329
G01 X91.7799 Y58.6339
G01 X91.3858 Y58.6340
G01 X91.3719 Y58.6339
G01 X91.3458 Y58.6327
G01 X91.3320 Y58.6319
G01 X91.3043 Y58.6292
G01 X91.2785 Y58.6255
G01 X91.2511 Y58.6208
G01 X91.2375 Y58.6179
G01 X91.2121 Y58.6117
G01 X91.1854 Y58.6043
G01 X91.1715 Y58.5999
G01 X91.1577 Y58.6043
G01 X91.1309 Y58.6117
G01 X91.1055 Y58.6179
G01 X91.0783 Y58.6233
G01 X91.0524 Y58.6273
G01 X91.0249 Y58.6307
G01 X91.0111 Y58.6319
G01 X90.9850 Y58.6333
G01 X90.9572 Y58.6340
G01 X90.4810 Y58.6340
G01 X90.4533 Y58.6333
G01 X90.4272 Y58.6319
G01 X90.4134 Y58.6307
G01 X90.3858 Y58.6273
G01 X90.3600 Y58.6233
G01 X90.3464 Y58.6208
G01 X90.3193 Y58.6147
G01 X90.2940 Y58.6082
G01 X90.2806 Y58.6043
G01 X90.2543 Y58.5956
G01 X90.2297 Y58.5866
G01 X90.2168 Y58.5815
G01 X90.2041 Y58.5760
G01 X90.1807 Y58.5651
G01 X90.0803 Y58.5986
G01 X90.0659 Y58.6032
G01 X90.0384 Y58.6110
G01 X90.0090 Y58.6182
G01 X89.9941 Y58.6212
G01 X89.9510 Y58.6282
G01 X89.9208 Y58.6315
G01 X89.8772 Y58.6338
G01 X89.7668 Y58.6340
G01 X89.7516 Y58.6338
G01 X89.7231 Y58.6325
G01 X89.7079 Y58.6315
G01 X89.6778 Y58.6282
G01 X89.6347 Y58.6212
G01 X89.6198 Y58.6182
G01 X89.5904 Y58.6110
G01 X89.5629 Y58.6032
G01 X89.5484 Y58.5986
G01 X89.4056 Y58.5510
G01 X89.3809 Y58.5421
G01 X89.3579 Y58.5331
G01 X89.3339 Y58.5225
G01 X89.3001 Y58.5057
G01 X89.2772 Y58.4930
G01 X89.2519 Y58.4775
G01 X89.2319 Y58.4934
G01 X89.2090 Y58.5100
G01 X89.1869 Y58.5248
G01 X89.1629 Y58.5396
G01 X89.1396 Y58.5525
G01 X89.1145 Y58.5654
G01 X89.0887 Y58.5770
G01 X89.0641 Y58.5872
G01 X89.0376 Y58.5969
G01 X89.0122 Y58.6049
G01 X88.9851 Y58.6126
G01 X88.9575 Y58.6189
G01 X88.9314 Y58.6240
G01 X88.9035 Y58.6282
G01 X88.8770 Y58.6310
G01 X88.8489 Y58.6332
G01 X88.8206 Y58.6339
G01 X88.7940 Y58.6337
G01 X88.7658 Y58.6323
G01 X88.7393 Y58.6298
G01 X88.7113 Y58.6263
G01 X88.6835 Y58.6214
G01 X88.6574 Y58.6159
G01 X88.6301 Y58.6089
G01 X88.6046 Y58.6012
G01 X88.5778 Y58.5922
G01 X88.5646 Y58.5872
G01 X88.5400 Y58.5770
G01 X88.5143 Y58.5654
G01 X88.4892 Y58.5525
G01 X88.4659 Y58.5396
G01 X88.4418 Y58.5248
G01 X88.4180 Y58.5088
G01 X88.3018 Y58.5669
G01 X88.2673 Y58.5822
G01 X88.2551 Y58.5871
G01 X88.2305 Y58.5960
G01 X88.1945 Y58.6075
G01 X88.1691 Y58.6141
G01 X88.1450 Y58.6196
G01 X88.1193 Y58.6245
G01 X88.1063 Y58.6264
G01 X88.0818 Y58.6297
G01 X88.0557 Y58.6321
G01 X88.0311 Y58.6334
G01 X88.0049 Y58.6340
G01 X87.6100 Y58.6339
G01 X87.5701 Y58.6319
G01 X87.5424 Y58.6292
G01 X87.5029 Y58.6233
G01 X87.4756 Y58.6179
G01 X87.4572 Y58.6134
G01 X87.4388 Y58.6179
G01 X87.4116 Y58.6233
G01 X87.3720 Y58.6292
G01 X87.3444 Y58.6319
G01 X87.3044 Y58.6339
G01 X86.7053 Y58.6339
G01 X86.6653 Y58.6319
G01 X86.6377 Y58.6292
G01 X86.5981 Y58.6233
G01 X86.5709 Y58.6179
G01 X86.5574 Y58.6147
G01 X86.5321 Y58.6082
G01 X86.5187 Y58.6043
G01 X86.5055 Y58.6001
G01 X86.4808 Y58.5915
G01 X86.4549 Y58.5815
G01 X86.4422 Y58.5760
G01 X86.4060 Y58.5589
G01 X86.3815 Y58.5458
G01 X86.3695 Y58.5388
G01 X86.3472 Y58.5252
G01 X86.3356 Y58.5177
G01 X86.3241 Y58.5098
G01 X86.3030 Y58.4944
G01 X86.2812 Y58.4773
G01 X86.2705 Y58.4684
G01 X86.2511 Y58.4509
G01 X86.2409 Y58.4415
G01 X86.2213 Y58.4219
G01 X86.1944 Y58.3922
G01 X86.1750 Y58.3684
G01 X86.1533 Y58.3904
G01 X86.1342 Y58.4083
G01 X86.1239 Y58.4176
G01 X86.1025 Y58.4352
G01 X86.0818 Y58.4512
G01 X86.0706 Y58.4594
G01 X86.0592 Y58.4673
G01 X86.0372 Y58.4815
G01 X86.0134 Y58.4958
G01 X86.0013 Y58.5025
G01 X85.9781 Y58.5145
G01 X85.9530 Y58.5264
G01 X85.9274 Y58.5371
G01 X85.9026 Y58.5466
G01 X85.8899 Y58.5510
G01 X85.7470 Y58.5986
G01 X85.7180 Y58.6074
G01 X85.6904 Y58.6148
G01 X85.6608 Y58.6212
G01 X85.6176 Y58.6282
G01 X85.5875 Y58.6315
G01 X85.5590 Y58.6332
G01 X85.5287 Y58.6340
G01 X85.2775 Y58.6339
G01 X85.2528 Y58.6329
G01 X85.2266 Y58.6311
G01 X85.2006 Y58.6280
G01 X85.1762 Y58.6245
G01 X85.1633 Y58.6222
G01 X85.1376 Y58.6168
G01 X85.1010 Y58.6075
G01 X85.0650 Y58.5960
G01 X85.0403 Y58.5871
G01 X85.0161 Y58.5770
G01 X84.9936 Y58.5669
G01 X84.8858 Y58.5131
G01 X84.7898 Y58.5611
G01 X84.7661 Y58.5723
G01 X84.7313 Y58.5871
G01 X84.6957 Y58.5997
G01 X84.6706 Y58.6075
G01 X84.6580 Y58.6109
G01 X84.6340 Y58.6168
G01 X84.6084 Y58.6222
G01 X84.5825 Y58.6264
G01 X84.5580 Y58.6297
G01 X84.5319 Y58.6321
G01 X84.5188 Y58.6329
G01 X84.4810 Y58.6340
G01 X84.2906 Y58.6340
G01 X84.2705 Y58.6337
G01 X84.2478 Y58.6327
G01 X84.2306 Y58.6314
G01 X84.2030 Y58.6284
G01 X84.1805 Y58.6252
G01 X84.1498 Y58.6195
G01 X84.1276 Y58.6145
G01 X84.1008 Y58.6074
G01 X84.0711 Y58.5981
G01 X84.0496 Y58.5906
G01 X84.0207 Y58.5791
G01 X83.9999 Y58.5698
G01 X83.9566 Y58.5485
G01 X83.9356 Y58.5595
G01 X83.9125 Y58.5708
G01 X83.8875 Y58.5817
G01 X83.8635 Y58.5910
G01 X83.8507 Y58.5957
G01 X83.8247 Y58.6041
G01 X83.7999 Y58.6111
G01 X83.7734 Y58.6176
G01 X83.7466 Y58.6229
G01 X83.7213 Y58.6271
G01 X83.6942 Y58.6304
G01 X83.6805 Y58.6316
G01 X83.6549 Y58.6333
G01 X83.6276 Y58.6340
G01 X83.6019 Y58.6336
G01 X83.5746 Y58.6323
G01 X83.5474 Y58.6297
G01 X83.5219 Y58.6264
G01 X83.5084 Y58.6243
G01 X83.4950 Y58.6218
G01 X83.4698 Y58.6165
G01 X83.4433 Y58.6100
G01 X83.4301 Y58.6062
G01 X83.3927 Y58.5941
G01 X83.3671 Y58.5845
G01 X83.3310 Y58.5688
G01 X83.3065 Y58.5567
G01 X83.2906 Y58.5481
G01 X83.2746 Y58.5567
G01 X83.2501 Y58.5688
G01 X83.2140 Y58.5845
G01 X83.1885 Y58.5941
G01 X83.1510 Y58.6062
G01 X83.1247 Y58.6134
G01 X83.1114 Y58.6165
G01 X83.0862 Y58.6218
G01 X83.0728 Y58.6243
G01 X83.0593 Y58.6264
G01 X83.0337 Y58.6297
G01 X83.0066 Y58.6323
G01 X82.9793 Y58.6336
G01 X82.9536 Y58.6340
G01 X82.9399 Y58.6338
G01 X82.9263 Y58.6333
G01 X82.9006 Y58.6316
G01 X82.8870 Y58.6304
G01 X82.8599 Y58.6271
G01 X82.8211 Y58.6204
G01 X82.7944 Y58.6145
G01 X82.7564 Y58.6041
G01 X82.7434 Y58.6001
G01 X82.7191 Y58.5915
G01 X82.6947 Y58.6001
G01 X82.6815 Y58.6043
G01 X82.6681 Y58.6082
G01 X82.6428 Y58.6147
G01 X82.6157 Y58.6208
G01 X82.6021 Y58.6233
G01 X82.5763 Y58.6273
G01 X82.5625 Y58.6292
G01 X82.5349 Y58.6319
G01 X82.4949 Y58.6339
G01 X82.4672 Y58.6339
G01 X82.4272 Y58.6319
G01 X82.3996 Y58.6292
G01 X82.3600 Y58.6233
G01 X82.3328 Y58.6179
G01 X82.3074 Y58.6117
G01 X82.2806 Y58.6043
G01 X82.2543 Y58.5956
G01 X82.2297 Y58.5866
G01 X82.2168 Y58.5815
G01 X82.1953 Y58.5720
G01 X82.1731 Y58.5817
G01 X82.1604 Y58.5869
G01 X82.1346 Y58.5962
G01 X82.1100 Y58.6043
G01 X82.0836 Y58.6117
G01 X82.0703 Y58.6150
G01 X82.0450 Y58.6206
G01 X82.0315 Y58.6232
G01 X82.0044 Y58.6274
G01 X81.9787 Y58.6305
G01 X81.9650 Y58.6318
G01 X81.9376 Y58.6333
G01 X81.9118 Y58.6340
G01 X81.8843 Y58.6335
G01 X81.8585 Y58.6320
G01 X81.8377 Y58.6302
G01 X81.8024 Y58.6434
G01 X81.7760 Y58.6521
G01 X81.7627 Y58.6560
G01 X81.7373 Y58.6625
G01 X81.7103 Y58.6685
G01 X81.6829 Y58.6732
G01 X81.6570 Y58.6769
G01 X81.6432 Y58.6784
G01 X81.6294 Y58.6796
G01 X81.6033 Y58.6810
G01 X81.5756 Y58.6816
G01 X81.5617 Y58.6815
G01 X81.5356 Y58.6803
G01 X81.5079 Y58.6782
G01 X81.4941 Y58.6767
G01 X81.4682 Y58.6730
G01 X81.4409 Y58.6682
G01 X81.4273 Y58.6653
G01 X81.4019 Y58.6591
G01 X81.3752 Y58.6517
G01 X81.3488 Y58.6430
G01 X81.3243 Y58.6340
G01 X81.2987 Y58.6233
G01 X81.2750 Y58.6123
G01 X81.2502 Y58.5998
G01 X81.2380 Y58.5931
G01 X81.2155 Y58.5798
G01 X81.1921 Y58.5649
G01 X81.1694 Y58.5489
G01 X81.1486 Y58.5332
G01 X81.1377 Y58.5245
G01 X81.1167 Y58.5063
G01 X81.0975 Y58.4886
G01 X81.0876 Y58.4789
G01 X81.0685 Y58.4588
G01 X81.0511 Y58.4393
G01 X81.0335 Y58.4178
G01 X81.0097 Y58.3857
G01 X80.9324 Y58.2701
G01 X80.9138 Y58.2932
G01 X80.8846 Y58.3257
G01 X80.8264 Y58.3842
G01 X80.8044 Y58.4050
G01 X80.7830 Y58.4240
G01 X80.7713 Y58.4336
G01 X80.7472 Y58.4520
G01 X80.7239 Y58.4686
G01 X80.7113 Y58.4769
G01 X80.6853 Y58.4926
G01 X80.6604 Y58.5066
G01 X80.6470 Y58.5135
G01 X80.5399 Y58.5669
G01 X80.5054 Y58.5822
G01 X80.4809 Y58.5917
G01 X80.4576 Y58.5997
G01 X80.4325 Y58.6075
G01 X80.3959 Y58.6168
G01 X80.3831 Y58.6196
G01 X80.3574 Y58.6245
G01 X80.3329 Y58.6280
G01 X80.3069 Y58.6311
G01 X80.2692 Y58.6334
G01 X80.2430 Y58.6340
G01 X79.8620 Y58.6340
G01 X79.8481 Y58.6339
G01 X79.8220 Y58.6327
G01 X79.8082 Y58.6319
G01 X79.7805 Y58.6292
G01 X79.7546 Y58.6255
G01 X79.7273 Y58.6208
G01 X79.7002 Y58.6147
G01 X79.6749 Y58.6082
G01 X79.6484 Y58.6001
G01 X79.6239 Y58.5915
G01 X79.5994 Y58.6001
G01 X79.5862 Y58.6043
G01 X79.5595 Y58.6117
G01 X79.5341 Y58.6179
G01 X79.5205 Y58.6208
G01 X79.4932 Y58.6255
G01 X79.4673 Y58.6292
G01 X79.4535 Y58.6307
G01 X79.4258 Y58.6327
G01 X79.3997 Y58.6339
G01 X79.3858 Y58.6340
G01 X79.3581 Y58.6333
G01 X79.3320 Y58.6319
G01 X79.3181 Y58.6307
G01 X79.2906 Y58.6273
G01 X79.2648 Y58.6233
G01 X79.2511 Y58.6208
G01 X79.2240 Y58.6147
G01 X79.1987 Y58.6082
G01 X79.1854 Y58.6043
G01 X79.1590 Y58.5956
G01 X79.1345 Y58.5866
G01 X79.1216 Y58.5815
G01 X79.1001 Y58.5720
G01 X79.0779 Y58.5817
G01 X79.0652 Y58.5869
G01 X79.0523 Y58.5917
G01 X79.0278 Y58.6001
G01 X79.0148 Y58.6043
G01 X78.9884 Y58.6117
G01 X78.9498 Y58.6206
G01 X78.9363 Y58.6232
G01 X78.9092 Y58.6274
G01 X78.8835 Y58.6305
G01 X78.8698 Y58.6318
G01 X78.8561 Y58.6327
G01 X78.8303 Y58.6337
G01 X78.8028 Y58.6339
G01 X78.7891 Y58.6335
G01 X78.7496 Y58.6309
G01 X78.7223 Y58.6278
G01 X78.6832 Y58.6214
G01 X78.6564 Y58.6157
G01 X78.6431 Y58.6123
G01 X78.6180 Y58.6055
G01 X78.6048 Y58.6014
G01 X78.5916 Y58.5971
G01 X78.5677 Y58.5883
G01 X78.5422 Y58.5781
G01 X78.5296 Y58.5725
G01 X78.5050 Y58.5607
G01 X78.4804 Y58.5723
G01 X78.4456 Y58.5871
G01 X78.4100 Y58.5997
G01 X78.3849 Y58.6075
G01 X78.3483 Y58.6168
G01 X78.3226 Y58.6222
G01 X78.2968 Y58.6264
G01 X78.2593 Y58.6311
G01 X78.2215 Y58.6334
G01 X78.1953 Y58.6340
G01 X77.8005 Y58.6339
G01 X77.7605 Y58.6319
G01 X77.7329 Y58.6292
G01 X77.6933 Y58.6233
G01 X77.6661 Y58.6179
G01 X77.6526 Y58.6147
G01 X77.6273 Y58.6082
G01 X77.6140 Y58.6043
G01 X77.6007 Y58.6001
G01 X77.5761 Y58.5915
G01 X77.5502 Y58.5815
G01 X77.5374 Y58.5760
G01 X77.5109 Y58.5636
G01 X77.5110 Y58.8032
G01 X77.5169 Y58.8285
G01 X77.5220 Y58.8562
G01 X77.5256 Y58.8840
G01 X77.5269 Y58.8980
G01 X77.5285 Y58.9260
G01 X77.5287 Y58.9541
G01 X77.5282 Y58.9681
G01 X77.5263 Y58.9961
G01 X77.5230 Y59.0240
G01 X77.5107 Y59.1082
G01 X77.5054 Y59.1357
G01 X77.4986 Y59.1630
G01 X77.4906 Y59.1899
G01 X77.4812 Y59.2163
G01 X77.4760 Y59.2294
G01 X77.4704 Y59.2423
G01 X77.4585 Y59.2677
G01 X77.4520 Y59.2801
G01 X77.4382 Y59.3046
G01 X77.4308 Y59.3165
G01 X77.4152 Y59.3399
G01 X77.3984 Y59.3624
G01 X77.3806 Y59.3841
G01 X77.3341 Y59.4377
G01 X77.3152 Y59.4585
G01 X77.2953 Y59.4783
G01 X77.2744 Y59.4970
G01 X77.2636 Y59.5060
G01 X77.2526 Y59.5148
G01 X77.2300 Y59.5314
G01 X77.2184 Y59.5393
G01 X77.1945 Y59.5541
G01 X77.1824 Y59.5611
G01 X77.1575 Y59.5742
G01 X77.1321 Y59.5860
G01 X77.1060 Y59.5966
G01 X77.0795 Y59.6058
G01 X76.9980 Y59.6299
G01 X76.9720 Y59.6369
G01 X76.9589 Y59.6399
G01 X76.9457 Y59.6426
G01 X76.9192 Y59.6471
G01 X76.8924 Y59.6503
G01 X76.8790 Y59.6514
G01 X76.8522 Y59.6527
G01 X0.8510 Y59.6528
G01 X0.8375 Y59.6527
G01 X0.8107 Y59.6514
G01 X0.7973 Y59.6503
G01 X0.7705 Y59.6471
G01 X0.7573 Y59.6450
G01 X0.7308 Y59.6399
G01 X0.6785 Y59.6285
G01 X0.6510 Y59.6218
G01 X0.6240 Y59.6138
G01 X0.6106 Y59.6093
G01 X0.5973 Y59.6044
G01 X0.5712 Y59.5937
G01 X0.5456 Y59.5817
G01 X0.5331 Y59.5752
G01 X0.5084 Y59.5613
G01 X0.4964 Y59.5539
G01 X0.4846 Y59.5462
G01 X0.4615 Y59.5299
G01 X0.4392 Y59.5125
G01 X0.3748 Y59.4569
G01 X0.3643 Y59.4476
G01 X0.3440 Y59.4281
G01 X0.3342 Y59.4181
G01 X0.3155 Y59.3972
G01 X0.2977 Y59.3754
G01 X0.2811 Y59.3528
G01 X0.2732 Y59.3411
G01 X0.2656 Y59.3293
G01 X0.2514 Y59.3052
G01 X0.2383 Y59.2803
G01 X0.2322 Y59.2677
G01 X0.2265 Y59.2549
G01 X0.2159 Y59.2288
G01 X0.2111 Y59.2156
G01 X0.2026 Y59.1889
G01 X0.1789 Y59.1078
G01 X0.1756 Y59.0948
G01 X0.1699 Y59.0685
G01 X0.1654 Y59.0420
G01 X0.1622 Y59.0152
G01 X0.1611 Y59.0018
G01 X0.1603 Y58.9884
G01 X0.1597 Y58.9615
G01 X0.1597 Y1.4295
G01 X0.1603 Y1.4026
G01 X0.1622 Y1.3758
G01 X0.1637 Y1.3624
G01 X0.1675 Y1.3358
G01 X0.1726 Y1.3093
G00 Z2.0000
G00 X0.3167 Y1.3407
G01 F50.00
G01 Z-0.1300
G01 F60.00
G01 X0.3304 Y1.2782
G01 X0.3330 Y1.2680
G01 X0.3390 Y1.2480
G01 X0.3459 Y1.2283
G01 X0.3538 Y1.2090
G01 X0.3627 Y1.1901
G01 X0.3725 Y1.1717
G01 X0.3833 Y1.1538
G01 X0.3949 Y1.1364
G01 X0.4073 Y1.1196
G01 X0.4138 Y1.1115
G01 X0.4740 Y1.0421
G01 X0.4883 Y1.0271
G01 X0.5034 Y1.0129
G01 X0.5112 Y1.0060
G01 X0.5273 Y0.9929
G01 X0.5356 Y0.9867
G01 X0.5526 Y0.9748
G01 X0.5702 Y0.9638
G01 X0.5883 Y0.9537
G01 X0.6069 Y0.9445
G01 X0.6260 Y0.9362
G01 X0.6454 Y0.9289
G01 X0.6652 Y0.9226
G01 X0.7333 Y0.9026
G01 X0.7622 Y0.8952
G01 X0.7915 Y0.8899
G01 X0.8113 Y0.8875
G01 X0.8311 Y0.8861
G01 X0.8510 Y0.8856
G01 X93.4985 Y0.8856
G01 X93.5184 Y0.8861
G01 X93.5382 Y0.8875
G01 X93.5678 Y0.8914
G01 X93.5873 Y0.8952
G01 X93.6397 Y0.9066
G01 X93.6600 Y0.9115
G01 X93.6800 Y0.9175
G01 X93.6899 Y0.9208
G01 X93.7094 Y0.9283
G01 X93.7190 Y0.9323
G01 X93.7285 Y0.9367
G01 X93.7472 Y0.9460
G01 X93.7563 Y0.9510
G01 X93.7742 Y0.9618
G01 X93.7916 Y0.9734
G01 X93.8084 Y0.9858
G01 X93.8165 Y0.9923
G01 X93.8781 Y1.0456
G01 X93.8859 Y1.0525
G01 X93.9009 Y1.0668
G01 X93.9081 Y1.0743
G01 X93.9220 Y1.0897
G01 X93.9351 Y1.1058
G01 X93.9474 Y1.1225
G01 X93.9532 Y1.1311
G01 X93.9642 Y1.1487
G01 X93.9694 Y1.1577
G01 X93.9790 Y1.1761
G01 X93.9878 Y1.1949
G01 X93.9918 Y1.2045
G01 X93.9991 Y1.2239
G01 X94.0054 Y1.2437
G01 X94.0281 Y1.3214
G01 X94.0348 Y1.3504
G01 X94.0381 Y1.3700
G01 X94.0413 Y1.3997
G01 X94.0424 Y1.4295
G01 X94.0424 Y58.9615
G01 X94.0419 Y58.9814
G01 X94.0405 Y59.0012
G01 X94.0366 Y59.0308
G01 X94.0328 Y59.0503
G01 X94.0214 Y59.1027
G01 X94.0165 Y59.1230
G01 X94.0105 Y59.1430
G01 X94.0072 Y59.1529
G01 X93.9997 Y59.1724
G01 X93.9957 Y59.1820
G01 X93.9868 Y59.2009
G01 X93.9820 Y59.2102
G01 X93.9770 Y59.2193
G01 X93.9662 Y59.2372
G01 X93.9546 Y59.2546
G01 X93.9485 Y59.2631
G01 X93.9357 Y59.2795
G01 X93.8824 Y59.3411
G01 X93.8684 Y59.3565
G01 X93.8537 Y59.3711
G01 X93.8383 Y59.3850
G01 X93.8303 Y59.3916
G01 X93.8139 Y59.4043
G01 X93.7969 Y59.4162
G01 X93.7882 Y59.4218
G01 X93.7703 Y59.4324
G01 X93.7519 Y59.4420
G01 X93.7331 Y59.4508
G01 X93.7235 Y59.4548
G01 X93.7041 Y59.4621
G01 X93.6843 Y59.4684
G01 X93.6066 Y59.4911
G01 X93.5776 Y59.4978
G01 X93.5481 Y59.5024
G01 X93.5283 Y59.5043
G01 X93.4985 Y59.5054
G01 X92.8883 Y59.5054
G01 X92.8684 Y59.5049
G01 X92.8306 Y59.5022
G01 X92.8109 Y59.4998
G01 X92.7815 Y59.4945
G01 X92.7526 Y59.4871
G01 X92.7243 Y59.4777
G01 X92.6968 Y59.4663
G01 X92.6228 Y59.4324
G01 X92.6135 Y59.4277
G01 X92.5953 Y59.4177
G01 X92.5777 Y59.4068
G01 X92.5690 Y59.4011
G01 X92.5522 Y59.3889
G01 X92.5361 Y59.3759
G01 X92.5206 Y59.3621
G01 X92.5057 Y59.3476
G01 X92.4917 Y59.3323
G01 X92.4784 Y59.3164
G01 X92.4659 Y59.2998
G01 X92.4542 Y59.2826
G01 X92.4104 Y59.2141
G01 X92.4000 Y59.1961
G01 X92.3906 Y59.1776
G01 X92.3862 Y59.1682
G01 X92.3782 Y59.1491
G01 X92.3745 Y59.1394
G01 X92.3679 Y59.1197
G01 X92.3650 Y59.1097
G01 X92.3599 Y59.0896
G01 X92.3558 Y59.0693
G01 X92.3527 Y59.0488
G01 X92.3507 Y59.0281
G01 X92.3500 Y59.0177
G01 X92.3495 Y58.9970
G01 X92.3495 Y58.9260
G01 X92.3506 Y58.8962
G01 X92.3525 Y58.8764
G01 X92.3571 Y58.8469
G01 X92.3634 Y58.8194
G01 X92.3634 Y58.1464
G01 X92.3538 Y58.1603
G01 X92.3393 Y58.1802
G01 X92.3253 Y58.1976
G01 X92.3179 Y58.2060
G01 X92.3013 Y58.2243
G01 X92.2935 Y58.2323
G01 X92.2459 Y58.2799
G01 X92.2379 Y58.2877
G01 X92.2197 Y58.3043
G01 X92.2026 Y58.3188
G01 X92.1938 Y58.3257
G01 X92.1739 Y58.3402
G01 X92.1647 Y58.3466
G01 X92.1459 Y58.3588
G01 X92.1148 Y58.3765
G01 X92.0096 Y58.4292
G01 X91.9814 Y58.4422
G01 X91.9545 Y58.4530
G01 X91.9344 Y58.4599
G01 X91.9159 Y58.4657
G01 X91.8858 Y58.4732
G01 X91.8669 Y58.4772
G01 X91.8478 Y58.4804
G01 X91.8267 Y58.4832
G01 X91.8074 Y58.4850
G01 X91.7861 Y58.4861
G01 X91.7668 Y58.4865
G01 X91.3858 Y58.4865
G01 X91.3653 Y58.4860
G01 X91.3428 Y58.4848
G01 X91.3224 Y58.4828
G01 X91.3001 Y58.4796
G01 X91.2799 Y58.4761
G01 X91.2599 Y58.4716
G01 X91.2381 Y58.4660
G01 X91.2184 Y58.4601
G01 X91.1876 Y58.4490
G01 X91.1715 Y58.4424
G01 X91.1555 Y58.4490
G01 X91.1246 Y58.4601
G01 X91.1050 Y58.4660
G01 X91.0732 Y58.4740
G01 X91.0531 Y58.4780
G01 X91.0308 Y58.4814
G01 X91.0105 Y58.4839
G01 X90.9900 Y58.4854
G01 X90.9572 Y58.4865
G01 X90.4810 Y58.4865
G01 X90.4483 Y58.4854
G01 X90.4380 Y58.4848
G01 X90.4176 Y58.4828
G01 X90.3953 Y58.4796
G01 X90.3751 Y58.4761
G01 X90.3432 Y58.4686
G01 X90.3333 Y58.4660
G01 X90.3137 Y58.4601
G01 X90.2828 Y58.4490
G01 X90.2639 Y58.4412
G01 X90.2545 Y58.4369
G01 X90.2251 Y58.4224
G01 X90.1945 Y58.4046
G01 X90.1765 Y58.4111
G01 X90.0230 Y58.4621
G01 X89.9885 Y58.4716
G01 X89.9666 Y58.4763
G01 X89.9556 Y58.4783
G01 X89.9312 Y58.4821
G01 X89.9201 Y58.4834
G01 X89.8978 Y58.4852
G01 X89.8732 Y58.4864
G01 X89.7668 Y58.4865
G01 X89.7444 Y58.4859
G01 X89.7198 Y58.4845
G01 X89.6975 Y58.4821
G01 X89.6622 Y58.4763
G01 X89.6403 Y58.4716
G01 X89.6165 Y58.4652
G01 X89.5951 Y58.4587
G01 X89.4522 Y58.4111
G01 X89.4340 Y58.4045
G01 X89.4142 Y58.3967
G01 X89.3877 Y58.3847
G01 X89.3602 Y58.3706
G01 X89.3336 Y58.3547
G01 X89.3174 Y58.3441
G01 X89.2924 Y58.3258
G01 X89.2772 Y58.3138
G01 X89.2626 Y58.3011
G01 X89.2402 Y58.2801
G01 X89.2220 Y58.3022
G01 X89.2079 Y58.3175
G01 X89.1918 Y58.3339
G01 X89.1765 Y58.3481
G01 X89.1510 Y58.3696
G01 X89.1343 Y58.3822
G01 X89.1068 Y58.4010
G01 X89.0890 Y58.4119
G01 X89.0597 Y58.4279
G01 X89.0409 Y58.4370
G01 X89.0102 Y58.4500
G01 X88.9906 Y58.4571
G01 X88.9587 Y58.4670
G01 X88.9385 Y58.4721
G01 X88.9058 Y58.4788
G01 X88.8851 Y58.4819
G01 X88.8519 Y58.4852
G01 X88.8415 Y58.4859
G01 X88.8206 Y58.4864
G01 X88.7873 Y58.4859
G01 X88.7540 Y58.4831
G01 X88.7333 Y58.4805
G01 X88.7005 Y58.4743
G01 X88.6802 Y58.4697
G01 X88.6601 Y58.4640
G01 X88.6283 Y58.4537
G01 X88.5974 Y58.4412
G01 X88.5784 Y58.4326
G01 X88.5489 Y58.4170
G01 X88.5308 Y58.4066
G01 X88.5220 Y58.4010
G01 X88.4944 Y58.3822
G01 X88.4778 Y58.3696
G01 X88.4523 Y58.3481
G01 X88.4445 Y58.3411
G01 X88.4301 Y58.3270
G01 X88.4120 Y58.3402
G01 X88.3935 Y58.3528
G01 X88.3743 Y58.3644
G01 X88.3529 Y58.3765
G01 X88.2477 Y58.4292
G01 X88.2301 Y58.4375
G01 X88.2106 Y58.4460
G01 X88.1926 Y58.4530
G01 X88.1725 Y58.4599
G01 X88.1540 Y58.4657
G01 X88.1352 Y58.4706
G01 X88.1145 Y58.4753
G01 X88.0954 Y58.4789
G01 X88.0744 Y58.4820
G01 X88.0551 Y58.4842
G01 X88.0242 Y58.4861
G01 X88.0049 Y58.4865
G01 X87.6239 Y58.4865
G01 X87.6034 Y58.4860
G01 X87.5707 Y58.4839
G01 X87.5503 Y58.4814
G01 X87.5281 Y58.4780
G01 X87.5080 Y58.4740
G01 X87.4980 Y58.4716
G01 X87.4762 Y58.4660
G01 X87.4572 Y58.4603
G01 X87.4383 Y58.4660
G01 X87.4165 Y58.4716
G01 X87.4065 Y58.4740
G01 X87.3864 Y58.4780
G01 X87.3641 Y58.4814
G01 X87.3438 Y58.4839
G01 X87.3233 Y58.4854
G01 X87.3008 Y58.4864
G01 X86.7191 Y58.4865
G01 X86.6986 Y58.4860
G01 X86.6761 Y58.4848
G01 X86.6557 Y58.4828
G01 X86.6334 Y58.4796
G01 X86.6132 Y58.4761
G01 X86.5932 Y58.4716
G01 X86.5714 Y58.4660
G01 X86.5518 Y58.4601
G01 X86.5305 Y58.4526
G01 X86.5114 Y58.4452
G01 X86.4926 Y58.4369
G01 X86.4723 Y58.4272
G01 X86.4542 Y58.4175
G01 X86.4348 Y58.4060
G01 X86.4175 Y58.3950
G01 X86.4007 Y58.3832
G01 X86.3827 Y58.3697
G01 X86.3669 Y58.3567
G01 X86.3501 Y58.3417
G01 X86.3352 Y58.3275
G01 X86.3211 Y58.3127
G01 X86.3061 Y58.2959
G01 X86.2930 Y58.2800
G01 X86.2795 Y58.2620
G01 X86.2677 Y58.2453
G01 X86.2567 Y58.2279
G01 X86.2453 Y58.2085
G01 X86.2356 Y58.1904
G01 X86.2259 Y58.1701
G01 X86.2175 Y58.1514
G01 X86.2060 Y58.1207
G01 X86.1996 Y58.1012
G01 X86.1941 Y58.0815
G01 X86.1889 Y58.0601
G01 X86.1821 Y58.0804
G01 X86.1748 Y58.0996
G01 X86.1658 Y58.1202
G01 X86.1571 Y58.1388
G01 X86.1475 Y58.1569
G01 X86.1310 Y58.1852
G01 X86.1196 Y58.2023
G01 X86.1066 Y58.2207
G01 X86.0940 Y58.2369
G01 X86.0795 Y58.2541
G01 X86.0657 Y58.2693
G01 X86.0513 Y58.2838
G01 X86.0349 Y58.2993
G01 X86.0194 Y58.3128
G01 X86.0018 Y58.3268
G01 X85.9853 Y58.3390
G01 X85.9683 Y58.3505
G01 X85.9492 Y58.3625
G01 X85.9314 Y58.3726
G01 X85.9223 Y58.3774
G01 X85.8929 Y58.3918
G01 X85.8739 Y58.3997
G01 X85.8526 Y58.4078
G01 X85.7004 Y58.4587
G01 X85.6789 Y58.4652
G01 X85.6551 Y58.4716
G01 X85.6333 Y58.4763
G01 X85.6090 Y58.4804
G01 X85.5868 Y58.4834
G01 X85.5645 Y58.4852
G01 X85.5399 Y58.4864
G01 X85.5287 Y58.4865
G01 X85.2809 Y58.4864
G01 X85.2500 Y58.4850
G01 X85.2307 Y58.4832
G01 X85.2000 Y58.4789
G01 X85.1810 Y58.4753
G01 X85.1508 Y58.4682
G01 X85.1230 Y58.4599
G01 X85.0938 Y58.4496
G01 X85.0653 Y58.4375
G01 X85.0478 Y58.4292
G01 X84.9426 Y58.3765
G01 X84.9114 Y58.3587
G01 X84.9019 Y58.3528
G01 X84.8858 Y58.3419
G01 X84.8697 Y58.3528
G01 X84.8602 Y58.3587
G01 X84.8290 Y58.3765
G01 X84.7151 Y58.4335
G01 X84.6957 Y58.4422
G01 X84.6778 Y58.4496
G01 X84.6486 Y58.4599
G01 X84.6301 Y58.4657
G01 X84.6114 Y58.4706
G01 X84.5907 Y58.4753
G01 X84.5716 Y58.4789
G01 X84.5506 Y58.4820
G01 X84.5313 Y58.4842
G01 X84.5120 Y58.4856
G01 X84.4810 Y58.4865
G01 X84.2803 Y58.4864
G01 X84.2551 Y58.4854
G01 X84.2343 Y58.4836
G01 X84.2108 Y58.4806
G01 X84.1902 Y58.4772
G01 X84.1586 Y58.4702
G01 X84.1384 Y58.4648
G01 X84.1076 Y58.4547
G01 X84.0881 Y58.4474
G01 X84.0720 Y58.4406
G01 X84.0478 Y58.4292
G01 X83.9478 Y58.3792
G01 X83.9242 Y58.3959
G01 X83.8968 Y58.4129
G01 X83.8792 Y58.4228
G01 X83.8594 Y58.4327
G01 X83.8411 Y58.4412
G01 X83.8111 Y58.4531
G01 X83.7921 Y58.4598
G01 X83.7727 Y58.4656
G01 X83.7513 Y58.4714
G01 X83.7316 Y58.4757
G01 X83.6998 Y58.4812
G01 X83.6798 Y58.4836
G01 X83.6476 Y58.4860
G01 X83.6274 Y58.4865
G01 X83.5952 Y58.4858
G01 X83.5751 Y58.4843
G01 X83.5530 Y58.4818
G01 X83.5331 Y58.4789
G01 X83.5133 Y58.4750
G01 X83.4916 Y58.4702
G01 X83.4625 Y58.4619
G01 X83.4415 Y58.4549
G01 X83.4226 Y58.4478
G01 X83.4022 Y58.4391
G01 X83.3839 Y58.4306
G01 X83.3660 Y58.4212
G01 X83.3467 Y58.4104
G01 X83.3211 Y58.3941
G01 X83.3029 Y58.3815
G01 X83.2906 Y58.3721
G01 X83.2782 Y58.3815
G01 X83.2600 Y58.3941
G01 X83.2345 Y58.4104
G01 X83.2151 Y58.4212
G01 X83.1973 Y58.4306
G01 X83.1789 Y58.4391
G01 X83.1586 Y58.4478
G01 X83.1397 Y58.4549
G01 X83.1186 Y58.4619
G01 X83.0895 Y58.4702
G01 X83.0679 Y58.4750
G01 X83.0481 Y58.4789
G01 X83.0281 Y58.4818
G01 X83.0061 Y58.4843
G01 X82.9759 Y58.4861
G01 X82.9537 Y58.4865
G01 X82.9335 Y58.4860
G01 X82.9114 Y58.4845
G01 X82.8913 Y58.4825
G01 X82.8714 Y58.4796
G01 X82.8495 Y58.4757
G01 X82.8298 Y58.4714
G01 X82.8084 Y58.4656
G01 X82.7795 Y58.4566
G01 X82.7494 Y58.4451
G01 X82.7309 Y58.4371
G01 X82.7192 Y58.4314
G01 X82.6888 Y58.4452
G01 X82.6697 Y58.4526
G01 X82.6484 Y58.4601
G01 X82.6288 Y58.4660
G01 X82.6189 Y58.4686
G01 X82.5970 Y58.4740
G01 X82.5769 Y58.4780
G01 X82.5546 Y58.4814
G01 X82.5343 Y58.4839
G01 X82.5016 Y58.4860
G01 X82.4913 Y58.4864
G01 X82.4708 Y58.4864
G01 X82.4483 Y58.4854
G01 X82.4278 Y58.4839
G01 X82.4075 Y58.4814
G01 X82.3751 Y58.4761
G01 X82.3432 Y58.4686
G01 X82.3333 Y58.4660
G01 X82.3137 Y58.4601
G01 X82.2828 Y58.4490
G01 X82.2639 Y58.4412
G01 X82.2545 Y58.4369
G01 X82.2251 Y58.4224
G01 X82.1954 Y58.4052
G01 X82.1728 Y58.4183
G01 X82.1550 Y58.4279
G01 X82.1366 Y58.4367
G01 X82.1068 Y58.4495
G01 X82.0762 Y58.4602
G01 X82.0569 Y58.4662
G01 X82.0372 Y58.4712
G01 X82.0154 Y58.4761
G01 X81.9955 Y58.4797
G01 X81.9633 Y58.4839
G01 X81.9431 Y58.4855
G01 X81.9107 Y58.4865
G01 X81.8904 Y58.4862
G01 X81.8580 Y58.4841
G01 X81.8379 Y58.4818
G01 X81.8159 Y58.4783
G01 X81.7835 Y58.4931
G01 X81.7528 Y58.5045
G01 X81.7333 Y58.5109
G01 X81.7235 Y58.5138
G01 X81.6917 Y58.5217
G01 X81.6816 Y58.5238
G01 X81.6614 Y58.5273
G01 X81.6289 Y58.5316
G01 X81.5962 Y58.5337
G01 X81.5860 Y58.5340
G01 X81.5655 Y58.5340
G01 X81.5430 Y58.5330
G01 X81.5225 Y58.5315
G01 X81.4900 Y58.5271
G01 X81.4698 Y58.5236
G01 X81.4498 Y58.5191
G01 X81.4181 Y58.5106
G01 X81.3987 Y58.5042
G01 X81.3775 Y58.4964
G01 X81.3586 Y58.4886
G01 X81.3382 Y58.4790
G01 X81.3199 Y58.4698
G01 X81.3020 Y58.4597
G01 X81.2828 Y58.4479
G01 X81.2657 Y58.4365
G01 X81.2394 Y58.4170
G01 X81.2236 Y58.4040
G01 X81.1993 Y58.3819
G01 X81.1848 Y58.3674
G01 X81.1779 Y58.3599
G01 X81.1562 Y58.3352
G01 X81.1363 Y58.3092
G01 X81.1245 Y58.2924
G01 X80.9224 Y57.9891
G01 X80.8714 Y58.0912
G01 X80.8609 Y58.1109
G01 X80.8486 Y58.1323
G01 X80.8426 Y58.1418
G01 X80.8300 Y58.1603
G01 X80.8155 Y58.1802
G01 X80.8015 Y58.1976
G01 X80.7941 Y58.2060
G01 X80.7775 Y58.2243
G01 X80.7697 Y58.2323
G01 X80.7141 Y58.2877
G01 X80.6874 Y58.3116
G01 X80.6700 Y58.3257
G01 X80.6501 Y58.3402
G01 X80.6316 Y58.3528
G01 X80.6124 Y58.3644
G01 X80.5909 Y58.3765
G01 X80.4858 Y58.4292
G01 X80.4682 Y58.4375
G01 X80.4487 Y58.4460
G01 X80.4307 Y58.4530
G01 X80.4013 Y58.4629
G01 X80.3827 Y58.4682
G01 X80.3620 Y58.4732
G01 X80.3431 Y58.4772
G01 X80.3239 Y58.4804
G01 X80.3029 Y58.4832
G01 X80.2836 Y58.4850
G01 X80.2623 Y58.4861
G01 X80.2430 Y58.4865
G01 X79.8620 Y58.4865
G01 X79.8415 Y58.4860
G01 X79.8190 Y58.4848
G01 X79.7986 Y58.4828
G01 X79.7662 Y58.4780
G01 X79.7460 Y58.4740
G01 X79.7142 Y58.4660
G01 X79.6946 Y58.4601
G01 X79.6638 Y58.4490
G01 X79.6448 Y58.4412
G01 X79.6239 Y58.4314
G01 X79.5936 Y58.4452
G01 X79.5744 Y58.4526
G01 X79.5532 Y58.4601
G01 X79.5336 Y58.4660
G01 X79.5236 Y58.4686
G01 X79.4917 Y58.4761
G01 X79.4715 Y58.4796
G01 X79.4492 Y58.4828
G01 X79.4390 Y58.4839
G01 X79.4186 Y58.4854
G01 X79.3858 Y58.4865
G01 X79.3653 Y58.4860
G01 X79.3428 Y58.4848
G01 X79.3224 Y58.4828
G01 X79.3122 Y58.4814
G01 X79.2799 Y58.4761
G01 X79.2480 Y58.4686
G01 X79.2282 Y58.4632
G01 X79.2184 Y58.4601
G01 X79.1876 Y58.4490
G01 X79.1686 Y58.4412
G01 X79.1593 Y58.4369
G01 X79.1299 Y58.4224
G01 X79.1002 Y58.4052
G01 X79.0776 Y58.4183
G01 X79.0597 Y58.4279
G01 X79.0414 Y58.4367
G01 X79.0210 Y58.4457
G01 X79.0021 Y58.4530
G01 X78.9810 Y58.4602
G01 X78.9518 Y58.4688
G01 X78.9301 Y58.4739
G01 X78.9102 Y58.4780
G01 X78.8902 Y58.4811
G01 X78.8681 Y58.4839
G01 X78.8377 Y58.4859
G01 X78.8154 Y58.4865
G01 X78.7951 Y58.4862
G01 X78.7729 Y58.4848
G01 X78.7527 Y58.4830
G01 X78.7206 Y58.4783
G01 X78.6908 Y58.4723
G01 X78.6692 Y58.4667
G01 X78.6496 Y58.4609
G01 X78.6305 Y58.4543
G01 X78.6097 Y58.4465
G01 X78.5819 Y58.4341
G01 X78.5619 Y58.4242
G01 X78.5441 Y58.4145
G01 X78.5251 Y58.4029
G01 X78.5101 Y58.3932
G01 X78.4294 Y58.4335
G01 X78.4011 Y58.4460
G01 X78.3831 Y58.4530
G01 X78.3629 Y58.4599
G01 X78.3444 Y58.4657
G01 X78.3144 Y58.4732
G01 X78.2859 Y58.4789
G01 X78.2552 Y58.4832
G01 X78.2263 Y58.4856
G01 X78.1953 Y58.4865
G01 X77.8144 Y58.4865
G01 X77.7939 Y58.4860
G01 X77.7714 Y58.4848
G01 X77.7612 Y58.4839
G01 X77.7408 Y58.4814
G01 X77.7085 Y58.4761
G01 X77.6884 Y58.4716
G01 X77.6568 Y58.4632
G01 X77.6257 Y58.4526
G01 X77.6066 Y58.4452
G01 X77.5972 Y58.4412
G01 X77.5676 Y58.4272
G01 X77.5495 Y58.4175
G01 X77.5406 Y58.4123
G01 X77.5127 Y58.3950
G01 X77.4861 Y58.3759
G01 X77.4780 Y58.3697
G01 X77.4621 Y58.3567
G01 X77.4378 Y58.3347
G01 X77.4233 Y58.3202
G01 X77.4163 Y58.3127
G01 X77.3947 Y58.2880
G01 X77.3821 Y58.2719
G01 X77.3633 Y58.2457
G01 X77.3636 Y58.8233
G01 X77.3678 Y58.8383
G01 X77.3725 Y58.8585
G01 X77.3763 Y58.8790
G01 X77.3777 Y58.8892
G01 X77.3799 Y58.9099
G01 X77.3806 Y58.9202
G01 X77.3813 Y58.9410
G01 X77.3812 Y58.9513
G01 X77.3803 Y58.9721
G01 X77.3784 Y58.9927
G01 X77.3669 Y59.0733
G01 X77.3635 Y59.0938
G01 X77.3590 Y59.1140
G01 X77.3535 Y59.1341
G01 X77.3471 Y59.1538
G01 X77.3396 Y59.1732
G01 X77.3312 Y59.1921
G01 X77.3267 Y59.2015
G01 X77.3219 Y59.2107
G01 X77.3117 Y59.2287
G01 X77.3062 Y59.2376
G01 X77.2947 Y59.2548
G01 X77.2823 Y59.2715
G01 X77.2758 Y59.2796
G01 X77.2226 Y59.3411
G01 X77.2157 Y59.3489
G01 X77.2014 Y59.3639
G01 X77.1863 Y59.3781
G01 X77.1705 Y59.3916
G01 X77.1541 Y59.4043
G01 X77.1371 Y59.4162
G01 X77.1195 Y59.4272
G01 X77.1105 Y59.4324
G01 X77.1014 Y59.4373
G01 X77.0828 Y59.4465
G01 X77.0637 Y59.4548
G01 X77.0541 Y59.4586
G01 X77.0345 Y59.4654
G01 X76.9564 Y59.4884
G01 X76.9275 Y59.4958
G01 X76.9080 Y59.4996
G01 X76.8883 Y59.5024
G01 X76.8685 Y59.5043
G01 X76.8487 Y59.5052
G01 X0.8510 Y59.5054
G01 X0.8212 Y59.5043
G01 X0.8014 Y59.5024
G01 X0.7817 Y59.4996
G01 X0.7622 Y59.4958
G01 X0.7098 Y59.4844
G01 X0.6895 Y59.4795
G01 X0.6695 Y59.4735
G01 X0.6596 Y59.4702
G01 X0.6498 Y59.4666
G01 X0.6305 Y59.4587
G01 X0.6116 Y59.4498
G01 X0.6023 Y59.4450
G01 X0.5932 Y59.4400
G01 X0.5753 Y59.4292
G01 X0.5665 Y59.4236
G01 X0.5494 Y59.4115
G01 X0.5330 Y59.3987
G01 X0.4714 Y59.3454
G01 X0.4636 Y59.3385
G01 X0.4486 Y59.3242
G01 X0.4344 Y59.3091
G01 X0.4209 Y59.2933
G01 X0.4144 Y59.2852
G01 X0.4082 Y59.2769
G01 X0.3963 Y59.2599
G01 X0.3907 Y59.2512
G01 X0.3801 Y59.2333
G01 X0.3705 Y59.2149
G01 X0.3617 Y59.1961
G01 X0.3577 Y59.1865
G01 X0.3504 Y59.1671
G01 X0.3441 Y59.1473
G01 X0.3214 Y59.0696
G01 X0.3147 Y59.0406
G01 X0.3101 Y59.0111
G01 X0.3076 Y58.9814
G01 X0.3071 Y58.9615
G01 X0.3071 Y1.4295
G01 X0.3082 Y1.3997
G01 X0.3101 Y1.3799
G01 X0.3129 Y1.3602
G01 X0.3167 Y1.3407
G00 Z2.0000
G00 X0.4608 Y1.3720
G01 F50.00
G01 Z-0.1300
G01 F60.00
G01 X0.4737 Y1.3131
G01 X0.4792 Y1.2936
G01 X0.4837 Y1.2809
G01 X0.4889 Y1.2684
G01 X0.4946 Y1.2561
G01 X0.5010 Y1.2442
G01 X0.5116 Y1.2269
G01 X0.5194 Y1.2159
G01 X0.5277 Y1.2053
G01 X0.5830 Y1.1414
G01 X0.5923 Y1.1317
G01 X0.6071 Y1.1181
G01 X0.6175 Y1.1096
G01 X0.6283 Y1.1016
G01 X0.6453 Y1.0908
G01 X0.6570 Y1.0842
G01 X0.6690 Y1.0783
G01 X0.6814 Y1.0729
G01 X0.6939 Y1.0682
G01 X0.7067 Y1.0641
G01 X0.7748 Y1.0441
G01 X0.7935 Y1.0393
G01 X0.8062 Y1.0369
G01 X0.8253 Y1.0343
G01 X0.8381 Y1.0334
G01 X0.8510 Y1.0331
G01 X93.4985 Y1.0331
G01 X93.5114 Y1.0334
G01 X93.5242 Y1.0343
G01 X93.5433 Y1.0369
G01 X93.6083 Y1.0507
G01 X93.6214 Y1.0539
G01 X93.6408 Y1.0599
G01 X93.6596 Y1.0674
G01 X93.6779 Y1.0762
G01 X93.6954 Y1.0864
G01 X93.7066 Y1.0939
G01 X93.7227 Y1.1062
G01 X93.7816 Y1.1570
G01 X93.7915 Y1.1661
G01 X93.8010 Y1.1756
G01 X93.8142 Y1.1907
G01 X93.8264 Y1.2068
G01 X93.8372 Y1.2238
G01 X93.8438 Y1.2355
G01 X93.8497 Y1.2475
G01 X93.8551 Y1.2599
G01 X93.8598 Y1.2724
G01 X93.8639 Y1.2852
G01 X93.8857 Y1.3595
G01 X93.8900 Y1.3783
G01 X93.8921 Y1.3910
G01 X93.8942 Y1.4102
G01 X93.8949 Y1.4295
G01 X93.8949 Y58.9615
G01 X93.8942 Y58.9808
G01 X93.8930 Y58.9936
G01 X93.8911 Y59.0063
G01 X93.8773 Y59.0713
G01 X93.8741 Y59.0844
G01 X93.8681 Y59.1038
G01 X93.8606 Y59.1226
G01 X93.8518 Y59.1409
G01 X93.8416 Y59.1584
G01 X93.8301 Y59.1751
G01 X93.8218 Y59.1857
G01 X93.7710 Y59.2446
G01 X93.7619 Y59.2545
G01 X93.7475 Y59.2685
G01 X93.7373 Y59.2772
G01 X93.7266 Y59.2854
G01 X93.7156 Y59.2931
G01 X93.7042 Y59.3002
G01 X93.6865 Y59.3098
G01 X93.6743 Y59.3155
G01 X93.6556 Y59.3228
G01 X93.6428 Y59.3269
G01 X93.5747 Y59.3469
G01 X93.5622 Y59.3503
G01 X93.5497 Y59.3530
G01 X93.5370 Y59.3551
G01 X93.5242 Y59.3567
G01 X93.5114 Y59.3576
G01 X93.4985 Y59.3579
G01 X92.8883 Y59.3579
G01 X92.8754 Y59.3576
G01 X92.8510 Y59.3559
G01 X92.8319 Y59.3538
G01 X92.8192 Y59.3517
G01 X92.8066 Y59.3490
G01 X92.7942 Y59.3456
G01 X92.7819 Y59.3417
G01 X92.7639 Y59.3348
G01 X92.6934 Y59.3027
G01 X92.6754 Y59.2936
G01 X92.6638 Y59.2869
G01 X92.6526 Y59.2795
G01 X92.6364 Y59.2675
G01 X92.6262 Y59.2588
G01 X92.6164 Y59.2497
G01 X92.6070 Y59.2400
G01 X92.5982 Y59.2299
G01 X92.5898 Y59.2194
G01 X92.5783 Y59.2029
G01 X92.5364 Y59.1375
G01 X92.5265 Y59.1199
G01 X92.5207 Y59.1078
G01 X92.5155 Y59.0954
G01 X92.5110 Y59.0828
G01 X92.5070 Y59.0699
G01 X92.5023 Y59.0504
G01 X92.5000 Y59.0371
G01 X92.4983 Y59.0238
G01 X92.4971 Y59.0037
G01 X92.4970 Y58.9260
G01 X92.4973 Y58.9131
G01 X92.4989 Y58.8939
G01 X92.5019 Y58.8748
G01 X92.5062 Y58.8560
G01 X92.5108 Y58.8400
G01 X92.5108 Y52.9454
G01 X77.2132 Y52.9454
G01 X77.2132 Y58.8400
G01 X77.2193 Y58.8562
G01 X77.2233 Y58.8690
G01 X77.2267 Y58.8820
G01 X77.2294 Y58.8951
G01 X77.2315 Y58.9084
G01 X77.2329 Y58.9218
G01 X77.2337 Y58.9352
G01 X77.2335 Y58.9553
G01 X77.2326 Y58.9687
G01 X77.2311 Y58.9820
G01 X77.2209 Y59.0523
G01 X77.2187 Y59.0656
G01 X77.2158 Y59.0787
G01 X77.2123 Y59.0916
G01 X77.2081 Y59.1044
G01 X77.2006 Y59.1231
G01 X77.1949 Y59.1352
G01 X77.1886 Y59.1471
G01 X77.1780 Y59.1642
G01 X77.1703 Y59.1752
G01 X77.1577 Y59.1909
G01 X77.1112 Y59.2446
G01 X77.1021 Y59.2545
G01 X77.0926 Y59.2640
G01 X77.0826 Y59.2729
G01 X77.0722 Y59.2814
G01 X77.0614 Y59.2894
G01 X77.0502 Y59.2968
G01 X77.0386 Y59.3036
G01 X77.0267 Y59.3098
G01 X77.0145 Y59.3155
G01 X77.0021 Y59.3205
G01 X76.9894 Y59.3250
G01 X76.9087 Y59.3487
G01 X76.8962 Y59.3517
G01 X76.8835 Y59.3541
G01 X76.8708 Y59.3560
G01 X76.8580 Y59.3572
G01 X76.8387 Y59.3579
G01 X0.8510 Y59.3579
G01 X0.8381 Y59.3576
G01 X0.8253 Y59.3567
G01 X0.8062 Y59.3541
G01 X0.7412 Y59.3403
G01 X0.7281 Y59.3371
G01 X0.7087 Y59.3311
G01 X0.6899 Y59.3236
G01 X0.6716 Y59.3148
G01 X0.6541 Y59.3046
G01 X0.6374 Y59.2931
G01 X0.6268 Y59.2848
G01 X0.5679 Y59.2340
G01 X0.5580 Y59.2249
G01 X0.5440 Y59.2105
G01 X0.5353 Y59.2003
G01 X0.5231 Y59.1842
G01 X0.5123 Y59.1672
G01 X0.5057 Y59.1555
G01 X0.4998 Y59.1435
G01 X0.4944 Y59.1311
G01 X0.4897 Y59.1186
G01 X0.4856 Y59.1058
G01 X0.4638 Y59.0315
G01 X0.4595 Y59.0127
G01 X0.4565 Y58.9936
G01 X0.4549 Y58.9744
G01 X0.4546 Y58.9615
G01 X0.4546 Y1.4295
G01 X0.4549 Y1.4166
G01 X0.4565 Y1.3974
G01 X0.4584 Y1.3847
G01 X0.4608 Y1.3720
G00 Z2.0000
G00 X0.6049 Y1.4034
G01 F50.00
G01 Z-0.1300
G01 F60.00
G01 X0.6177 Y1.3451
G01 X0.6227 Y1.3305
G01 X0.6294 Y1.3167
G01 X0.6359 Y1.3063
G01 X0.6415 Y1.2990
G01 X0.6900 Y1.2430
G01 X0.7007 Y1.2321
G01 X0.7101 Y1.2244
G01 X0.7203 Y1.2177
G01 X0.7311 Y1.2120
G01 X0.7424 Y1.2074
G01 X0.8220 Y1.1841
G01 X0.8364 Y1.1815
G01 X0.8510 Y1.1806
G01 X93.4985 Y1.1806
G01 X93.5102 Y1.1812
G01 X93.5218 Y1.1828
G01 X93.5829 Y1.1962
G01 X93.5917 Y1.1990
G01 X93.6003 Y1.2024
G01 X93.6086 Y1.2064
G01 X93.6165 Y1.2110
G01 X93.6290 Y1.2200
G01 X93.6895 Y1.2726
G01 X93.6959 Y1.2792
G01 X93.7017 Y1.2862
G01 X93.7103 Y1.2988
G01 X93.7160 Y1.3096
G01 X93.7215 Y1.3238
G01 X93.7424 Y1.3949
G01 X93.7446 Y1.4034
G01 X93.7461 Y1.4120
G01 X93.7471 Y1.4207
G01 X93.7474 Y1.4295
G01 X93.7474 Y58.9615
G01 X93.7468 Y58.9732
G01 X93.7452 Y58.9848
G01 X93.7318 Y59.0459
G01 X93.7290 Y59.0547
G01 X93.7256 Y59.0633
G01 X93.7216 Y59.0716
G01 X93.7170 Y59.0795
G01 X93.7080 Y59.0920
G01 X93.6575 Y59.1503
G01 X93.6465 Y59.1609
G01 X93.6343 Y59.1701
G01 X93.6211 Y59.1777
G01 X93.6071 Y59.1836
G01 X93.5331 Y59.2054
G01 X93.5189 Y59.2087
G01 X93.5102 Y59.2098
G01 X93.4985 Y59.2104
G01 X92.8824 Y59.2103
G01 X92.8587 Y59.2086
G01 X92.8500 Y59.2074
G01 X92.8385 Y59.2049
G01 X92.8274 Y59.2014
G01 X92.8193 Y59.1980
G01 X92.7519 Y59.1672
G01 X92.7387 Y59.1597
G01 X92.7288 Y59.1525
G01 X92.7219 Y59.1465
G01 X92.7154 Y59.1401
G01 X92.7058 Y59.1282
G01 X92.6624 Y59.0609
G01 X92.6566 Y59.0501
G01 X92.6529 Y59.0417
G01 X92.6490 Y59.0302
G01 X92.6463 Y59.0183
G01 X92.6451 Y59.0092
G01 X92.6445 Y59.0000
G01 X92.6445 Y58.9260
G01 X92.6448 Y58.9172
G01 X92.6462 Y58.9056
G01 X92.6479 Y58.8970
G01 X92.6583 Y58.8613
G01 X92.6583 Y52.7979
G01 X77.0657 Y52.7979
G01 X77.0657 Y58.8703
G01 X77.0663 Y58.8729
G01 X77.0776 Y58.8981
G01 X77.0824 Y58.9126
G01 X77.0843 Y58.9216
G01 X77.0856 Y58.9306
G01 X77.0863 Y58.9398
G01 X77.0862 Y58.9489
G01 X77.0851 Y58.9611
G01 X77.0745 Y59.0343
G01 X77.0710 Y59.0492
G01 X77.0657 Y59.0635
G01 X77.0587 Y59.0770
G01 X77.0501 Y59.0896
G01 X76.9977 Y59.1503
G01 X76.9867 Y59.1609
G01 X76.9771 Y59.1683
G01 X76.9640 Y59.1763
G01 X76.9530 Y59.1814
G01 X76.9415 Y59.1854
G01 X76.8705 Y59.2062
G01 X76.8620 Y59.2082
G01 X76.8504 Y59.2098
G01 X76.8387 Y59.2104
G01 X0.8510 Y59.2104
G01 X0.8393 Y59.2098
G01 X0.8277 Y59.2082
G01 X0.7666 Y59.1948
G01 X0.7578 Y59.1920
G01 X0.7492 Y59.1886
G01 X0.7409 Y59.1846
G01 X0.7330 Y59.1800
G01 X0.7205 Y59.1710
G01 X0.6600 Y59.1184
G01 X0.6536 Y59.1118
G01 X0.6478 Y59.1048
G01 X0.6392 Y59.0922
G01 X0.6323 Y59.0786
G01 X0.6280 Y59.0672
G01 X0.6071 Y58.9961
G01 X0.6049 Y58.9876
G01 X0.6034 Y58.9790
G01 X0.6024 Y58.9703
G01 X0.6021 Y58.9615
G01 X0.6021 Y1.4295
G01 X0.6027 Y1.4178
G01 X0.6049 Y1.4034
G00 Z2.0000
G00 X9.3158 Y2.5252
G01 F50.00
G01 Z-0.1300
G01 F60.00
G01 X9.3629 Y2.3839
G01 X9.4408 Y2.2579
G01 X9.5456 Y2.1533
G01 X9.6717 Y2.0756
G01 X9.8133 Y2.0286
G01 X9.8980 Y2.0199
G01 X10.1901 Y2.0199
G01 X10.1901 Y2.2821
G01 X9.9420 Y2.2821
G01 X9.9115 Y2.2835
G01 X9.9025 Y2.2842
G01 X9.8752 Y2.2882
G01 X9.8663 Y2.2899
G01 X9.8366 Y2.2973
G01 X9.8280 Y2.3000
G01 X9.7993 Y2.3105
G01 X9.7716 Y2.3234
G01 X9.7636 Y2.3276
G01 X9.7374 Y2.3433
G01 X9.7299 Y2.3484
G01 X9.7054 Y2.3667
G01 X9.6827 Y2.3872
G01 X9.6742 Y2.3957
G01 X9.6537 Y2.4184
G01 X9.6354 Y2.4429
G01 X9.6287 Y2.4529
G01 X9.6117 Y2.4819
G01 X9.5987 Y2.5095
G01 X9.5953 Y2.5179
G01 X9.5852 Y2.5468
G01 X9.5769 Y2.5793
G01 X9.5716 Y2.6125
G01 X9.5706 Y2.6215
G01 X9.5691 Y2.6520
G01 X9.5691 Y2.6781
G01 X9.3069 Y2.6781
G01 X9.3069 Y2.6109
G01 X9.3158 Y2.5252
G00 Z2.0000
G00 X9.3069 Y3.4319
G01 F50.00
G01 Z-0.1300
G01 F60.00
G01 X9.5691 Y3.4319
G01 X9.5691 Y3.4580
G01 X9.5705 Y3.4855
G01 X9.5712 Y3.4945
G01 X9.5763 Y3.5277
G01 X9.5843 Y3.5604
G01 X9.5953 Y3.5921
G01 X9.5999 Y3.6032
G01 X9.6131 Y3.6308
G01 X9.6303 Y3.6596
G01 X9.6500 Y3.6868
G01 X9.6577 Y3.6961
G01 X9.6783 Y3.7187
G01 X9.7054 Y3.7433
G01 X9.7299 Y3.7616
G01 X9.7399 Y3.7683
G01 X9.7662 Y3.7839
G01 X9.7965 Y3.7983
G01 X9.8049 Y3.8017
G01 X9.8338 Y3.8118
G01 X9.8634 Y3.8194
G01 X9.8752 Y3.8218
G01 X9.9085 Y3.8264
G01 X9.9420 Y3.8279
G01 X10.1901 Y3.8279
G01 X10.1901 Y4.0901
G01 X9.8981 Y4.0901
G01 X9.8122 Y4.0812
G01 X9.6709 Y4.0341
G01 X9.5449 Y3.9562
G01 X9.4401 Y3.8512
G01 X9.3624 Y3.7251
G01 X9.3156 Y3.5837
G01 X9.3069 Y3.4992
G01 X9.3069 Y3.4319
G00 Z2.0000
G00 X10.9439 Y4.0901
G01 F50.00
G01 Z-0.1300
G01 F60.00
G01 X10.9439 Y3.8279
G01 X11.1920 Y3.8279
G01 X11.2255 Y3.8264
G01 X11.2345 Y3.8254
G01 X11.2647 Y3.8207
G01 X11.2944 Y3.8135
G01 X11.3060 Y3.8100
G01 X11.3375 Y3.7983
G01 X11.3678 Y3.7839
G01 X11.3941 Y3.7683
G01 X11.4041 Y3.7616
G01 X11.4286 Y3.7433
G01 X11.4557 Y3.7187
G01 X11.4763 Y3.6961
G01 X11.4840 Y3.6868
G01 X11.5037 Y3.6596
G01 X11.5209 Y3.6308
G01 X11.5341 Y3.6032
G01 X11.5387 Y3.5921
G01 X11.5497 Y3.5604
G01 X11.5577 Y3.5277
G01 X11.5628 Y3.4945
G01 X11.5635 Y3.4855
G01 X11.5649 Y3.4580
G01 X11.5649 Y3.4319
G01 X11.8271 Y3.4319
G01 X11.8271 Y3.4991
G01 X11.8182 Y3.5848
G01 X11.7711 Y3.7261
G01 X11.6930 Y3.8523
G01 X11.5882 Y3.9569
G01 X11.4621 Y4.0346
G01 X11.3207 Y4.0814
G01 X11.2360 Y4.0901
G01 X10.9439 Y4.0901
G00 Z2.0000
G00 X10.9439 Y2.2821
G01 F50.00
G01 Z-0.1300
G01 F60.00
G01 X10.9439 Y2.0199
G01 X11.2359 Y2.0199
G01 X11.3218 Y2.0288
G01 X11.4631 Y2.0759
G01 X11.5893 Y2.1540
G01 X11.6939 Y2.2588
G01 X11.7714 Y2.3847
G01 X11.8184 Y2.5263
G01 X11.8271 Y2.6108
G01 X11.8271 Y2.6781
G01 X11.5649 Y2.6781
G01 X11.5649 Y2.6520
G01 X11.5635 Y2.6245
G01 X11.5628 Y2.6155
G01 X11.5577 Y2.5823
G01 X11.5497 Y2.5496
G01 X11.5387 Y2.5179
G01 X11.5341 Y2.5068
G01 X11.5209 Y2.4792
G01 X11.5037 Y2.4504
G01 X11.4840 Y2.4232
G01 X11.4763 Y2.4139
G01 X11.4557 Y2.3913
G01 X11.4286 Y2.3667
G01 X11.4041 Y2.3484
G01 X11.3941 Y2.3417
G01 X11.3678 Y2.3261
G01 X11.3375 Y2.3117
G01 X11.3060 Y2.3000
G01 X11.2944 Y2.2965
G01 X11.2647 Y2.2893
G01 X11.2345 Y2.2846
G01 X11.2255 Y2.2836
G01 X11.1920 Y2.2821
G01 X10.9439 Y2.2821
G00 Z2.0000
G00 X14.6111 Y4.2681
G01 F50.00
G01 Z-0.1300
G01 F60.00
G01 X14.6888 Y4.0714
G01 X14.8018 Y3.8852
G01 X14.9448 Y3.7205
G01 X15.1136 Y3.5820
G01 X15.3031 Y3.4742
G01 X15.5081 Y3.3998
G01 X15.7250 Y3.3606
G01 X15.7390 Y3.3599
G01 X16.6671 Y3.3599
G01 X16.6671 Y3.6221
G01 X15.8380 Y3.6222
G01 X15.7437 Y3.6270
G01 X15.6504 Y3.6407
G01 X15.6386 Y3.6431
G01 X15.5471 Y3.6661
G01 X15.4526 Y3.7000
G01 X15.3672 Y3.7402
G01 X15.3566 Y3.7459
G01 X15.2757 Y3.7945
G01 X15.1998 Y3.8506
G01 X15.1905 Y3.8582
G01 X15.1251 Y3.9175
G01 X15.1165 Y3.9261
G01 X15.0533 Y3.9961
G01 X14.9935 Y4.0767
G01 X14.9419 Y4.1628
G01 X14.9014 Y4.2480
G01 X14.8978 Y4.2564
G01 X14.8936 Y4.2681
G01 X14.6111 Y4.2681
G00 Z2.0000
G00 X15.2626 Y6.1302
G01 F50.00
G01 Z-0.1300
G01 F60.00
G01 X15.2978 Y6.0784
G01 X15.3081 Y6.0611
G01 X15.3142 Y6.0492
G01 X15.3198 Y6.0370
G01 X15.3247 Y6.0245
G01 X15.3290 Y6.0117
G01 X15.3326 Y5.9988
G01 X15.3356 Y5.9857
G01 X15.3380 Y5.9725
G01 X15.3397 Y5.9592
G01 X15.3410 Y5.9391
G01 X15.3429 Y5.8681
G01 X15.3429 Y5.8547
G01 X15.3423 Y5.8413
G01 X15.3410 Y5.8279
G01 X15.3390 Y5.8146
G01 X15.3349 Y5.7949
G01 X15.3313 Y5.7820
G01 X15.3270 Y5.7692
G01 X15.3195 Y5.7506
G01 X15.3106 Y5.7325
G01 X15.3040 Y5.7208
G01 X15.2696 Y5.6639
G01 X15.2865 Y5.6740
G01 X15.2982 Y5.6802
G01 X15.3900 Y5.7237
G01 X15.4085 Y5.7311
G01 X15.4917 Y5.7608
G01 X15.5043 Y5.7650
G01 X15.5170 Y5.7685
G01 X15.6027 Y5.7900
G01 X15.6157 Y5.7929
G01 X15.6287 Y5.7952
G01 X15.7161 Y5.8081
G01 X15.7293 Y5.8097
G01 X15.7425 Y5.8107
G01 X15.8307 Y5.8151
G01 X15.8440 Y5.8154
G01 X18.2440 Y5.8154
G01 X18.2573 Y5.8151
G01 X18.3455 Y5.8107
G01 X18.3587 Y5.8097
G01 X18.3719 Y5.8081
G01 X18.4593 Y5.7952
G01 X18.4723 Y5.7929
G01 X18.4853 Y5.7900
G01 X18.5774 Y5.7668
G01 X18.5963 Y5.7608
G01 X18.6795 Y5.7311
G01 X18.6980 Y5.7237
G01 X18.7898 Y5.6802
G01 X18.8015 Y5.6740
G01 X18.8247 Y5.6602
G01 X18.7902 Y5.7109
G01 X18.7799 Y5.7282
G01 X18.7737 Y5.7402
G01 X18.7682 Y5.7524
G01 X18.7633 Y5.7649
G01 X18.7590 Y5.7776
G01 X18.7554 Y5.7906
G01 X18.7523 Y5.8037
G01 X18.7500 Y5.8169
G01 X18.7483 Y5.8302
G01 X18.7470 Y5.8503
G01 X18.7450 Y5.9280
G01 X18.7457 Y5.9481
G01 X18.7470 Y5.9615
G01 X18.7489 Y5.9748
G01 X18.7516 Y5.9879
G01 X18.7548 Y6.0010
G01 X18.7609 Y6.0201
G01 X18.7685 Y6.0388
G01 X18.7773 Y6.0569
G01 X18.7840 Y6.0686
G01 X18.8190 Y6.1264
G01 X18.8015 Y6.1160
G01 X18.7898 Y6.1098
G01 X18.6980 Y6.0663
G01 X18.6795 Y6.0589
G01 X18.5963 Y6.0292
G01 X18.5837 Y6.0250
G01 X18.5710 Y6.0215
G01 X18.4853 Y6.0000
G01 X18.4723 Y5.9971
G01 X18.4593 Y5.9948
G01 X18.3719 Y5.9819
G01 X18.3587 Y5.9803
G01 X18.3455 Y5.9793
G01 X18.2573 Y5.9749
G01 X18.2440 Y5.9746
G01 X15.8440 Y5.9746
G01 X15.8307 Y5.9749
G01 X15.7425 Y5.9793
G01 X15.7293 Y5.9803
G01 X15.7161 Y5.9819
G01 X15.6287 Y5.9948
G01 X15.6157 Y5.9971
G01 X15.6027 Y6.0000
G01 X15.5106 Y6.0232
G01 X15.4917 Y6.0292
G01 X15.4085 Y6.0589
G01 X15.3900 Y6.0663
G01 X15.2982 Y6.1098
G01 X15.2865 Y6.1160
G01 X15.2626 Y6.1302
G00 Z2.0000
G00 X16.3734 Y8.5303
G01 F50.00
G01 Z-0.1300
G01 F60.00
G01 X16.3685 Y8.5161
G01 X16.3635 Y8.5037
G01 X16.3578 Y8.4915
G01 X16.3482 Y8.4738
G01 X16.3411 Y8.4624
G01 X16.3334 Y8.4514
G01 X16.3252 Y8.4407
G01 X16.3120 Y8.4256
G01 X16.3025 Y8.4161
G01 X16.2926 Y8.4070
G01 X16.2389 Y8.3605
G01 X16.2231 Y8.3479
G01 X16.2064 Y8.3364
G01 X16.1948 Y8.3295
G01 X16.1829 Y8.3231
G01 X16.1660 Y8.3154
G01 X16.3734 Y8.3154
G01 X16.3734 Y8.5303
G00 Z2.0000
G00 X17.9300 Y8.3154
G01 F50.00
G01 Z-0.1300
G01 F60.00
G01 X17.9151 Y8.3205
G01 X17.9027 Y8.3255
G01 X17.8845 Y8.3342
G01 X17.8728 Y8.3408
G01 X17.8614 Y8.3479
G01 X17.8504 Y8.3556
G01 X17.8346 Y8.3681
G01 X17.8246 Y8.3770
G01 X17.8151 Y8.3865
G01 X17.8060 Y8.3964
G01 X17.7595 Y8.4501
G01 X17.7469 Y8.4659
G01 X17.7391 Y8.4769
G01 X17.7285 Y8.4942
G01 X17.7221 Y8.5061
G01 X17.7146 Y8.5226
G01 X17.7146 Y8.3154
G01 X17.9300 Y8.3154
G00 Z2.0000
G00 X16.2908 Y11.2043
G01 F50.00
G01 Z-0.1300
G01 F60.00
G01 X16.3328 Y11.1557
G01 X16.3451 Y11.1396
G01 X16.3526 Y11.1284
G01 X16.3595 Y11.1168
G01 X16.3659 Y11.1049
G01 X16.3734 Y11.0884
G01 X16.3734 Y11.1217
G01 X16.2908 Y11.2043
G00 Z2.0000
G00 X16.1587 Y11.2954
G01 F50.00
G01 Z-0.1300
G01 F60.00
G01 X16.1791 Y11.2881
G01 X16.1915 Y11.2827
G01 X16.2035 Y11.2768
G01 X16.2152 Y11.2702
G01 X16.2266 Y11.2631
G01 X16.2376 Y11.2554
G01 X16.2466 Y11.2485
G01 X16.1997 Y11.2954
G01 X16.1587 Y11.2954
G00 Z2.0000
G00 X13.0230 Y11.2685
G01 F50.00
G01 Z-0.1300
G01 F60.00
G01 X13.0752 Y11.2954
G01 X13.0429 Y11.2954
G01 X13.0230 Y11.2685
G00 Z2.0000
G00 X13.0693 Y12.6366
G01 F50.00
G01 Z-0.1300
G01 F60.00
G01 X13.0485 Y12.6440
G01 X13.0319 Y12.6515
G01 X13.0429 Y12.6366
G01 X13.0693 Y12.6366
G00 Z2.0000
G00 X12.8418 Y12.8577
G01 F50.00
G01 Z-0.1300
G01 F60.00
G01 X12.8204 Y12.9048
G01 X12.8132 Y12.9233
G01 X12.8092 Y12.9359
G01 X12.8058 Y12.9487
G01 X12.8020 Y12.9682
G01 X12.8002 Y12.9813
G01 X12.7988 Y13.0004
G01 X12.7765 Y12.9533
G01 X12.7702 Y12.9416
G01 X12.7585 Y12.9219
G01 X12.8218 Y12.8749
G01 X12.8321 Y12.8664
G01 X12.8418 Y12.8577
G00 Z2.0000
G00 X11.5114 Y13.5428
G01 F50.00
G01 Z-0.1300
G01 F60.00
G01 X11.5110 Y13.5414
G01 X11.5107 Y13.5405
G01 X11.5114 Y13.5413
G01 X11.5114 Y13.5428
G00 Z2.0000
G00 X11.1078 Y13.1377
G01 F50.00
G01 Z-0.1300
G01 F60.00
G01 X11.1065 Y13.1370
G01 X11.1053 Y13.1364
G01 X11.1065 Y13.1364
G01 X11.1078 Y13.1377
G00 Z2.0000
G00 X11.2960 Y15.8171
G01 F50.00
G01 Z-0.1300
G01 F60.00
G01 X11.3109 Y15.8120
G01 X11.3233 Y15.8070
G01 X11.3415 Y15.7983
G01 X11.3532 Y15.7917
G01 X11.3646 Y15.7846
G01 X11.3756 Y15.7769
G01 X11.3863 Y15.7687
G01 X11.4014 Y15.7555
G01 X11.4109 Y15.7460
G01 X11.4200 Y15.7361
G01 X11.4665 Y15.6824
G01 X11.4791 Y15.6666
G01 X11.4906 Y15.6499
G01 X11.4975 Y15.6383
G01 X11.5039 Y15.6264
G01 X11.5114 Y15.6099
G01 X11.5114 Y15.8171
G01 X11.2960 Y15.8171
G00 Z2.0000
G00 X10.0948 Y16.2169
G01 F50.00
G01 Z-0.1300
G01 F60.00
G01 X10.1024 Y16.2144
G01 X10.1057 Y16.2132
G01 X10.1024 Y16.2169
G01 X10.0948 Y16.2169
G00 Z2.0000
G00 X10.1078 Y17.7641
G01 F50.00
G01 Z-0.1300
G01 F60.00
G01 X10.0962 Y17.7581
G01 X10.1024 Y17.7581
G01 X10.1078 Y17.7641
G00 Z2.0000
G00 X8.7286 Y17.7581
G01 F50.00
G01 Z-0.1300
G01 F60.00
G01 X8.7273 Y17.7585
G01 X8.7266 Y17.7588
G01 X8.7272 Y17.7581
G01 X8.7286 Y17.7581
G00 Z2.0000
G00 X7.4016 Y19.0837
G01 F50.00
G01 Z-0.1300
G01 F60.00
G01 X7.4010 Y19.0849
G01 X7.4006 Y19.0856
G01 X7.4006 Y19.0847
G01 X7.4016 Y19.0837
G00 Z2.0000
G00 X6.0070 Y18.7595
G01 F50.00
G01 Z-0.1300
G01 F60.00
G01 X6.0099 Y18.7044
G01 X6.0188 Y18.6439
G01 X6.0337 Y18.5846
G01 X6.0543 Y18.5270
G01 X6.0804 Y18.4717
G01 X6.1119 Y18.4193
G01 X6.1483 Y18.3702
G01 X6.1852 Y18.3292
G01 X7.9674 Y16.5469
G01 X8.0127 Y16.5058
G01 X8.0569 Y16.4728
G01 X8.0669 Y16.4661
G01 X8.1090 Y16.4409
G01 X8.1169 Y16.4365
G01 X8.1695 Y16.4118
G01 X8.2214 Y16.3931
G01 X8.2329 Y16.3896
G01 X8.2864 Y16.3763
G01 X8.3409 Y16.3681
G01 X8.3529 Y16.3669
G01 X8.4050 Y16.3644
G01 X10.1720 Y16.3643
G01 X10.1932 Y16.3363
G01 X10.2545 Y16.2686
G01 X10.2609 Y16.2621
G01 X10.3331 Y16.1968
G01 X10.4112 Y16.1387
G01 X10.4188 Y16.1338
G01 X10.4946 Y16.0884
G01 X10.5052 Y16.0827
G01 X10.5906 Y16.0425
G01 X10.6793 Y16.0105
G01 X10.6880 Y16.0078
G01 X10.7766 Y15.9856
G01 X10.7884 Y15.9832
G01 X10.8817 Y15.9695
G01 X10.9760 Y15.9647
G01 X11.6589 Y15.9646
G01 X11.6589 Y13.4802
G01 X11.1676 Y12.9889
G01 X9.6845 Y12.9889
G01 X9.5842 Y12.9840
G01 X9.4909 Y12.9703
G01 X9.4791 Y12.9679
G01 X9.3876 Y12.9449
G01 X9.2931 Y12.9110
G01 X9.2023 Y12.8681
G01 X9.1213 Y12.8197
G01 X9.1113 Y12.8130
G01 X9.0356 Y12.7567
G01 X8.9612 Y12.6893
G01 X8.8938 Y12.6149
G01 X8.8340 Y12.5343
G01 X8.7854 Y12.4534
G01 X8.7797 Y12.4428
G01 X8.7395 Y12.3574
G01 X8.7075 Y12.2687
G01 X8.7040 Y12.2571
G01 X8.6813 Y12.1656
G01 X8.6673 Y12.0722
G01 X8.6661 Y12.0602
G01 X8.6617 Y11.9720
G01 X8.6617 Y11.9600
G01 X8.6665 Y11.8657
G01 X8.6813 Y11.7664
G01 X8.7056 Y11.6691
G01 X8.7395 Y11.5746
G01 X8.7824 Y11.4838
G01 X8.8340 Y11.3977
G01 X8.8938 Y11.3171
G01 X8.9570 Y11.2471
G01 X8.9634 Y11.2406
G01 X9.0356 Y11.1753
G01 X9.1162 Y11.1155
G01 X9.2023 Y11.0639
G01 X9.2875 Y11.0234
G01 X9.2987 Y11.0188
G01 X9.3818 Y10.9890
G01 X9.3934 Y10.9855
G01 X9.4849 Y10.9628
G01 X9.5842 Y10.9480
G01 X9.6845 Y10.9431
G01 X12.0875 Y10.9431
G01 X12.1787 Y10.9476
G01 X12.1907 Y10.9488
G01 X12.2841 Y10.9628
G01 X12.3756 Y10.9855
G01 X12.3872 Y10.9890
G01 X12.4759 Y11.0210
G01 X12.5613 Y11.0612
G01 X12.5693 Y11.0653
G01 X12.6528 Y11.1155
G01 X12.7287 Y11.1716
G01 X12.7380 Y11.1792
G01 X12.8056 Y11.2406
G01 X12.8120 Y11.2471
G01 X12.8713 Y11.3125
G01 X12.8771 Y11.3194
G01 X12.9333 Y11.3952
G01 X12.9382 Y11.4028
G01 X12.9623 Y11.4429
G01 X16.2608 Y11.4429
G01 X16.5209 Y11.1828
G01 X16.5209 Y8.1679
G01 X15.8410 Y8.1679
G01 X15.7437 Y8.1630
G01 X15.6504 Y8.1493
G01 X15.6415 Y8.1476
G01 X15.5471 Y8.1239
G01 X15.4582 Y8.0922
G01 X15.4470 Y8.0876
G01 X15.3618 Y8.0471
G01 X15.2808 Y7.9987
G01 X15.2708 Y7.9920
G01 X15.1951 Y7.9357
G01 X15.1229 Y7.8704
G01 X15.1165 Y7.8639
G01 X15.0572 Y7.7985
G01 X15.0496 Y7.7892
G01 X14.9935 Y7.7133
G01 X14.9419 Y7.6272
G01 X14.8990 Y7.5364
G01 X14.8670 Y7.4477
G01 X14.8635 Y7.4361
G01 X14.8421 Y7.3504
G01 X14.8397 Y7.3386
G01 X14.8260 Y7.2453
G01 X14.8211 Y7.1450
G01 X14.8260 Y7.0447
G01 X14.8397 Y6.9514
G01 X14.8421 Y6.9396
G01 X14.8635 Y6.8539
G01 X14.8670 Y6.8423
G01 X14.8990 Y6.7536
G01 X14.9419 Y6.6628
G01 X14.9903 Y6.5818
G01 X14.9970 Y6.5718
G01 X15.0533 Y6.4961
G01 X15.1165 Y6.4261
G01 X15.1251 Y6.4175
G01 X15.1951 Y6.3543
G01 X15.2757 Y6.2945
G01 X15.3566 Y6.2459
G01 X15.3672 Y6.2402
G01 X15.4526 Y6.2000
G01 X15.5413 Y6.1680
G01 X15.5529 Y6.1645
G01 X15.6444 Y6.1418
G01 X15.7378 Y6.1278
G01 X15.7498 Y6.1266
G01 X15.8440 Y6.1221
G01 X18.2440 Y6.1221
G01 X18.3443 Y6.1270
G01 X18.4436 Y6.1418
G01 X18.5409 Y6.1661
G01 X18.6354 Y6.2000
G01 X18.7208 Y6.2402
G01 X18.7314 Y6.2459
G01 X18.8072 Y6.2913
G01 X18.8172 Y6.2980
G01 X18.8929 Y6.3543
G01 X18.9629 Y6.4175
G01 X18.9694 Y6.4239
G01 X19.0347 Y6.4961
G01 X19.0945 Y6.5767
G01 X19.1461 Y6.6628
G01 X19.1890 Y6.7536
G01 X19.2229 Y6.8481
G01 X19.2472 Y6.9454
G01 X19.2620 Y7.0447
G01 X19.2668 Y7.1390
G01 X19.2668 Y7.1510
G01 X19.2624 Y7.2392
G01 X19.2612 Y7.2512
G01 X19.2472 Y7.3446
G01 X19.2245 Y7.4361
G01 X19.2210 Y7.4477
G01 X19.1890 Y7.5364
G01 X19.1461 Y7.6272
G01 X19.0945 Y7.7133
G01 X19.0347 Y7.7939
G01 X18.9673 Y7.8683
G01 X18.8975 Y7.9318
G01 X18.8882 Y7.9394
G01 X18.8123 Y7.9955
G01 X18.7262 Y8.0471
G01 X18.6410 Y8.0876
G01 X18.6298 Y8.0922
G01 X18.5467 Y8.1220
G01 X18.5351 Y8.1255
G01 X18.4436 Y8.1482
G01 X18.3502 Y8.1622
G01 X18.3382 Y8.1634
G01 X18.2500 Y8.1678
G01 X17.5671 Y8.1679
G01 X17.5670 Y11.4055
G01 X17.5646 Y11.4508
G01 X17.5570 Y11.5016
G01 X17.5446 Y11.5513
G01 X17.5273 Y11.5997
G01 X17.5053 Y11.6461
G01 X17.4789 Y11.6901
G01 X17.4484 Y11.7314
G01 X17.4139 Y11.7694
G01 X16.8474 Y12.3359
G01 X16.8117 Y12.3684
G01 X16.8046 Y12.3741
G01 X16.7681 Y12.4009
G01 X16.7293 Y12.4244
G01 X16.7187 Y12.4300
G01 X16.6777 Y12.4493
G01 X16.6351 Y12.4647
G01 X16.6235 Y12.4682
G01 X16.5825 Y12.4784
G01 X16.5736 Y12.4801
G01 X16.5288 Y12.4866
G01 X16.4775 Y12.4891
G01 X12.9623 Y12.4891
G01 X12.9382 Y12.5292
G01 X12.9333 Y12.5368
G01 X12.8771 Y12.6126
G01 X12.8713 Y12.6195
G01 X12.8120 Y12.6849
G01 X12.8034 Y12.6935
G01 X12.7334 Y12.7567
G01 X12.6553 Y12.8148
G01 X12.6477 Y12.8197
G01 X12.5693 Y12.8667
G01 X12.5394 Y12.8812
G01 X12.5560 Y12.8980
G01 X12.5824 Y12.9271
G01 X12.5901 Y12.9364
G01 X12.6169 Y12.9729
G01 X12.6404 Y13.0117
G01 X12.6460 Y13.0223
G01 X12.6653 Y13.0633
G01 X12.6826 Y13.1117
G01 X12.6950 Y13.1614
G01 X12.7018 Y13.2062
G01 X12.7030 Y13.2182
G01 X12.7051 Y13.2635
G01 X12.7051 Y15.9646
G01 X13.3880 Y15.9647
G01 X13.4762 Y15.9691
G01 X13.4882 Y15.9703
G01 X13.5816 Y15.9843
G01 X13.6731 Y16.0070
G01 X13.6847 Y16.0105
G01 X13.7678 Y16.0403
G01 X13.7790 Y16.0449
G01 X13.8642 Y16.0854
G01 X13.9503 Y16.1370
G01 X14.0262 Y16.1931
G01 X14.0355 Y16.2007
G01 X14.1053 Y16.2642
G01 X14.1727 Y16.3386
G01 X14.2325 Y16.4192
G01 X14.2841 Y16.5053
G01 X14.3270 Y16.5961
G01 X14.3590 Y16.6848
G01 X14.3625 Y16.6964
G01 X14.3852 Y16.7879
G01 X14.3992 Y16.8813
G01 X14.4004 Y16.8933
G01 X14.4048 Y16.9815
G01 X14.4048 Y16.9935
G01 X14.4000 Y17.0878
G01 X14.3852 Y17.1871
G01 X14.3609 Y17.2844
G01 X14.3270 Y17.3789
G01 X14.2841 Y17.4697
G01 X14.2325 Y17.5558
G01 X14.1727 Y17.6364
G01 X14.1074 Y17.7086
G01 X14.1009 Y17.7150
G01 X14.0309 Y17.7782
G01 X13.9552 Y17.8345
G01 X13.9452 Y17.8412
G01 X13.8694 Y17.8866
G01 X13.8588 Y17.8923
G01 X13.7734 Y17.9325
G01 X13.6789 Y17.9664
G01 X13.5816 Y17.9907
G01 X13.4823 Y18.0055
G01 X13.3820 Y18.0104
G01 X10.9790 Y18.0104
G01 X10.8817 Y18.0055
G01 X10.7884 Y17.9918
G01 X10.7766 Y17.9894
G01 X10.6851 Y17.9664
G01 X10.5962 Y17.9347
G01 X10.5850 Y17.9301
G01 X10.5025 Y17.8910
G01 X10.4946 Y17.8866
G01 X10.4137 Y17.8380
G01 X10.3378 Y17.7819
G01 X10.3308 Y17.7763
G01 X10.2631 Y17.7150
G01 X10.2566 Y17.7086
G01 X10.1932 Y17.6387
G01 X10.1720 Y17.6107
G01 X8.6661 Y17.6107
G01 X7.2532 Y19.0236
G01 X7.2532 Y37.1923
G01 X11.6396 Y37.1923
G01 X11.6396 Y36.6155
G01 X11.6441 Y36.5213
G01 X11.6449 Y36.5122
G01 X11.6593 Y36.4159
G01 X11.6836 Y36.3186
G01 X11.7175 Y36.2241
G01 X11.7577 Y36.1387
G01 X11.7618 Y36.1307
G01 X11.8088 Y36.0523
G01 X11.8155 Y36.0423
G01 X11.8718 Y35.9666
G01 X11.9350 Y35.8966
G01 X11.9436 Y35.8880
G01 X12.0136 Y35.8248
G01 X12.0942 Y35.7650
G01 X12.1751 Y35.7164
G01 X12.1857 Y35.7107
G01 X12.2711 Y35.6705
G01 X12.3598 Y35.6385
G01 X12.3714 Y35.6350
G01 X12.4629 Y35.6123
G01 X12.5622 Y35.5975
G01 X12.6625 Y35.5926
G01 X12.7628 Y35.5975
G01 X12.8621 Y35.6123
G01 X12.9594 Y35.6366
G01 X13.0539 Y35.6705
G01 X13.1447 Y35.7134
G01 X13.2308 Y35.7650
G01 X13.3067 Y35.8211
G01 X13.3160 Y35.8287
G01 X13.3858 Y35.8922
G01 X13.4493 Y35.9620
G01 X13.4569 Y35.9713
G01 X13.5095 Y36.0423
G01 X13.5162 Y36.0523
G01 X13.5646 Y36.1333
G01 X13.6051 Y36.2185
G01 X13.6097 Y36.2297
G01 X13.6414 Y36.3186
G01 X13.6657 Y36.4159
G01 X13.6805 Y36.5152
G01 X13.6854 Y36.6155
G01 X13.6854 Y39.0155
G01 X13.6805 Y39.1158
G01 X13.6668 Y39.2091
G01 X13.6651 Y39.2180
G01 X13.6414 Y39.3124
G01 X13.6097 Y39.4013
G01 X13.6051 Y39.4125
G01 X13.5646 Y39.4977
G01 X13.5162 Y39.5787
G01 X13.5095 Y39.5887
G01 X13.4532 Y39.6644
G01 X13.3900 Y39.7344
G01 X13.3814 Y39.7430
G01 X13.3114 Y39.8062
G01 X13.2357 Y39.8625
G01 X13.2257 Y39.8692
G01 X13.1447 Y39.9176
G01 X13.0595 Y39.9581
G01 X13.0483 Y39.9627
G01 X12.9652 Y39.9925
G01 X12.9565 Y39.9952
G01 X12.8621 Y40.0187
G01 X12.7687 Y40.0327
G01 X12.7567 Y40.0339
G01 X12.6625 Y40.0384
G01 X12.5683 Y40.0339
G01 X12.5563 Y40.0327
G01 X12.4629 Y40.0187
G01 X12.3656 Y39.9944
G01 X12.2711 Y39.9605
G01 X12.1857 Y39.9203
G01 X12.1751 Y39.9146
G01 X12.0942 Y39.8660
G01 X12.0183 Y39.8099
G01 X12.0090 Y39.8023
G01 X11.9392 Y39.7388
G01 X11.8737 Y39.6667
G01 X11.8681 Y39.6597
G01 X11.8120 Y39.5838
G01 X11.7634 Y39.5029
G01 X11.7577 Y39.4923
G01 X11.7175 Y39.4069
G01 X11.6855 Y39.3182
G01 X11.6820 Y39.3066
G01 X11.6593 Y39.2151
G01 X11.6445 Y39.1158
G01 X11.6396 Y39.0185
G01 X11.6396 Y38.4387
G01 X7.2532 Y38.4387
G01 X7.2532 Y56.2264
G01 X7.3961 Y56.3693
G01 X27.7873 Y56.3693
G01 X27.7873 Y52.5844
G01 X27.7489 Y52.5826
G01 X27.7128 Y52.5772
G01 X27.6773 Y52.5683
G01 X27.6428 Y52.5560
G01 X27.6097 Y52.5404
G01 X27.5783 Y52.5216
G01 X27.5489 Y52.4998
G01 X27.5218 Y52.4752
G01 X27.4972 Y52.4481
G01 X27.4754 Y52.4187
G01 X27.4566 Y52.3873
G01 X27.4410 Y52.3542
G01 X27.4287 Y52.3197
G01 X27.4198 Y52.2842
G01 X27.4144 Y52.2481
G01 X27.4126 Y52.2115
G01 X27.4126 Y51.4085
G01 X27.4144 Y51.3749
G01 X27.4187 Y51.3447
G01 X27.4211 Y51.3329
G01 X27.4296 Y51.3004
G01 X27.4410 Y51.2688
G01 X27.4552 Y51.2384
G01 X27.4722 Y51.2094
G01 X27.4789 Y51.1994
G01 X27.4972 Y51.1749
G01 X27.5218 Y51.1478
G01 X27.5489 Y51.1232
G01 X27.5734 Y51.1049
G01 X27.5809 Y51.0998
G01 X27.6045 Y51.0856
G01 X27.6151 Y51.0799
G01 X27.6428 Y51.0670
G01 X27.6773 Y51.0547
G01 X27.7128 Y51.0458
G01 X27.7430 Y51.0411
G01 X27.7550 Y51.0400
G01 X27.7855 Y51.0386
G01 X29.0355 Y51.0386
G01 X29.0721 Y51.0404
G01 X29.1053 Y51.0452
G01 X29.1379 Y51.0530
G01 X29.1495 Y51.0565
G01 X29.1782 Y51.0670
G01 X29.2113 Y51.0826
G01 X29.2376 Y51.0982
G01 X29.2476 Y51.1049
G01 X29.2721 Y51.1232
G01 X29.2992 Y51.1478
G01 X29.3198 Y51.1704
G01 X29.3275 Y51.1797
G01 X29.3456 Y51.2043
G01 X29.3644 Y51.2357
G01 X29.3776 Y51.2633
G01 X29.3822 Y51.2744
G01 X29.3923 Y51.3033
G01 X29.4006 Y51.3358
G01 X29.4023 Y51.3447
G01 X29.4066 Y51.3749
G01 X29.4084 Y51.4115
G01 X29.4084 Y52.2115
G01 X29.4070 Y52.2420
G01 X29.4059 Y52.2540
G01 X29.4012 Y52.2842
G01 X29.3923 Y52.3197
G01 X29.3800 Y52.3542
G01 X29.3671 Y52.3819
G01 X29.3614 Y52.3925
G01 X29.3472 Y52.4161
G01 X29.3421 Y52.4236
G01 X29.3238 Y52.4481
G01 X29.2992 Y52.4752
G01 X29.2721 Y52.4998
G01 X29.2476 Y52.5181
G01 X29.2401 Y52.5232
G01 X29.2165 Y52.5374
G01 X29.2059 Y52.5431
G01 X29.1782 Y52.5560
G01 X29.1437 Y52.5683
G01 X29.1082 Y52.5772
G01 X29.0780 Y52.5819
G01 X29.0660 Y52.5830
G01 X29.0337 Y52.5844
G01 X29.0337 Y56.3693
G01 X63.7759 Y56.3693
G01 X65.1108 Y55.0344
G01 X65.1108 Y51.5774
G01 X64.5340 Y51.5774
G01 X64.4398 Y51.5729
G01 X64.4278 Y51.5717
G01 X64.3344 Y51.5577
G01 X64.2400 Y51.5342
G01 X64.2313 Y51.5315
G01 X64.1482 Y51.5017
G01 X64.1370 Y51.4971
G01 X64.0518 Y51.4566
G01 X63.9657 Y51.4050
G01 X63.8898 Y51.3489
G01 X63.8805 Y51.3413
G01 X63.8107 Y51.2778
G01 X63.7472 Y51.2080
G01 X63.7396 Y51.1987
G01 X63.6870 Y51.1277
G01 X63.6803 Y51.1177
G01 X63.6319 Y51.0367
G01 X63.5890 Y50.9459
G01 X63.5551 Y50.8514
G01 X63.5321 Y50.7599
G01 X63.5297 Y50.7481
G01 X63.5168 Y50.6607
G01 X63.5156 Y50.6487
G01 X63.5111 Y50.5545
G01 X63.5160 Y50.4542
G01 X63.5308 Y50.3549
G01 X63.5535 Y50.2634
G01 X63.5570 Y50.2518
G01 X63.5868 Y50.1687
G01 X63.5914 Y50.1575
G01 X63.6319 Y50.0723
G01 X63.6835 Y49.9862
G01 X63.7396 Y49.9103
G01 X63.7472 Y49.9010
G01 X63.8107 Y49.8312
G01 X63.8805 Y49.7677
G01 X63.8898 Y49.7601
G01 X63.9657 Y49.7040
G01 X64.0518 Y49.6524
G01 X64.1426 Y49.6095
G01 X64.2313 Y49.5775
G01 X64.2429 Y49.5740
G01 X64.3344 Y49.5513
G01 X64.4278 Y49.5373
G01 X64.4398 Y49.5361
G01 X64.5340 Y49.5316
G01 X66.9340 Y49.5316
G01 X67.0282 Y49.5361
G01 X67.0373 Y49.5369
G01 X67.1336 Y49.5513
G01 X67.2309 Y49.5756
G01 X67.3254 Y49.6095
G01 X67.4108 Y49.6497
G01 X67.4188 Y49.6538
G01 X67.5023 Y49.7040
G01 X67.5782 Y49.7601
G01 X67.5852 Y49.7657
G01 X67.6529 Y49.8270
G01 X67.6594 Y49.8334
G01 X67.7228 Y49.9033
G01 X67.7440 Y49.9313
G01 X71.4204 Y49.9313
G01 X73.4336 Y47.9181
G01 X73.4336 Y47.1320
G01 X73.4351 Y47.1015
G01 X73.4361 Y47.0925
G01 X73.4408 Y47.0623
G01 X73.4488 Y47.0296
G01 X73.4598 Y46.9979
G01 X73.4644 Y46.9868
G01 X73.4776 Y46.9592
G01 X73.4964 Y46.9278
G01 X73.5145 Y46.9032
G01 X73.5222 Y46.8939
G01 X73.5428 Y46.8713
G01 X73.5676 Y46.8487
G01 X73.5944 Y46.8284
G01 X73.6044 Y46.8217
G01 X73.6307 Y46.8061
G01 X73.6610 Y46.7917
G01 X73.6925 Y46.7800
G01 X73.7011 Y46.7773
G01 X73.7338 Y46.7693
G01 X73.7613 Y46.7650
G01 X73.7613 Y41.3121
G01 X72.4754 Y40.0262
G01 X64.8565 Y40.0261
G01 X64.7984 Y40.0231
G01 X64.7379 Y40.0142
G01 X64.6786 Y39.9993
G01 X64.6267 Y39.9809
G01 X64.6155 Y39.9763
G01 X64.5711 Y39.9553
G01 X64.5605 Y39.9496
G01 X64.5133 Y39.9211
G01 X64.4642 Y39.8847
G01 X64.4189 Y39.8436
G01 X62.4504 Y37.8751
G01 X62.4093 Y37.8298
G01 X62.3763 Y37.7856
G01 X62.3712 Y37.7782
G01 X62.3444 Y37.7335
G01 X62.3387 Y37.7229
G01 X62.3153 Y37.6730
G01 X62.2966 Y37.6211
G01 X62.2931 Y37.6096
G01 X62.2798 Y37.5561
G01 X62.2716 Y37.5016
G01 X62.2706 Y37.4926
G01 X62.2678 Y37.4345
G01 X62.2678 Y36.4960
G01 X62.2398 Y36.4748
G01 X62.1721 Y36.4135
G01 X62.1656 Y36.4071
G01 X62.1003 Y36.3349
G01 X62.0440 Y36.2592
G01 X62.0388 Y36.2518
G01 X61.9889 Y36.1682
G01 X61.9460 Y36.0774
G01 X61.9121 Y35.9829
G01 X61.8884 Y35.8885
G01 X61.8867 Y35.8796
G01 X61.8730 Y35.7863
G01 X61.8681 Y35.6860
G01 X61.8681 Y33.2860
G01 X61.8730 Y33.1857
G01 X61.8867 Y33.0924
G01 X61.8891 Y33.0806
G01 X61.9121 Y32.9891
G01 X61.9460 Y32.8946
G01 X61.9889 Y32.8038
G01 X62.0373 Y32.7228
G01 X62.0440 Y32.7128
G01 X62.0966 Y32.6418
G01 X62.1042 Y32.6325
G01 X62.1677 Y32.5627
G01 X62.2375 Y32.4992
G01 X62.2468 Y32.4916
G01 X62.3178 Y32.4390
G01 X62.3278 Y32.4323
G01 X62.4088 Y32.3839
G01 X62.4996 Y32.3410
G01 X62.5883 Y32.3090
G01 X62.5999 Y32.3055
G01 X62.6914 Y32.2828
G01 X62.7877 Y32.2684
G01 X62.7968 Y32.2676
G01 X62.8910 Y32.2631
G01 X62.9913 Y32.2680
G01 X63.0906 Y32.2828
G01 X63.1879 Y32.3071
G01 X63.2824 Y32.3410
G01 X63.3732 Y32.3839
G01 X63.4593 Y32.4355
G01 X63.5399 Y32.4953
G01 X63.6143 Y32.5627
G01 X63.6817 Y32.6371
G01 X63.7415 Y32.7177
G01 X63.7931 Y32.8038
G01 X63.8360 Y32.8946
G01 X63.8699 Y32.9891
G01 X63.8942 Y33.0864
G01 X63.9082 Y33.1798
G01 X63.9094 Y33.1918
G01 X63.9139 Y33.2860
G01 X63.9139 Y35.6860
G01 X63.9090 Y35.7863
G01 X63.8942 Y35.8856
G01 X63.8699 Y35.9829
G01 X63.8360 Y36.0774
G01 X63.7958 Y36.1628
G01 X63.7917 Y36.1708
G01 X63.7415 Y36.2543
G01 X63.6854 Y36.3302
G01 X63.6798 Y36.3372
G01 X63.6185 Y36.4049
G01 X63.6121 Y36.4114
G01 X63.5422 Y36.4748
G01 X63.5142 Y36.4960
G01 X63.5142 Y37.1764
G01 X65.1176 Y38.7798
G01 X72.7335 Y38.7798
G01 X72.7946 Y38.7829
G01 X72.8551 Y38.7918
G01 X72.9144 Y38.8067
G01 X72.9663 Y38.8251
G01 X72.9775 Y38.8297
G01 X73.0273 Y38.8534
G01 X73.0746 Y38.8816
G01 X73.0846 Y38.8883
G01 X73.1288 Y38.9213
G01 X73.1698 Y38.9582
G01 X74.8251 Y40.6134
G01 X74.8623 Y40.6541
G01 X74.8699 Y40.6634
G01 X74.9026 Y40.7078
G01 X74.9341 Y40.7602
G01 X74.9602 Y40.8155
G01 X74.9789 Y40.8674
G01 X74.9824 Y40.8789
G01 X74.9944 Y40.9265
G01 X74.9967 Y40.9384
G01 X75.0046 Y40.9929
G01 X75.0076 Y41.0510
G01 X75.0077 Y47.8485
G01 X75.0051 Y47.9036
G01 X75.0044 Y47.9118
G01 X75.0043 Y48.4410
G01 X75.0026 Y48.4716
G01 X74.9972 Y48.5077
G01 X74.9883 Y48.5432
G01 X74.9782 Y48.5721
G01 X74.9748 Y48.5805
G01 X74.9631 Y48.6054
G01 X74.9589 Y48.6134
G01 X74.9432 Y48.6396
G01 X74.9381 Y48.6471
G01 X74.9216 Y48.6692
G01 X74.9158 Y48.6761
G01 X74.8952 Y48.6987
G01 X74.8726 Y48.7193
G01 X74.8657 Y48.7251
G01 X74.8412 Y48.7433
G01 X74.8336 Y48.7483
G01 X74.8099 Y48.7624
G01 X74.8019 Y48.7666
G01 X74.7742 Y48.7795
G01 X74.7426 Y48.7909
G01 X74.7101 Y48.7994
G01 X74.6983 Y48.8018
G01 X74.6681 Y48.8061
G01 X74.6375 Y48.8078
G01 X74.3064 Y48.8079
G01 X72.1170 Y50.9972
G01 X72.0738 Y51.0362
G01 X72.0296 Y51.0692
G01 X72.0196 Y51.0759
G01 X71.9723 Y51.1041
G01 X71.9225 Y51.1278
G01 X71.9113 Y51.1324
G01 X71.8651 Y51.1489
G01 X71.8536 Y51.1524
G01 X71.8060 Y51.1644
G01 X71.7941 Y51.1667
G01 X71.7396 Y51.1746
G01 X71.6785 Y51.1777
G01 X67.7440 Y51.1777
G01 X67.7228 Y51.2057
G01 X67.6615 Y51.2734
G01 X67.6551 Y51.2799
G01 X67.5829 Y51.3452
G01 X67.5048 Y51.4033
G01 X67.4972 Y51.4082
G01 X67.4214 Y51.4536
G01 X67.4108 Y51.4593
G01 X67.3254 Y51.4995
G01 X67.2367 Y51.5315
G01 X67.2280 Y51.5342
G01 X67.1336 Y51.5577
G01 X67.0402 Y51.5717
G01 X67.0282 Y51.5729
G01 X66.9340 Y51.5774
G01 X66.3572 Y51.5774
G01 X66.3572 Y55.2925
G01 X66.3541 Y55.3536
G01 X66.3452 Y55.4141
G01 X66.3303 Y55.4734
G01 X66.3108 Y55.5282
G01 X66.3073 Y55.5365
G01 X66.2836 Y55.5863
G01 X66.2521 Y55.6387
G01 X66.2157 Y55.6878
G01 X66.1767 Y55.7310
G01 X64.4725 Y57.4352
G01 X64.4293 Y57.4742
G01 X64.3851 Y57.5072
G01 X64.3751 Y57.5139
G01 X64.3330 Y57.5391
G01 X64.3224 Y57.5448
G01 X64.2725 Y57.5682
G01 X64.2149 Y57.5888
G01 X64.1556 Y57.6037
G01 X64.0981 Y57.6123
G01 X64.0891 Y57.6131
G01 X64.0340 Y57.6157
G01 X7.1380 Y57.6157
G01 X7.0769 Y57.6126
G01 X7.0164 Y57.6037
G01 X6.9571 Y57.5888
G01 X6.9052 Y57.5704
G01 X6.8968 Y57.5670
G01 X6.8442 Y57.5421
G01 X6.7918 Y57.5106
G01 X6.7427 Y57.4742
G01 X6.7017 Y57.4373
G01 X6.1894 Y56.9251
G01 X6.1483 Y56.8798
G01 X6.1119 Y56.8307
G01 X6.0834 Y56.7835
G01 X6.0777 Y56.7729
G01 X6.0567 Y56.7285
G01 X6.0521 Y56.7173
G01 X6.0337 Y56.6654
G01 X6.0188 Y56.6061
G01 X6.0099 Y56.5456
G01 X6.0069 Y56.4875
G01 X6.0070 Y18.7595
G00 Z2.0000
G00 X9.9648 Y21.9613
G01 F50.00
G01 Z-0.1300
G01 F60.00
G01 X9.9788 Y21.8679
G01 X10.0031 Y21.7706
G01 X10.0370 Y21.6761
G01 X10.0772 Y21.5907
G01 X10.0829 Y21.5801
G01 X10.1283 Y21.5043
G01 X10.1350 Y21.4943
G01 X10.1913 Y21.4186
G01 X10.2587 Y21.3442
G01 X10.3331 Y21.2768
G01 X10.4088 Y21.2205
G01 X10.4188 Y21.2138
G01 X10.4946 Y21.1684
G01 X10.5052 Y21.1627
G01 X10.5906 Y21.1225
G01 X10.6851 Y21.0886
G01 X10.7824 Y21.0643
G01 X10.8817 Y21.0495
G01 X10.9820 Y21.0446
G01 X13.3820 Y21.0446
G01 X13.4823 Y21.0495
G01 X13.5786 Y21.0637
G01 X13.5874 Y21.0656
G01 X13.6789 Y21.0886
G01 X13.7678 Y21.1203
G01 X13.7790 Y21.1249
G01 X13.8642 Y21.1654
G01 X13.9452 Y21.2138
G01 X13.9552 Y21.2205
G01 X14.0286 Y21.2749
G01 X14.0355 Y21.2807
G01 X14.1053 Y21.3442
G01 X14.1688 Y21.4140
G01 X14.1746 Y21.4209
G01 X14.2290 Y21.4943
G01 X14.2342 Y21.5017
G01 X14.2827 Y21.5827
G01 X14.2868 Y21.5907
G01 X14.3004 Y21.6194
G01 X15.4023 Y21.6194
G01 X15.4145 Y21.5853
G01 X15.4274 Y21.5576
G01 X15.4331 Y21.5470
G01 X15.4473 Y21.5234
G01 X15.4524 Y21.5159
G01 X15.4707 Y21.4914
G01 X15.4953 Y21.4643
G01 X15.5224 Y21.4397
G01 X15.5469 Y21.4214
G01 X15.5544 Y21.4163
G01 X15.5780 Y21.4021
G01 X15.5886 Y21.3964
G01 X15.6163 Y21.3835
G01 X15.6508 Y21.3712
G01 X15.6863 Y21.3623
G01 X15.7165 Y21.3576
G01 X15.7285 Y21.3565
G01 X15.7590 Y21.3551
G01 X17.0590 Y21.3551
G01 X17.0956 Y21.3569
G01 X17.1258 Y21.3612
G01 X17.1376 Y21.3636
G01 X17.1672 Y21.3712
G01 X17.1961 Y21.3813
G01 X17.2072 Y21.3859
G01 X17.2348 Y21.3991
G01 X17.2611 Y21.4147
G01 X17.2711 Y21.4214
G01 X17.2979 Y21.4417
G01 X17.3227 Y21.4643
G01 X17.3433 Y21.4869
G01 X17.3491 Y21.4938
G01 X17.3673 Y21.5183
G01 X17.3849 Y21.5470
G01 X17.3893 Y21.5549
G01 X17.4035 Y21.5853
G01 X17.4107 Y21.6049
G01 X18.9131 Y21.6049
G01 X18.9385 Y21.5346
G01 X18.9814 Y21.4438
G01 X19.0330 Y21.3577
G01 X19.0891 Y21.2818
G01 X19.0967 Y21.2725
G01 X19.1560 Y21.2071
G01 X19.1646 Y21.1985
G01 X19.2346 Y21.1353
G01 X19.3103 Y21.0790
G01 X19.3203 Y21.0723
G01 X19.3961 Y21.0269
G01 X19.4067 Y21.0212
G01 X19.4921 Y20.9810
G01 X19.5866 Y20.9471
