(G-CODE GENERATED BY FLATCAM v8.992 - www.flatcam.org - Version Date: 2020/05/03)

(Name: NPN Tracer V2b-F_Cu.gbr_iso_cnc)
(Type: G-code from Geometry)
(Units: MM)

(Created on Thursday, 20 April 2023 at 23:12)

(This preprocessor is the default preprocessor used by FlatCAM.)
(It is made to work with MACH3 compatible motion controllers.)

(TOOL DIAMETER: 0.1643 mm)
(Feedrate_XY: 60.0 mm/min)
(Feedrate_Z: 50.0 mm/min)
(Feedrate rapids 1500.0 mm/min)

(Z_Cut: -0.12 mm)
(Z_Move: 2.0 mm)
(Z Start: None mm)
(Z End: 10.0 mm)
(Steps per circle: 64)
(Preprocessor Geometry: default)

(X range:    0.5048 ...   93.0437  mm)
(Y range:    0.1138 ...   90.0492  mm)

(Spindle Speed: None RPM)
G21
G90
G94



G01 F60.00
G00 Z2.0000

M03
G00 X1.1518 Y0.8413
G01 F50.00
G01 Z-0.1200
G01 F60.00
G01 X1.1983 Y0.7876
G01 X1.2107 Y0.7747
G01 X1.2208 Y0.7658
G01 X1.2279 Y0.7603
G01 X1.2391 Y0.7528
G01 X1.2507 Y0.7461
G01 X1.2670 Y0.7385
G01 X1.2797 Y0.7339
G01 X1.3562 Y0.7114
G01 X1.3646 Y0.7094
G01 X1.3773 Y0.7071
G01 X1.3901 Y0.7057
G01 X1.4030 Y0.7053
G01 X92.1455 Y0.7053
G01 X92.1584 Y0.7057
G01 X92.1755 Y0.7078
G01 X92.2363 Y0.7208
G01 X92.2537 Y0.7255
G01 X92.2664 Y0.7302
G01 X92.2747 Y0.7338
G01 X92.2906 Y0.7423
G01 X92.3020 Y0.7497
G01 X92.3092 Y0.7551
G01 X92.3765 Y0.8133
G01 X92.3888 Y0.8264
G01 X92.3972 Y0.8369
G01 X92.4023 Y0.8443
G01 X92.4093 Y0.8558
G01 X92.4135 Y0.8637
G01 X92.4206 Y0.8802
G01 X92.4249 Y0.8930
G01 X92.4471 Y0.9694
G01 X92.4497 Y0.9820
G01 X92.4510 Y0.9905
G01 X92.4520 Y1.0034
G01 X92.4522 Y1.0120
G01 X92.4522 Y89.1510
G01 X92.4518 Y89.1639
G01 X92.4497 Y89.1810
G01 X92.4367 Y89.2418
G01 X92.4320 Y89.2592
G01 X92.4273 Y89.2719
G01 X92.4237 Y89.2802
G01 X92.4152 Y89.2961
G01 X92.4078 Y89.3075
G01 X92.4024 Y89.3147
G01 X92.3442 Y89.3820
G01 X92.3378 Y89.3883
G01 X92.3277 Y89.3972
G01 X92.3132 Y89.4078
G01 X92.3056 Y89.4126
G01 X92.2938 Y89.4190
G01 X92.2773 Y89.4261
G01 X92.2645 Y89.4304
G01 X92.1881 Y89.4526
G01 X92.1755 Y89.4552
G01 X92.1670 Y89.4565
G01 X92.1541 Y89.4575
G01 X92.1455 Y89.4577
G01 X85.4310 Y89.4577
G01 X85.4178 Y89.4574
G01 X85.4047 Y89.4565
G01 X85.3960 Y89.4554
G01 X85.3873 Y89.4539
G01 X85.3745 Y89.4508
G01 X85.3620 Y89.4468
G01 X85.2868 Y89.4194
G01 X85.2786 Y89.4157
G01 X85.2667 Y89.4095
G01 X85.2516 Y89.3998
G01 X85.2444 Y89.3944
G01 X85.2342 Y89.3856
G01 X85.2216 Y89.3729
G01 X85.2130 Y89.3625
G01 X85.1646 Y89.2988
G01 X85.1597 Y89.2913
G01 X85.1531 Y89.2796
G01 X85.1456 Y89.2633
G01 X85.1425 Y89.2549
G01 X85.1386 Y89.2420
G01 X85.1357 Y89.2288
G01 X85.1343 Y89.2200
G01 X85.1270 Y89.1313
G01 X85.1271 Y89.1179
G01 X85.1287 Y89.1000
G01 X85.1321 Y89.0824
G01 X85.1373 Y89.0652
G01 X85.1405 Y89.0568
G01 X85.1460 Y89.0445
G01 X85.1835 Y88.9741
G01 X85.1903 Y88.9631
G01 X85.1952 Y88.9561
G01 X85.2060 Y88.9427
G01 X85.2729 Y88.8741
G01 X90.7946 Y83.3524
G01 X90.8024 Y83.3450
G01 X90.9059 Y83.2408
G01 X90.9223 Y83.2149
G01 X90.9323 Y83.2007
G01 X90.9483 Y83.1800
G01 X90.9557 Y83.1642
G01 X90.9656 Y83.1458
G01 X90.9775 Y83.1261
G01 X90.9879 Y83.0972
G01 X90.9944 Y83.0812
G01 X91.0054 Y83.0575
G01 X91.0106 Y83.0350
G01 X91.0163 Y83.0150
G01 X91.0220 Y82.9984
G01 X91.0257 Y82.9679
G01 X91.0285 Y82.9508
G01 X91.0340 Y82.9253
G01 X91.0333 Y82.8550
G01 X91.0333 Y33.5489
G01 X91.0336 Y33.5381
G01 X91.0331 Y33.3913
G01 X91.0264 Y33.3613
G01 X91.0234 Y33.3443
G01 X91.0201 Y33.3184
G01 X91.0142 Y33.3019
G01 X91.0082 Y33.2819
G01 X91.0027 Y33.2595
G01 X90.9913 Y33.2360
G01 X90.9846 Y33.2201
G01 X90.9738 Y33.1913
G01 X90.9644 Y33.1765
G01 X90.9541 Y33.1583
G01 X90.9438 Y33.1378
G01 X90.9276 Y33.1173
G01 X90.9174 Y33.1033
G01 X90.9006 Y33.0776
G01 X90.8504 Y33.0284
G01 X87.3629 Y29.5409
G01 X87.3555 Y29.5331
G01 X87.2513 Y29.4296
G01 X87.2292 Y29.4157
G01 X87.2149 Y29.4059
G01 X87.1905 Y29.3872
G01 X87.1747 Y29.3798
G01 X87.1563 Y29.3699
G01 X87.1366 Y29.3580
G01 X87.1077 Y29.3476
G01 X87.0917 Y29.3411
G01 X87.0680 Y29.3301
G01 X87.0455 Y29.3249
G01 X87.0255 Y29.3192
G01 X87.0089 Y29.3135
G01 X86.9784 Y29.3098
G01 X86.9613 Y29.3070
G01 X86.9358 Y29.3015
G01 X86.8655 Y29.3022
G01 X59.8479 Y29.3022
G01 X59.8371 Y29.3019
G01 X59.6903 Y29.3024
G01 X59.6603 Y29.3091
G01 X59.6433 Y29.3121
G01 X59.6174 Y29.3154
G01 X59.6009 Y29.3213
G01 X59.5809 Y29.3273
G01 X59.5585 Y29.3328
G01 X59.5350 Y29.3442
G01 X59.5190 Y29.3510
G01 X59.4903 Y29.3617
G01 X59.4707 Y29.3739
G01 X59.4536 Y29.3834
G01 X59.4368 Y29.3917
G01 X59.4126 Y29.4107
G01 X59.3985 Y29.4207
G01 X59.3766 Y29.4349
G01 X59.3274 Y29.4852
G01 X53.8217 Y34.9909
G01 X53.8110 Y35.0007
G01 X53.7793 Y35.0261
G01 X53.7644 Y35.0358
G01 X53.7527 Y35.0421
G01 X53.7406 Y35.0476
G01 X53.7281 Y35.0521
G01 X53.6557 Y35.0734
G01 X53.6432 Y35.0766
G01 X53.6262 Y35.0795
G01 X53.6134 Y35.0805
G01 X53.6048 Y35.0807
G01 X33.0222 Y35.0807
G01 X33.0126 Y35.0805
G01 X33.0029 Y35.0797
G01 X32.9761 Y35.0768
G01 X32.9630 Y35.0749
G01 X32.9500 Y35.0720
G01 X32.9414 Y35.0696
G01 X32.9289 Y35.0652
G01 X32.9207 Y35.0617
G01 X32.9088 Y35.0557
G01 X32.8391 Y35.0174
G01 X32.8248 Y35.0078
G01 X32.8116 Y34.9968
G01 X32.5126 Y34.6982
G01 X32.5060 Y34.6911
G01 X32.4828 Y34.6628
G01 X32.4748 Y34.6521
G01 X32.4677 Y34.6409
G01 X32.4594 Y34.6252
G01 X32.4559 Y34.6171
G01 X32.4514 Y34.6046
G01 X32.4301 Y34.5322
G01 X32.4269 Y34.5197
G01 X32.4240 Y34.5027
G01 X32.4230 Y34.4899
G01 X32.4228 Y34.4813
G01 X32.4228 Y32.8034
G01 X32.4236 Y32.7906
G01 X32.4246 Y32.7821
G01 X32.4329 Y32.7324
G01 X32.4372 Y32.7149
G01 X32.4416 Y32.7020
G01 X32.4450 Y32.6936
G01 X32.4532 Y32.6774
G01 X32.4603 Y32.6659
G01 X32.5040 Y32.6042
G01 X32.5146 Y32.5907
G01 X32.5233 Y32.5812
G01 X32.5361 Y32.5696
G01 X32.6602 Y32.4715
G01 X32.7961 Y32.3222
G01 X32.8327 Y32.2656
G01 X32.8406 Y32.2543
G01 X32.8700 Y32.2193
G01 X32.8823 Y32.2068
G01 X32.8889 Y32.2010
G01 X32.8992 Y32.1928
G01 X32.9102 Y32.1855
G01 X32.9178 Y32.1811
G01 X32.9893 Y32.1458
G01 X33.0016 Y32.1403
G01 X33.0100 Y32.1372
G01 X33.0229 Y32.1333
G01 X33.0405 Y32.1296
G01 X33.0538 Y32.1280
G01 X33.0673 Y32.1273
G01 X33.0852 Y32.1281
G01 X33.1646 Y32.1373
G01 X33.1735 Y32.1387
G01 X33.1866 Y32.1418
G01 X33.2037 Y32.1473
G01 X33.2120 Y32.1507
G01 X33.2241 Y32.1566
G01 X33.2319 Y32.1610
G01 X33.2432 Y32.1683
G01 X33.2540 Y32.1764
G01 X33.3122 Y32.2242
G01 X33.3216 Y32.2330
G01 X33.3276 Y32.2392
G01 X33.3332 Y32.2457
G01 X33.3411 Y32.2559
G01 X33.4026 Y32.3458
G01 X33.5421 Y32.4918
G01 X33.7035 Y32.6130
G01 X33.8826 Y32.7062
G01 X34.0745 Y32.7689
G01 X34.2741 Y32.7995
G01 X34.4759 Y32.7970
G01 X34.6747 Y32.7616
G01 X34.8650 Y32.6942
G01 X35.0418 Y32.5966
G01 X35.2002 Y32.4715
G01 X35.3361 Y32.3222
G01 X35.3727 Y32.2656
G01 X35.3835 Y32.2507
G01 X35.4129 Y32.2161
G01 X35.4255 Y32.2038
G01 X35.4357 Y32.1955
G01 X35.4502 Y32.1855
G01 X35.4616 Y32.1790
G01 X35.5293 Y32.1458
G01 X35.5416 Y32.1403
G01 X35.5586 Y32.1345
G01 X35.5760 Y32.1303
G01 X35.5938 Y32.1280
G01 X35.6073 Y32.1273
G01 X35.6252 Y32.1281
G01 X35.7002 Y32.1367
G01 X35.7135 Y32.1387
G01 X35.7223 Y32.1407
G01 X35.7395 Y32.1458
G01 X35.7520 Y32.1507
G01 X35.7601 Y32.1545
G01 X35.7758 Y32.1633
G01 X35.7904 Y32.1736
G01 X35.8522 Y32.2242
G01 X35.8585 Y32.2300
G01 X35.8676 Y32.2392
G01 X35.8732 Y32.2457
G01 X35.8811 Y32.2559
G01 X35.9426 Y32.3458
G01 X36.0821 Y32.4918
G01 X36.2435 Y32.6130
G01 X36.4226 Y32.7062
G01 X36.6145 Y32.7689
G01 X36.8141 Y32.7995
G01 X37.0159 Y32.7970
G01 X37.2147 Y32.7616
G01 X37.4050 Y32.6942
G01 X37.5818 Y32.5966
G01 X37.7402 Y32.4715
G01 X37.8761 Y32.3222
G01 X37.9127 Y32.2656
G01 X37.9235 Y32.2507
G01 X37.9529 Y32.2161
G01 X37.9623 Y32.2068
G01 X37.9757 Y32.1955
G01 X37.9902 Y32.1855
G01 X38.0016 Y32.1790
G01 X38.0693 Y32.1458
G01 X38.0816 Y32.1403
G01 X38.0943 Y32.1358
G01 X38.1116 Y32.1312
G01 X38.1294 Y32.1284
G01 X38.1473 Y32.1273
G01 X38.1652 Y32.1281
G01 X38.2402 Y32.1367
G01 X38.2535 Y32.1387
G01 X38.2623 Y32.1407
G01 X38.2795 Y32.1458
G01 X38.2920 Y32.1507
G01 X38.3001 Y32.1545
G01 X38.3158 Y32.1633
G01 X38.3304 Y32.1736
G01 X38.3922 Y32.2242
G01 X38.4016 Y32.2330
G01 X38.4076 Y32.2392
G01 X38.4132 Y32.2457
G01 X38.4211 Y32.2559
G01 X38.4826 Y32.3458
G01 X38.6221 Y32.4918
G01 X38.7835 Y32.6130
G01 X38.9626 Y32.7062
G01 X39.1545 Y32.7689
G01 X39.3541 Y32.7995
G01 X39.5559 Y32.7970
G01 X39.7547 Y32.7616
G01 X39.9450 Y32.6942
G01 X40.1218 Y32.5966
G01 X40.2802 Y32.4715
G01 X40.4161 Y32.3222
G01 X40.4527 Y32.2656
G01 X40.4635 Y32.2507
G01 X40.4929 Y32.2161
G01 X40.5055 Y32.2038
G01 X40.5157 Y32.1955
G01 X40.5302 Y32.1855
G01 X40.5416 Y32.1790
G01 X40.6093 Y32.1458
G01 X40.6216 Y32.1403
G01 X40.6386 Y32.1345
G01 X40.6560 Y32.1303
G01 X40.6738 Y32.1280
G01 X40.6873 Y32.1273
G01 X40.7052 Y32.1281
G01 X40.7802 Y32.1367
G01 X40.7935 Y32.1387
G01 X40.8023 Y32.1407
G01 X40.8195 Y32.1458
G01 X40.8320 Y32.1507
G01 X40.8401 Y32.1545
G01 X40.8558 Y32.1633
G01 X40.8704 Y32.1736
G01 X40.9322 Y32.2242
G01 X40.9416 Y32.2330
G01 X40.9476 Y32.2392
G01 X40.9532 Y32.2457
G01 X40.9611 Y32.2559
G01 X41.0226 Y32.3458
G01 X41.1621 Y32.4918
G01 X41.3235 Y32.6130
G01 X41.5026 Y32.7062
G01 X41.6945 Y32.7689
G01 X41.8941 Y32.7995
G01 X42.0959 Y32.7970
G01 X42.2947 Y32.7616
G01 X42.4850 Y32.6942
G01 X42.6618 Y32.5966
G01 X42.8202 Y32.4715
G01 X42.9561 Y32.3222
G01 X42.9927 Y32.2656
G01 X43.0035 Y32.2507
G01 X43.0329 Y32.2161
G01 X43.0423 Y32.2068
G01 X43.0557 Y32.1955
G01 X43.0702 Y32.1855
G01 X43.0816 Y32.1790
G01 X43.1493 Y32.1458
G01 X43.1616 Y32.1403
G01 X43.1786 Y32.1345
G01 X43.1960 Y32.1303
G01 X43.2138 Y32.1280
G01 X43.2318 Y32.1274
G01 X43.2497 Y32.1285
G01 X43.3202 Y32.1367
G01 X43.3335 Y32.1387
G01 X43.3423 Y32.1407
G01 X43.3595 Y32.1458
G01 X43.3761 Y32.1526
G01 X43.3919 Y32.1610
G01 X43.4032 Y32.1683
G01 X43.4140 Y32.1764
G01 X43.4722 Y32.2242
G01 X43.4816 Y32.2330
G01 X43.4876 Y32.2392
G01 X43.4960 Y32.2490
G01 X43.5011 Y32.2559
G01 X43.5626 Y32.3458
G01 X43.7021 Y32.4918
G01 X43.8635 Y32.6130
G01 X44.0426 Y32.7062
G01 X44.2345 Y32.7689
G01 X44.4341 Y32.7995
G01 X44.6359 Y32.7970
G01 X44.8347 Y32.7616
G01 X45.0250 Y32.6942
G01 X45.2018 Y32.5966
G01 X45.3602 Y32.4715
G01 X45.4961 Y32.3222
G01 X45.5330 Y32.2652
G01 X45.5438 Y32.2502
G01 X45.5732 Y32.2156
G01 X45.5858 Y32.2034
G01 X45.5960 Y32.1950
G01 X45.6105 Y32.1851
G01 X45.6219 Y32.1786
G01 X45.6937 Y32.1434
G01 X45.7019 Y32.1399
G01 X45.7146 Y32.1353
G01 X45.7319 Y32.1307
G01 X45.7452 Y32.1285
G01 X45.7541 Y32.1275
G01 X45.7676 Y32.1269
G01 X45.7810 Y32.1273
G01 X45.8605 Y32.1362
G01 X45.8768 Y32.1389
G01 X46.0535 Y31.9622
G01 X46.0258 Y31.8842
G01 X46.0000 Y31.7813
G01 X45.9845 Y31.6764
G01 X45.9793 Y31.5705
G01 X45.9845 Y31.4646
G01 X46.0000 Y31.3597
G01 X46.0258 Y31.2568
G01 X46.0535 Y31.1788
G01 X45.8757 Y31.0010
G01 X45.8599 Y31.0060
G01 X45.8467 Y31.0089
G01 X45.8289 Y31.0113
G01 X45.8155 Y31.0119
G01 X45.7976 Y31.0112
G01 X45.7179 Y31.0037
G01 X45.7091 Y31.0022
G01 X45.6960 Y30.9992
G01 X45.6874 Y30.9966
G01 X45.6747 Y30.9920
G01 X45.6665 Y30.9884
G01 X45.6546 Y30.9822
G01 X45.6468 Y30.9776
G01 X45.6357 Y30.9700
G01 X45.5728 Y30.9210
G01 X45.5663 Y30.9153
G01 X45.5570 Y30.9064
G01 X45.5484 Y30.8968
G01 X45.5405 Y30.8866
G01 X45.4582 Y30.7720
G01 X45.3152 Y30.6295
G01 X45.1508 Y30.5123
G01 X44.9695 Y30.4235
G01 X44.7761 Y30.3654
G01 X44.6501 Y30.3492
G01 X44.6373 Y30.3468
G01 X44.6246 Y30.3434
G01 X44.6164 Y30.3407
G01 X44.6042 Y30.3358
G01 X44.5259 Y30.2988
G01 X44.5179 Y30.2946
G01 X44.5064 Y30.2875
G01 X44.4955 Y30.2795
G01 X44.4885 Y30.2738
G01 X44.4818 Y30.2677
G01 X44.4724 Y30.2579
G01 X44.4666 Y30.2511
G01 X44.4585 Y30.2402
G01 X44.4512 Y30.2288
G01 X44.4153 Y30.1676
G01 X44.4089 Y30.1557
G01 X44.4034 Y30.1434
G01 X44.4003 Y30.1350
G01 X44.3976 Y30.1265
G01 X44.3943 Y30.1134
G01 X44.3920 Y30.1001
G01 X44.3911 Y30.0912
G01 X44.3905 Y30.0733
G01 X44.3935 Y29.9979
G01 X44.3945 Y29.9844
G01 X44.3966 Y29.9711
G01 X44.3985 Y29.9624
G01 X44.4022 Y29.9494
G01 X44.4068 Y29.9368
G01 X44.4123 Y29.9245
G01 X44.4211 Y29.9089
G01 X44.4669 Y29.8433
G01 X44.4750 Y29.8326
G01 X44.4809 Y29.8258
G01 X44.4903 Y29.8161
G01 X44.4970 Y29.8101
G01 X44.5039 Y29.8044
G01 X44.5148 Y29.7966
G01 X44.5224 Y29.7918
G01 X44.5342 Y29.7853
G01 X44.5465 Y29.7798
G01 X44.6122 Y29.7529
G01 X44.6243 Y29.7485
G01 X44.6409 Y29.7439
G01 X44.6536 Y29.7415
G01 X44.7153 Y29.7350
G01 X44.8443 Y29.6922
G01 X44.9590 Y29.6215
G01 X45.0544 Y29.5263
G01 X45.1258 Y29.4109
G01 X45.1343 Y29.3899
G01 X45.1401 Y29.3781
G01 X45.1492 Y29.3632
G01 X45.1597 Y29.3491
G01 X45.2090 Y29.2921
G01 X45.2214 Y29.2792
G01 X45.2350 Y29.2675
G01 X45.2460 Y29.2597
G01 X45.2575 Y29.2527
G01 X45.2695 Y29.2466
G01 X45.2777 Y29.2430
G01 X45.2904 Y29.2384
G01 X45.3669 Y29.2159
G01 X45.3837 Y29.2123
G01 X45.3965 Y29.2106
G01 X45.4051 Y29.2100
G01 X45.7082 Y29.2098
G01 X45.7205 Y29.2105
G01 X45.7328 Y29.2121
G01 X45.7769 Y29.2193
G01 X45.7900 Y29.2222
G01 X45.8028 Y29.2261
G01 X45.8194 Y29.2328
G01 X45.8314 Y29.2389
G01 X45.8466 Y29.2483
G01 X45.9050 Y29.2888
G01 X45.9157 Y29.2968
G01 X45.9226 Y29.3026
G01 X45.9323 Y29.3120
G01 X45.9383 Y29.3186
G01 X45.9468 Y29.3291
G01 X45.9568 Y29.3440
G01 X45.9653 Y29.3598
G01 X45.9993 Y29.4416
G01 X46.0032 Y29.4538
G01 X46.0071 Y29.4706
G01 X46.0090 Y29.4834
G01 X46.0125 Y29.5157
G01 X46.0465 Y29.6065
G01 X46.1028 Y29.6817
G01 X46.1780 Y29.7380
G01 X46.2688 Y29.7720
G01 X46.2987 Y29.7753
G01 X46.6854 Y29.7753
G01 X46.7044 Y29.7761
G01 X46.7135 Y29.7770
G01 X46.7270 Y29.7791
G01 X46.7359 Y29.7811
G01 X46.7534 Y29.7864
G01 X46.8280 Y29.8154
G01 X46.8362 Y29.8190
G01 X46.8481 Y29.8253
G01 X46.8595 Y29.8324
G01 X46.8668 Y29.8376
G01 X46.8739 Y29.8432
G01 X46.8839 Y29.8521
G01 X46.8932 Y29.8618
G01 X46.8990 Y29.8687
G01 X46.9514 Y29.9406
G01 X46.9605 Y29.9561
G01 X46.9679 Y29.9724
G01 X46.9738 Y29.9894
G01 X46.9770 Y30.0024
G01 X46.9787 Y30.0113
G01 X46.9806 Y30.0291
G01 X46.9849 Y30.1045
G01 X46.9848 Y30.1179
G01 X46.9838 Y30.1313
G01 X46.9817 Y30.1447
G01 X46.9787 Y30.1578
G01 X46.9731 Y30.1748
G01 X46.9679 Y30.1872
G01 X46.9617 Y30.1992
G01 X46.9246 Y30.2649
G01 X46.9198 Y30.2725
G01 X46.9119 Y30.2834
G01 X46.9033 Y30.2937
G01 X46.8938 Y30.3034
G01 X46.8837 Y30.3123
G01 X46.8693 Y30.3229
G01 X46.8539 Y30.3321
G01 X46.7833 Y30.3691
G01 X46.7714 Y30.3742
G01 X46.7549 Y30.3796
G01 X46.7465 Y30.3817
G01 X46.7164 Y30.3879
G01 X46.5542 Y30.4499
G01 X46.6683 Y30.5640
G01 X46.7463 Y30.5363
G01 X46.8492 Y30.5105
G01 X46.9541 Y30.4950
G01 X47.0600 Y30.4898
G01 X47.1659 Y30.4950
G01 X47.2708 Y30.5105
G01 X47.3737 Y30.5363
G01 X47.4517 Y30.5640
G01 X47.5647 Y30.4510
G01 X47.5093 Y30.4239
G01 X47.3489 Y30.3758
G01 X47.3408 Y30.3732
G01 X47.3290 Y30.3685
G01 X47.3174 Y30.3630
G01 X47.3063 Y30.3567
G01 X47.2400 Y30.3138
G01 X47.2292 Y30.3058
G01 X47.2224 Y30.3001
G01 X47.2096 Y30.2877
G01 X47.1981 Y30.2740
G01 X47.1880 Y30.2593
G01 X47.1794 Y30.2436
G01 X47.1480 Y30.1750
G01 X47.1428 Y30.1626
G01 X47.1399 Y30.1541
G01 X47.1354 Y30.1367
G01 X47.1332 Y30.1234
G01 X47.1317 Y30.1055
G01 X47.1320 Y30.0876
G01 X47.1335 Y30.0742
G01 X47.1443 Y29.9995
G01 X47.1470 Y29.9863
G01 X47.1507 Y29.9734
G01 X47.1554 Y29.9608
G01 X47.1610 Y29.9485
G01 X47.1675 Y29.9367
G01 X47.1748 Y29.9254
G01 X47.1859 Y29.9113
G01 X47.2353 Y29.8543
G01 X47.2481 Y29.8416
G01 X47.2620 Y29.8303
G01 X47.2770 Y29.8204
G01 X47.2888 Y29.8140
G01 X47.2970 Y29.8102
G01 X47.3137 Y29.8039
G01 X47.3903 Y29.7814
G01 X47.4071 Y29.7778
G01 X47.4199 Y29.7761
G01 X47.4371 Y29.7753
G01 X48.0753 Y29.7753
G01 X48.1052 Y29.7720
G01 X48.1960 Y29.7380
G01 X48.2712 Y29.6817
G01 X48.3275 Y29.6065
G01 X48.3615 Y29.5157
G01 X48.3648 Y29.4858
G01 X48.3648 Y28.1092
G01 X48.3615 Y28.0793
G01 X48.3275 Y27.9885
G01 X48.2712 Y27.9133
G01 X48.1960 Y27.8570
G01 X48.1052 Y27.8230
G01 X48.0753 Y27.8197
G01 X47.3092 Y27.8197
G01 X47.2893 Y27.8191
G01 X47.2760 Y27.8178
G01 X47.2584 Y27.8145
G01 X47.2455 Y27.8109
G01 X47.1706 Y27.7832
G01 X47.1541 Y27.7761
G01 X47.1422 Y27.7697
G01 X47.1272 Y27.7599
G01 X47.1166 Y27.7516
G01 X47.1067 Y27.7425
G01 X47.0975 Y27.7326
G01 X47.0890 Y27.7222
G01 X47.0465 Y27.6653
G01 X47.0365 Y27.6505
G01 X47.0280 Y27.6347
G01 X47.0211 Y27.6181
G01 X47.0158 Y27.6009
G01 X47.0124 Y27.5833
G01 X47.0109 Y27.5699
G01 X47.0054 Y27.4901
G01 X47.0056 Y27.4767
G01 X47.0063 Y27.4677
G01 X47.0082 Y27.4544
G01 X47.0100 Y27.4456
G01 X47.0149 Y27.4283
G01 X47.0197 Y27.4158
G01 X47.0234 Y27.4076
G01 X47.0615 Y27.3373
G01 X47.0658 Y27.3298
G01 X47.0729 Y27.3191
G01 X47.0808 Y27.3088
G01 X47.0923 Y27.2961
G01 X47.5511 Y26.8374
G01 X47.5589 Y26.8300
G01 X47.6624 Y26.7258
G01 X47.6788 Y26.6999
G01 X47.6888 Y26.6857
G01 X47.7048 Y26.6650
G01 X47.7122 Y26.6492
G01 X47.7221 Y26.6308
G01 X47.7340 Y26.6111
G01 X47.7444 Y26.5822
G01 X47.7509 Y26.5662
G01 X47.7619 Y26.5425
G01 X47.7671 Y26.5200
G01 X47.7746 Y26.4947
G01 X47.7807 Y26.4772
G01 X47.7866 Y26.4623
G01 X47.7900 Y26.4544
G01 X47.7958 Y26.4429
G01 X47.8047 Y26.4283
G01 X47.8150 Y26.4146
G01 X47.8673 Y26.3543
G01 X47.8767 Y26.3447
G01 X47.8834 Y26.3387
G01 X47.8903 Y26.3330
G01 X47.9013 Y26.3252
G01 X47.9089 Y26.3204
G01 X47.9207 Y26.3140
G01 X47.9289 Y26.3102
G01 X47.9414 Y26.3053
G01 X48.0181 Y26.2826
G01 X48.0348 Y26.2785
G01 X48.0518 Y26.2761
G01 X48.0647 Y26.2753
G01 X48.0753 Y26.2753
G01 X48.1052 Y26.2720
G01 X48.1960 Y26.2380
G01 X48.2712 Y26.1817
G01 X48.3275 Y26.1065
G01 X48.3615 Y26.0157
G01 X48.3648 Y25.9858
G01 X48.3648 Y24.6092
G01 X48.3615 Y24.5793
G01 X48.3275 Y24.4885
G01 X48.2685 Y24.4098
G01 X48.2572 Y24.3985
G01 X48.2477 Y24.3876
G01 X48.2280 Y24.3631
G01 X48.2228 Y24.3559
G01 X48.2157 Y24.3447
G01 X48.2074 Y24.3290
G01 X48.2008 Y24.3126
G01 X48.1781 Y24.2360
G01 X48.1749 Y24.2235
G01 X48.1720 Y24.2065
G01 X48.1710 Y24.1937
G01 X48.1708 Y24.1851
G01 X48.1708 Y23.7699
G01 X48.1711 Y23.7591
G01 X48.1706 Y23.6123
G01 X48.1639 Y23.5823
G01 X48.1609 Y23.5653
G01 X48.1576 Y23.5394
G01 X48.1517 Y23.5229
G01 X48.1457 Y23.5029
G01 X48.1402 Y23.4805
G01 X48.1288 Y23.4570
G01 X48.1221 Y23.4411
G01 X48.1113 Y23.4123
G01 X48.1019 Y23.3975
G01 X48.0916 Y23.3793
G01 X48.0813 Y23.3588
G01 X48.0651 Y23.3383
G01 X48.0549 Y23.3243
G01 X48.0381 Y23.2986
G01 X47.9879 Y23.2494
G01 X46.2887 Y21.5502
G01 X46.2792 Y21.5393
G01 X46.2569 Y21.5113
G01 X46.2472 Y21.4964
G01 X46.2389 Y21.4807
G01 X46.2338 Y21.4684
G01 X46.2309 Y21.4601
G01 X46.2074 Y21.3794
G01 X46.2048 Y21.3667
G01 X46.2035 Y21.3582
G01 X46.2025 Y21.3454
G01 X46.2023 Y21.3368
G01 X46.2023 Y16.0801
G01 X46.2031 Y16.0630
G01 X46.2047 Y16.0503
G01 X46.2133 Y16.0004
G01 X46.2181 Y15.9829
G01 X46.2245 Y15.9660
G01 X46.2305 Y15.9538
G01 X46.2398 Y15.9383
G01 X46.2835 Y15.8766
G01 X46.2913 Y15.8664
G01 X46.3028 Y15.8536
G01 X46.3156 Y15.8420
G01 X46.4756 Y15.7155
G01 X46.6173 Y15.5598
G01 X46.7317 Y15.3831
G01 X46.8156 Y15.1900
G01 X46.8669 Y14.9858
G01 X46.8798 Y14.8295
G01 X46.8798 Y14.6121
G01 X46.8646 Y14.4683
G01 X46.8643 Y14.4600
G01 X46.8645 Y14.4476
G01 X46.8667 Y14.4074
G01 X46.8679 Y14.3941
G01 X46.8701 Y14.3808
G01 X46.8733 Y14.3678
G01 X46.8775 Y14.3550
G01 X46.8825 Y14.3426
G01 X46.8885 Y14.3305
G01 X46.9247 Y14.2645
G01 X46.9315 Y14.2535
G01 X46.9365 Y14.2465
G01 X46.9446 Y14.2365
G01 X46.9534 Y14.2271
G01 X49.5831 Y11.5974
G01 X49.5909 Y11.5900
G01 X49.6944 Y11.4858
G01 X49.7108 Y11.4599
G01 X49.7208 Y11.4457
G01 X49.7368 Y11.4250
G01 X49.7442 Y11.4092
G01 X49.7541 Y11.3908
G01 X49.7660 Y11.3711
G01 X49.7764 Y11.3422
G01 X49.7829 Y11.3262
G01 X49.7939 Y11.3025
G01 X49.7991 Y11.2800
G01 X49.8048 Y11.2600
G01 X49.8105 Y11.2434
G01 X49.8142 Y11.2129
G01 X49.8170 Y11.1958
G01 X49.8225 Y11.1703
G01 X49.8218 Y11.1000
G01 X49.8218 Y9.4357
G01 X49.8222 Y9.4233
G01 X49.8235 Y9.4110
G01 X49.8305 Y9.3673
G01 X49.8331 Y9.3541
G01 X49.8381 Y9.3369
G01 X49.8430 Y9.3244
G01 X49.8509 Y9.3084
G01 X49.8578 Y9.2969
G01 X49.9008 Y9.2348
G01 X49.9088 Y9.2240
G01 X49.9146 Y9.2172
G01 X49.9240 Y9.2075
G01 X49.9340 Y9.1985
G01 X49.9411 Y9.1930
G01 X49.9560 Y9.1830
G01 X49.9718 Y9.1745
G01 X50.0455 Y9.1436
G01 X50.0576 Y9.1390
G01 X50.0659 Y9.1365
G01 X50.0742 Y9.1344
G01 X50.0863 Y9.1320
G01 X50.1780 Y9.0976
G01 X50.2532 Y9.0413
G01 X50.3095 Y8.9662
G01 X50.3435 Y8.8753
G01 X50.3468 Y8.8455
G01 X50.3468 Y7.1688
G01 X50.3435 Y7.1390
G01 X50.3095 Y7.0481
G01 X50.2532 Y6.9730
G01 X50.1780 Y6.9167
G01 X50.0872 Y6.8826
G01 X50.0555 Y6.8792
G01 X50.0441 Y6.8784
G01 X50.0264 Y6.8756
G01 X50.0134 Y6.8724
G01 X49.9556 Y6.8560
G01 X49.9433 Y6.8516
G01 X49.9273 Y6.8445
G01 X49.9158 Y6.8381
G01 X49.9013 Y6.8283
G01 X49.8911 Y6.8201
G01 X49.8815 Y6.8112
G01 X49.8313 Y6.7610
G01 X49.8192 Y6.7477
G01 X49.8085 Y6.7332
G01 X49.8015 Y6.7218
G01 X49.7935 Y6.7057
G01 X49.7877 Y6.6907
G01 X49.5326 Y6.4355
G01 X49.5077 Y6.4444
G01 X49.4989 Y6.4470
G01 X49.4190 Y6.4671
G01 X49.4060 Y6.4698
G01 X49.3151 Y6.4832
G01 X49.2190 Y6.4879
G01 X49.1229 Y6.4832
G01 X49.0320 Y6.4698
G01 X49.0190 Y6.4671
G01 X48.9386 Y6.4469
G01 X48.9301 Y6.4443
G01 X48.9054 Y6.4355
G01 X48.6519 Y6.6890
G01 X48.6344 Y6.7218
G01 X48.6272 Y6.7331
G01 X48.6220 Y6.7402
G01 X48.6135 Y6.7505
G01 X48.6029 Y6.7614
G01 X48.5839 Y6.7858
G01 X48.5753 Y6.7961
G01 X48.5626 Y6.8088
G01 X48.5523 Y6.8175
G01 X48.5414 Y6.8254
G01 X48.5338 Y6.8302
G01 X48.5220 Y6.8366
G01 X48.5139 Y6.8404
G01 X48.5013 Y6.8454
G01 X48.4303 Y6.8705
G01 X48.4133 Y6.8751
G01 X48.4004 Y6.8775
G01 X48.3508 Y6.8826
G01 X48.2600 Y6.9167
G01 X48.1848 Y6.9730
G01 X48.1285 Y7.0481
G01 X48.0945 Y7.1390
G01 X48.0912 Y7.1688
G01 X48.0912 Y8.8455
G01 X48.0945 Y8.8753
G01 X48.1285 Y8.9662
G01 X48.1848 Y9.0413
G01 X48.2600 Y9.0976
G01 X48.3517 Y9.1320
G01 X48.3630 Y9.1342
G01 X48.3710 Y9.1362
G01 X48.4098 Y9.1468
G01 X48.4226 Y9.1509
G01 X48.4391 Y9.1577
G01 X48.4510 Y9.1639
G01 X48.4661 Y9.1735
G01 X48.4768 Y9.1816
G01 X48.5339 Y9.2310
G01 X48.5437 Y9.2402
G01 X48.5557 Y9.2535
G01 X48.5663 Y9.2680
G01 X48.5754 Y9.2835
G01 X48.5813 Y9.2956
G01 X48.5876 Y9.3124
G01 X48.6101 Y9.3889
G01 X48.6130 Y9.4015
G01 X48.6144 Y9.4100
G01 X48.6158 Y9.4228
G01 X48.6162 Y9.4357
G01 X48.6162 Y10.7323
G01 X48.6156 Y10.7468
G01 X48.6118 Y10.7828
G01 X48.6086 Y10.8002
G01 X48.6051 Y10.8131
G01 X48.6007 Y10.8256
G01 X48.5933 Y10.8418
G01 X48.5551 Y10.9117
G01 X48.5483 Y10.9227
G01 X48.5433 Y10.9297
G01 X48.5352 Y10.9397
G01 X48.5264 Y10.9492
G01 X46.1311 Y13.3443
G01 X46.1205 Y13.3537
G01 X46.1130 Y13.3594
G01 X46.0713 Y13.3881
G01 X46.0562 Y13.3975
G01 X46.0402 Y13.4053
G01 X46.0277 Y13.4101
G01 X46.0106 Y13.4151
G01 X45.9975 Y13.4177
G01 X45.9184 Y13.4283
G01 X45.9055 Y13.4293
G01 X45.8926 Y13.4293
G01 X45.8798 Y13.4284
G01 X45.8712 Y13.4273
G01 X45.6891 Y13.3995
G01 X45.4786 Y13.4020
G01 X45.2713 Y13.4390
G01 X45.0729 Y13.5092
G01 X44.8886 Y13.6110
G01 X44.7234 Y13.7415
G01 X44.5809 Y13.8980
G01 X44.5716 Y13.9100
G01 X44.5451 Y13.9410
G01 X44.5325 Y13.9533
G01 X44.5188 Y13.9642
G01 X44.5079 Y13.9716
G01 X44.4964 Y13.9781
G01 X44.4287 Y14.0113
G01 X44.4164 Y14.0168
G01 X44.4038 Y14.0213
G01 X44.3908 Y14.0249
G01 X44.3731 Y14.0282
G01 X44.3597 Y14.0295
G01 X44.3463 Y14.0297
G01 X44.3328 Y14.0290
G01 X44.2578 Y14.0204
G01 X44.2445 Y14.0183
G01 X44.2314 Y14.0153
G01 X44.2144 Y14.0098
G01 X44.1979 Y14.0026
G01 X44.1823 Y13.9938
G01 X44.1748 Y13.9888
G01 X44.1641 Y13.9806
G01 X44.1092 Y13.9356
G01 X44.0964 Y13.9241
G01 X44.0876 Y13.9147
G01 X44.0795 Y13.9047
G01 X44.0575 Y13.8728
G01 X43.9121 Y13.7207
G01 X43.7438 Y13.5943
G01 X43.5571 Y13.4972
G01 X43.4942 Y13.4766
G01 X43.4942 Y13.6345
G01 X43.5937 Y13.6816
G01 X43.6891 Y13.7388
G01 X43.7784 Y13.8050
G01 X43.8544 Y13.8736
G01 X43.8669 Y13.8861
G01 X43.9297 Y13.9554
G01 X43.9410 Y13.9691
G01 X44.0017 Y14.0514
G01 X44.0589 Y14.1468
G01 X44.1029 Y14.2392
G01 X44.1097 Y14.2556
G01 X44.1439 Y14.3520
G01 X44.1700 Y14.4556
G01 X44.1725 Y14.4687
G01 X44.1862 Y14.5611
G01 X44.1877 Y14.5743
G01 X44.1927 Y14.6766
G01 X44.1927 Y14.7760
G01 X44.1879 Y14.8782
G01 X44.1862 Y14.8959
G01 X44.1710 Y14.9971
G01 X44.1463 Y15.0964
G01 X44.1412 Y15.1134
G01 X44.1065 Y15.2097
G01 X44.0629 Y15.3023
G01 X44.0568 Y15.3141
G01 X44.0019 Y15.4053
G01 X43.9353 Y15.4951
G01 X43.8608 Y15.5773
G01 X43.7851 Y15.6462
G01 X43.7714 Y15.6575
G01 X43.6963 Y15.7131
G01 X43.6816 Y15.7230
G01 X43.5937 Y15.7754
G01 X43.4942 Y15.8225
G01 X43.4942 Y15.9798
G01 X43.5859 Y15.9473
G01 X43.7701 Y15.8456
G01 X43.9353 Y15.7152
G01 X44.0778 Y15.5586
G01 X44.0868 Y15.5470
G01 X44.1133 Y15.5160
G01 X44.1226 Y15.5067
G01 X44.1292 Y15.5009
G01 X44.1432 Y15.4902
G01 X44.1543 Y15.4832
G01 X44.1659 Y15.4770
G01 X44.2297 Y15.4457
G01 X44.2461 Y15.4386
G01 X44.2633 Y15.4332
G01 X44.2808 Y15.4295
G01 X44.2987 Y15.4276
G01 X44.3166 Y15.4274
G01 X44.3300 Y15.4284
G01 X44.4094 Y15.4379
G01 X44.4270 Y15.4417
G01 X44.4398 Y15.4457
G01 X44.4482 Y15.4489
G01 X44.4605 Y15.4544
G01 X44.4684 Y15.4587
G01 X44.4761 Y15.4633
G01 X44.4872 Y15.4708
G01 X44.5557 Y15.5270
G01 X44.5650 Y15.5360
G01 X44.5763 Y15.5489
G01 X44.5840 Y15.5593
G01 X44.6011 Y15.5845
G01 X44.7466 Y15.7367
G01 X44.8814 Y15.8382
G01 X44.8948 Y15.8506
G01 X44.9342 Y15.8932
G01 X44.9423 Y15.9036
G01 X44.9497 Y15.9146
G01 X44.9582 Y15.9300
G01 X44.9636 Y15.9421
G01 X44.9694 Y15.9587
G01 X44.9894 Y16.0268
G01 X44.9935 Y16.0436
G01 X44.9959 Y16.0606
G01 X44.9967 Y16.0778
G01 X44.9967 Y21.6256
G01 X44.9964 Y21.6364
G01 X44.9969 Y21.7832
G01 X45.0036 Y21.8132
G01 X45.0066 Y21.8302
G01 X45.0099 Y21.8561
G01 X45.0158 Y21.8726
G01 X45.0218 Y21.8926
G01 X45.0273 Y21.9150
G01 X45.0387 Y21.9385
G01 X45.0455 Y21.9545
G01 X45.0562 Y21.9832
G01 X45.0684 Y22.0028
G01 X45.0785 Y22.0210
G01 X45.0862 Y22.0367
G01 X45.1052 Y22.0609
G01 X45.1152 Y22.0749
G01 X45.1294 Y22.0969
G01 X45.1797 Y22.1461
G01 X46.8341 Y23.8008
G01 X46.8463 Y23.8141
G01 X46.8546 Y23.8248
G01 X46.8621 Y23.8361
G01 X46.8687 Y23.8479
G01 X46.9037 Y23.9241
G01 X46.9099 Y23.9409
G01 X46.9144 Y23.9583
G01 X46.9167 Y23.9716
G01 X46.9179 Y23.9850
G01 X46.9182 Y23.9984
G01 X46.9170 Y24.0163
G01 X46.9048 Y24.0999
G01 X46.9005 Y24.1173
G01 X46.8945 Y24.1342
G01 X46.8889 Y24.1465
G01 X46.8824 Y24.1583
G01 X46.8750 Y24.1696
G01 X46.8669 Y24.1803
G01 X46.8114 Y24.2440
G01 X46.7984 Y24.2563
G01 X46.7842 Y24.2673
G01 X46.7767 Y24.2722
G01 X46.7650 Y24.2789
G01 X46.7529 Y24.2848
G01 X46.7404 Y24.2897
G01 X46.6596 Y24.3136
G01 X46.6512 Y24.3156
G01 X46.6385 Y24.3179
G01 X46.6257 Y24.3193
G01 X46.6128 Y24.3197
G01 X46.2987 Y24.3197
G01 X46.2688 Y24.3230
G01 X46.1780 Y24.3570
G01 X46.1028 Y24.4133
G01 X46.0465 Y24.4885
G01 X46.0125 Y24.5793
G01 X46.0092 Y24.6092
G01 X46.0092 Y25.9858
G01 X46.0125 Y26.0157
G01 X46.0465 Y26.1065
G01 X46.1143 Y26.1970
G01 X46.1219 Y26.2079
G01 X46.1283 Y26.2187
G01 X46.1497 Y26.2583
G01 X46.1552 Y26.2709
G01 X46.1609 Y26.2881
G01 X46.1650 Y26.3059
G01 X46.1668 Y26.3194
G01 X46.1725 Y26.3993
G01 X46.1725 Y26.4172
G01 X46.1706 Y26.4351
G01 X46.1670 Y26.4527
G01 X46.1617 Y26.4698
G01 X46.1566 Y26.4823
G01 X46.1527 Y26.4904
G01 X46.1123 Y26.5641
G01 X46.1026 Y26.5783
G01 X46.0917 Y26.5916
G01 X45.8207 Y26.8629
G01 X45.8100 Y26.8727
G01 X45.7818 Y26.8955
G01 X45.7710 Y26.9032
G01 X45.7557 Y26.9121
G01 X45.7396 Y26.9196
G01 X45.7228 Y26.9254
G01 X45.6464 Y26.9476
G01 X45.6337 Y26.9502
G01 X45.6252 Y26.9515
G01 X45.6081 Y26.9527
G01 X45.3621 Y26.9525
G01 X45.3482 Y26.9512
G01 X45.3390 Y26.9498
G01 X45.2841 Y26.9384
G01 X45.2712 Y26.9352
G01 X45.2544 Y26.9295
G01 X45.2422 Y26.9241
G01 X45.2266 Y26.9156
G01 X45.2119 Y26.9056
G01 X45.1438 Y26.8486
G01 X45.1343 Y26.8391
G01 X45.1283 Y26.8324
G01 X45.1175 Y26.8181
G01 X45.1126 Y26.8105
G01 X45.1060 Y26.7988
G01 X45.1021 Y26.7907
G01 X45.0969 Y26.7783
G01 X45.0716 Y26.6977
G01 X45.0684 Y26.6846
G01 X45.0657 Y26.6669
G01 X45.0647 Y26.6490
G01 X45.0655 Y26.6311
G01 X45.0673 Y26.6177
G01 X45.0700 Y26.6045
G01 X45.0925 Y26.5235
G01 X45.0986 Y26.5074
G01 X45.1042 Y26.4958
G01 X45.1106 Y26.4846
G01 X45.1248 Y26.4615
G01 X45.1678 Y26.3327
G01 X45.1686 Y26.3247
G01 X45.0147 Y26.3247
G01 X45.0093 Y26.3443
G01 X44.9981 Y26.3757
G01 X44.9947 Y26.3839
G01 X44.9824 Y26.4101
G01 X44.9762 Y26.4219
G01 X44.9566 Y26.4543
G01 X44.9369 Y26.4813
G01 X44.9257 Y26.4950
G01 X44.9062 Y26.5164
G01 X44.8999 Y26.5227
G01 X44.8718 Y26.5480
G01 X44.8451 Y26.5680
G01 X44.8341 Y26.5756
G01 X44.8015 Y26.5949
G01 X44.7633 Y26.6129
G01 X44.7320 Y26.6244
G01 X44.7150 Y26.6295
G01 X44.6869 Y26.6365
G01 X44.6782 Y26.6383
G01 X44.6407 Y26.6437
G01 X44.5985 Y26.6457
G01 X43.2985 Y26.6457
G01 X43.2563 Y26.6437
G01 X43.2232 Y26.6390
G01 X43.2058 Y26.6355
G01 X43.1777 Y26.6284
G01 X43.1650 Y26.6244
G01 X43.1337 Y26.6129
G01 X43.0955 Y26.5949
G01 X43.0592 Y26.5731
G01 X43.0287 Y26.5507
G01 X43.0185 Y26.5422
G01 X42.9971 Y26.5227
G01 X42.9908 Y26.5164
G01 X42.9713 Y26.4950
G01 X42.9601 Y26.4813
G01 X42.9429 Y26.4580
G01 X42.9379 Y26.4506
G01 X42.9186 Y26.4180
G01 X42.9023 Y26.3839
G01 X42.8974 Y26.3716
G01 X42.8877 Y26.3443
G01 X42.8823 Y26.3247
G01 X42.7283 Y26.3247
G01 X42.7290 Y26.3317
G01 X42.7717 Y26.4606
G01 X42.7891 Y26.4889
G01 X42.7934 Y26.4967
G01 X42.7991 Y26.5088
G01 X42.8029 Y26.5183
G01 X42.8218 Y26.5707
G01 X42.8244 Y26.5792
G01 X42.8275 Y26.5921
G01 X42.8297 Y26.6052
G01 X42.8309 Y26.6184
G01 X42.8311 Y26.6317
G01 X42.8303 Y26.6450
G01 X42.8185 Y26.7285
G01 X42.8168 Y26.7373
G01 X42.8134 Y26.7503
G01 X42.8074 Y26.7672
G01 X42.7997 Y26.7835
G01 X42.7905 Y26.7989
G01 X42.7826 Y26.8098
G01 X42.7274 Y26.8737
G01 X42.7147 Y26.8864
G01 X42.7008 Y26.8977
G01 X42.6896 Y26.9052
G01 X42.6780 Y26.9119
G01 X42.6658 Y26.9178
G01 X42.6533 Y26.9227
G01 X42.5725 Y26.9466
G01 X42.5557 Y26.9502
G01 X42.5386 Y26.9523
G01 X42.5257 Y26.9527
G01 X42.2028 Y26.9527
G01 X42.1851 Y26.9514
G01 X42.1398 Y26.9446
G01 X42.1270 Y26.9419
G01 X42.1103 Y26.9369
G01 X42.0982 Y26.9321
G01 X42.0826 Y26.9244
G01 X42.0715 Y26.9176
G01 X42.0084 Y26.8762
G01 X41.9976 Y26.8681
G01 X41.9875 Y26.8592
G01 X41.9750 Y26.8463
G01 X41.9639 Y26.8322
G01 X41.9543 Y26.8171
G01 X41.9462 Y26.8011
G01 X41.9173 Y26.7362
G01 X41.9108 Y26.7195
G01 X41.9071 Y26.7065
G01 X41.9051 Y26.6978
G01 X41.9030 Y26.6845
G01 X41.9019 Y26.6711
G01 X41.9018 Y26.6576
G01 X41.9026 Y26.6442
G01 X41.9089 Y26.6021
G01 X41.9091 Y26.5928
G01 X41.9103 Y26.5796
G01 X41.9134 Y26.5621
G01 X41.9182 Y26.5450
G01 X41.9663 Y26.4007
G01 X41.8115 Y26.4007
G01 X41.8079 Y26.4120
G01 X41.7996 Y26.4351
G01 X41.7928 Y26.4514
G01 X41.7784 Y26.4815
G01 X41.7591 Y26.5141
G01 X41.7541 Y26.5215
G01 X41.7369 Y26.5448
G01 X41.7286 Y26.5551
G01 X41.7031 Y26.5831
G01 X41.6785 Y26.6057
G01 X41.6683 Y26.6142
G01 X41.6378 Y26.6366
G01 X41.6054 Y26.6562
G01 X41.5936 Y26.6624
G01 X41.5633 Y26.6764
G01 X41.5278 Y26.6893
G01 X41.5193 Y26.6919
G01 X41.4912 Y26.6990
G01 X41.4738 Y26.7025
G01 X41.4407 Y26.7072
G01 X41.3985 Y26.7092
G01 X40.1485 Y26.7092
G01 X40.1063 Y26.7072
G01 X40.0688 Y26.7018
G01 X40.0558 Y26.6990
G01 X40.0277 Y26.6919
G01 X40.0192 Y26.6893
G01 X39.9837 Y26.6764
G01 X39.9534 Y26.6624
G01 X39.9416 Y26.6562
G01 X39.9092 Y26.6366
G01 X39.8787 Y26.6142
G01 X39.8685 Y26.6057
G01 X39.8439 Y26.5831
G01 X39.8213 Y26.5585
G01 X39.8128 Y26.5483
G01 X39.7904 Y26.5178
G01 X39.7686 Y26.4815
G01 X39.7542 Y26.4514
G01 X39.7489 Y26.4392
G01 X39.7363 Y26.4035
G01 X39.7270 Y26.3669
G01 X39.7245 Y26.3538
G01 X39.7198 Y26.3201
G01 X39.7178 Y26.2829
G01 X39.7178 Y25.6535
G01 X39.7198 Y25.6113
G01 X39.7252 Y25.5738
G01 X39.7280 Y25.5608
G01 X39.7363 Y25.5285
G01 X39.7506 Y25.4887
G01 X39.7686 Y25.4505
G01 X39.7879 Y25.4179
G01 X39.7955 Y25.4069
G01 X39.8128 Y25.3837
G01 X39.8213 Y25.3735
G01 X39.8439 Y25.3489
G01 X39.8685 Y25.3263
G01 X39.8787 Y25.3178
G01 X39.9055 Y25.2979
G01 X39.9167 Y25.2906
G01 X39.9416 Y25.2758
G01 X39.9534 Y25.2696
G01 X39.9837 Y25.2556
G01 X40.0235 Y25.2413
G01 X40.0645 Y25.2310
G01 X40.1022 Y25.2253
G01 X40.1151 Y25.2242
G01 X40.1485 Y25.2228
G01 X40.3388 Y25.2228
G01 X40.3388 Y25.0762
G01 X40.1074 Y25.0762
G01 X40.0318 Y25.0840
G01 X39.9029 Y25.1267
G01 X39.7883 Y25.1974
G01 X39.6930 Y25.2925
G01 X39.6672 Y25.3342
G01 X39.6600 Y25.3443
G01 X39.6549 Y25.3509
G01 X39.6197 Y25.3911
G01 X39.6067 Y25.4034
G01 X39.5925 Y25.4143
G01 X39.5812 Y25.4216
G01 X39.5653 Y25.4299
G01 X39.4920 Y25.4618
G01 X39.4750 Y25.4677
G01 X39.4576 Y25.4719
G01 X39.4443 Y25.4739
G01 X39.4353 Y25.4747
G01 X39.4174 Y25.4749
G01 X39.3995 Y25.4733
G01 X39.3250 Y25.4612
G01 X39.3075 Y25.4575
G01 X39.2946 Y25.4535
G01 X39.2820 Y25.4486
G01 X39.2699 Y25.4428
G01 X39.2545 Y25.4337
G01 X39.2435 Y25.4258
G01 X39.2366 Y25.4202
G01 X39.1804 Y25.3697
G01 X39.1708 Y25.3604
G01 X39.1619 Y25.3504
G01 X39.1512 Y25.3360
G01 X39.1245 Y25.2930
G01 X39.0293 Y25.1976
G01 X38.9148 Y25.1267
G01 X38.8509 Y25.1053
G01 X38.8259 Y25.0953
G01 X38.8180 Y25.0915
G01 X38.8065 Y25.0852
G01 X38.7956 Y25.0780
G01 X38.7851 Y25.0700
G01 X38.7215 Y25.0146
G01 X38.7121 Y25.0050
G01 X38.7063 Y24.9981
G01 X38.7008 Y24.9910
G01 X38.6933 Y24.9799
G01 X38.6866 Y24.9682
G01 X38.6826 Y24.9602
G01 X38.6758 Y24.9435
G01 X38.6531 Y24.8669
G01 X38.6499 Y24.8544
G01 X38.6470 Y24.8374
G01 X38.6460 Y24.8246
G01 X38.6458 Y24.8160
G01 X38.6458 Y20.3122
G01 X38.6464 Y20.2977
G01 X38.6502 Y20.2617
G01 X38.6524 Y20.2486
G01 X38.6569 Y20.2314
G01 X38.6630 Y20.2148
G01 X38.6708 Y20.1988
G01 X38.7091 Y20.1291
G01 X38.7137 Y20.1218
G01 X38.7213 Y20.1114
G01 X38.7326 Y20.0984
G01 X40.8836 Y17.9474
G01 X40.8914 Y17.9400
G01 X40.9949 Y17.8358
G01 X41.0113 Y17.8099
G01 X41.0213 Y17.7957
G01 X41.0373 Y17.7750
G01 X41.0447 Y17.7592
G01 X41.0546 Y17.7408
G01 X41.0665 Y17.7211
G01 X41.0769 Y17.6922
G01 X41.0834 Y17.6762
G01 X41.0944 Y17.6525
G01 X41.0996 Y17.6300
G01 X41.1053 Y17.6100
G01 X41.1110 Y17.5934
G01 X41.1147 Y17.5629
G01 X41.1175 Y17.5458
G01 X41.1230 Y17.5203
G01 X41.1223 Y17.4500
G01 X41.1223 Y16.3630
G01 X41.1225 Y16.3544
G01 X41.1235 Y16.3415
G01 X41.1264 Y16.3246
G01 X41.1399 Y16.2635
G01 X41.1455 Y16.2463
G01 X41.1528 Y16.2298
G01 X41.1617 Y16.2140
G01 X41.1721 Y16.1993
G01 X41.2273 Y16.1353
G01 X41.2400 Y16.1226
G01 X41.2539 Y16.1113
G01 X41.2689 Y16.1014
G01 X41.2848 Y16.0931
G01 X41.2972 Y16.0879
G01 X41.3057 Y16.0849
G01 X41.3781 Y16.0636
G01 X41.3906 Y16.0604
G01 X41.3990 Y16.0588
G01 X41.4161 Y16.0567
G01 X41.4290 Y16.0563
G01 X41.5103 Y16.0563
G01 X41.5402 Y16.0530
G01 X41.6310 Y16.0190
G01 X41.7062 Y15.9627
G01 X41.7627 Y15.8872
G01 X41.7730 Y15.8645
G01 X41.7788 Y15.8530
G01 X41.7877 Y15.8383
G01 X41.7953 Y15.8279
G01 X41.8008 Y15.8213
G01 X41.8096 Y15.8118
G01 X41.8599 Y15.7617
G01 X41.8732 Y15.7497
G01 X41.8840 Y15.7416
G01 X41.8992 Y15.7320
G01 X41.9152 Y15.7240
G01 X41.9320 Y15.7177
G01 X41.9494 Y15.7130
G01 X42.0187 Y15.6980
G01 X42.0365 Y15.6951
G01 X42.0544 Y15.6940
G01 X42.0723 Y15.6946
G01 X42.0901 Y15.6970
G01 X42.1032 Y15.7000
G01 X42.1203 Y15.7054
G01 X42.1868 Y15.7304
G01 X42.2026 Y15.7371
G01 X42.2140 Y15.7432
G01 X42.2284 Y15.7525
G01 X42.3752 Y15.8627
G01 X42.5619 Y15.9598
G01 X42.6248 Y15.9804
G01 X42.6248 Y15.8225
G01 X42.5253 Y15.7754
G01 X42.4302 Y15.7185
G01 X42.3404 Y15.6518
G01 X42.2646 Y15.5834
G01 X42.2521 Y15.5709
G01 X42.1893 Y15.5016
G01 X42.1780 Y15.4879
G01 X42.1173 Y15.4056
G01 X42.0601 Y15.3102
G01 X42.0161 Y15.2178
G01 X42.0093 Y15.2014
G01 X41.9751 Y15.1050
G01 X41.9490 Y15.0014
G01 X41.9465 Y14.9883
G01 X41.9328 Y14.8959
G01 X41.9313 Y14.8827
G01 X41.9263 Y14.7804
G01 X41.9263 Y14.6810
G01 X41.9311 Y14.5788
G01 X41.9328 Y14.5611
G01 X41.9480 Y14.4599
G01 X41.9727 Y14.3606
G01 X41.9778 Y14.3436
G01 X42.0125 Y14.2473
G01 X42.0561 Y14.1547
G01 X42.0622 Y14.1429
G01 X42.1173 Y14.0514
G01 X42.1835 Y13.9621
G01 X42.2582 Y13.8797
G01 X42.3339 Y13.8108
G01 X42.3476 Y13.7995
G01 X42.4227 Y13.7439
G01 X42.4374 Y13.7340
G01 X42.5253 Y13.6816
G01 X42.6248 Y13.6345
G01 X42.6248 Y13.4772
G01 X42.5331 Y13.5097
G01 X42.3489 Y13.6114
G01 X42.2344 Y13.7017
G01 X42.2261 Y13.7075
G01 X42.2011 Y13.7238
G01 X42.1894 Y13.7302
G01 X42.1813 Y13.7340
G01 X42.1689 Y13.7389
G01 X42.1519 Y13.7440
G01 X42.0782 Y13.7602
G01 X42.0649 Y13.7626
G01 X42.0471 Y13.7642
G01 X42.0291 Y13.7641
G01 X42.0113 Y13.7622
G01 X41.9937 Y13.7585
G01 X41.9766 Y13.7531
G01 X41.9100 Y13.7284
G01 X41.8976 Y13.7232
G01 X41.8856 Y13.7172
G01 X41.8740 Y13.7102
G01 X41.8630 Y13.7025
G01 X41.8527 Y13.6939
G01 X41.8430 Y13.6846
G01 X41.8311 Y13.6711
G01 X41.7858 Y13.6107
G01 X41.7804 Y13.6033
G01 X41.7732 Y13.5915
G01 X41.7668 Y13.5793
G01 X41.7626 Y13.5697
G01 X41.7062 Y13.4943
G01 X41.6310 Y13.4380
G01 X41.5402 Y13.4040
G01 X41.5103 Y13.4007
G01 X41.4839 Y13.4005
G01 X41.4668 Y13.3989
G01 X41.4541 Y13.3966
G01 X41.4017 Y13.3852
G01 X41.3886 Y13.3818
G01 X41.3758 Y13.3775
G01 X41.3593 Y13.3702
G01 X41.3435 Y13.3613
G01 X41.3288 Y13.3509
G01 X41.2681 Y13.2987
G01 X41.2583 Y13.2895
G01 X41.2492 Y13.2796
G01 X41.2435 Y13.2727
G01 X41.2357 Y13.2617
G01 X41.2309 Y13.2541
G01 X41.2226 Y13.2382
G01 X41.2174 Y13.2258
G01 X41.2144 Y13.2173
G01 X41.1919 Y13.1408
G01 X41.1890 Y13.1282
G01 X41.1870 Y13.1155
G01 X41.1860 Y13.1026
G01 X41.1858 Y13.0940
G01 X41.1858 Y9.6897
G01 X41.1865 Y9.6732
G01 X41.1881 Y9.6609
G01 X41.1961 Y9.6125
G01 X41.1982 Y9.6038
G01 X41.2021 Y9.5909
G01 X41.2088 Y9.5743
G01 X41.2171 Y9.5585
G01 X41.2243 Y9.5472
G01 X41.2674 Y9.4851
G01 X41.2728 Y9.4780
G01 X41.2817 Y9.4679
G01 X41.2946 Y9.4554
G01 X41.3087 Y9.4443
G01 X41.3238 Y9.4347
G01 X41.3399 Y9.4266
G01 X41.4176 Y9.3945
G01 X41.4340 Y9.3894
G01 X41.4503 Y9.3860
G01 X41.5420 Y9.3516
G01 X41.6172 Y9.2953
G01 X41.6735 Y9.2202
G01 X41.7075 Y9.1293
G01 X41.7108 Y9.0995
G01 X41.7108 Y7.4228
G01 X41.7075 Y7.3930
G01 X41.6735 Y7.3021
G01 X41.6172 Y7.2270
G01 X41.5420 Y7.1707
G01 X41.4512 Y7.1366
G01 X41.4195 Y7.1332
G01 X41.4081 Y7.1324
G01 X41.3904 Y7.1296
G01 X41.3774 Y7.1264
G01 X41.3155 Y7.1086
G01 X41.2992 Y7.1022
G01 X41.2874 Y7.0964
G01 X41.2725 Y7.0874
G01 X41.2618 Y7.0797
G01 X41.2551 Y7.0741
G01 X41.2455 Y7.0652
G01 X41.1953 Y7.0150
G01 X41.1832 Y7.0017
G01 X41.1751 Y6.9910
G01 X41.1655 Y6.9758
G01 X41.1575 Y6.9597
G01 X41.1517 Y6.9447
G01 X40.8966 Y6.6895
G01 X40.8717 Y6.6984
G01 X40.8629 Y6.7010
G01 X40.7830 Y6.7211
G01 X40.7700 Y6.7238
G01 X40.6791 Y6.7372
G01 X40.5830 Y6.7419
G01 X40.4869 Y6.7372
G01 X40.3960 Y6.7238
G01 X40.3830 Y6.7211
G01 X40.3026 Y6.7009
G01 X40.2941 Y6.6983
G01 X40.2694 Y6.6895
G01 X40.0159 Y6.9430
G01 X39.9984 Y6.9758
G01 X39.9912 Y6.9871
G01 X39.9860 Y6.9942
G01 X39.9775 Y7.0045
G01 X39.9669 Y7.0154
G01 X39.9479 Y7.0398
G01 X39.9393 Y7.0501
G01 X39.9299 Y7.0598
G01 X39.9163 Y7.0715
G01 X39.9091 Y7.0768
G01 X39.8978 Y7.0842
G01 X39.8900 Y7.0886
G01 X39.8779 Y7.0944
G01 X39.8653 Y7.0994
G01 X39.7943 Y7.1245
G01 X39.7773 Y7.1291
G01 X39.7644 Y7.1315
G01 X39.7148 Y7.1366
G01 X39.6240 Y7.1707
G01 X39.5488 Y7.2270
G01 X39.4925 Y7.3021
G01 X39.4585 Y7.3930
G01 X39.4552 Y7.4228
G01 X39.4552 Y9.0995
G01 X39.4585 Y9.1293
G01 X39.4925 Y9.2202
G01 X39.5488 Y9.2953
G01 X39.6240 Y9.3516
G01 X39.7157 Y9.3860
G01 X39.7270 Y9.3882
G01 X39.7350 Y9.3902
G01 X39.7738 Y9.4008
G01 X39.7866 Y9.4049
G01 X39.7990 Y9.4099
G01 X39.8150 Y9.4179
G01 X39.8264 Y9.4250
G01 X39.8408 Y9.4356
G01 X39.8979 Y9.4850
G01 X39.9108 Y9.4974
G01 X39.9225 Y9.5111
G01 X39.9303 Y9.5220
G01 X39.9394 Y9.5375
G01 X39.9470 Y9.5537
G01 X39.9529 Y9.5707
G01 X39.9741 Y9.6429
G01 X39.9777 Y9.6598
G01 X39.9794 Y9.6725
G01 X39.9802 Y9.6897
G01 X39.9802 Y13.0940
G01 X39.9798 Y13.1069
G01 X39.9790 Y13.1155
G01 X39.9770 Y13.1282
G01 X39.9626 Y13.1935
G01 X39.9585 Y13.2065
G01 X39.9536 Y13.2191
G01 X39.9477 Y13.2313
G01 X39.9432 Y13.2391
G01 X39.9358 Y13.2505
G01 X39.9276 Y13.2612
G01 X39.8722 Y13.3250
G01 X39.8625 Y13.3344
G01 X39.8522 Y13.3430
G01 X39.8412 Y13.3508
G01 X39.8336 Y13.3556
G01 X39.8258 Y13.3599
G01 X39.8136 Y13.3658
G01 X39.7968 Y13.3721
G01 X39.7203 Y13.3946
G01 X39.7119 Y13.3966
G01 X39.6992 Y13.3989
G01 X39.6864 Y13.4003
G01 X39.6735 Y13.4007
G01 X39.5287 Y13.4007
G01 X39.4988 Y13.4040
G01 X39.4080 Y13.4380
G01 X39.3328 Y13.4943
G01 X39.2765 Y13.5695
G01 X39.2425 Y13.6603
G01 X39.2392 Y13.6902
G01 X39.2392 Y13.8190
G01 X39.2384 Y13.8362
G01 X39.2360 Y13.8532
G01 X39.2227 Y13.9142
G01 X39.2190 Y13.9272
G01 X39.2143 Y13.9399
G01 X39.2107 Y13.9482
G01 X39.2045 Y13.9602
G01 X39.1974 Y13.9717
G01 X39.1922 Y13.9791
G01 X39.1837 Y13.9897
G01 X39.1342 Y14.0467
G01 X39.1248 Y14.0563
G01 X39.1112 Y14.0680
G01 X39.1002 Y14.0758
G01 X39.0848 Y14.0849
G01 X39.0726 Y14.0908
G01 X39.0558 Y14.0971
G01 X38.9793 Y14.1196
G01 X38.9667 Y14.1225
G01 X38.9540 Y14.1245
G01 X38.9454 Y14.1253
G01 X38.9325 Y14.1257
G01 X34.3844 Y14.1257
G01 X34.3736 Y14.1254
G01 X34.2268 Y14.1259
G01 X34.2013 Y14.1317
G01 X34.1843 Y14.1348
G01 X34.1539 Y14.1389
G01 X34.1321 Y14.1465
G01 X34.1121 Y14.1523
G01 X34.0950 Y14.1563
G01 X34.0715 Y14.1677
G01 X34.0555 Y14.1745
G01 X34.0268 Y14.1852
G01 X34.0072 Y14.1974
G01 X33.9901 Y14.2069
G01 X33.9733 Y14.2152
G01 X33.9491 Y14.2342
G01 X33.9350 Y14.2442
G01 X33.9131 Y14.2584
G01 X33.8645 Y14.3081
G01 X33.7517 Y14.4208
G01 X33.7408 Y14.4303
G01 X33.7128 Y14.4526
G01 X33.7017 Y14.4600
G01 X33.6902 Y14.4666
G01 X33.6782 Y14.4724
G01 X33.6658 Y14.4772
G01 X33.5892 Y14.4999
G01 X33.5809 Y14.5021
G01 X33.5682 Y14.5047
G01 X33.5512 Y14.5068
G01 X33.5383 Y14.5072
G01 X31.9517 Y14.5072
G01 X31.9218 Y14.5105
G01 X31.8310 Y14.5445
G01 X31.7558 Y14.6008
G01 X31.6995 Y14.6760
G01 X31.6655 Y14.7668
G01 X31.6622 Y14.7967
G01 X31.6622 Y15.0255
G01 X31.6614 Y15.0427
G01 X31.6590 Y15.0597
G01 X31.6446 Y15.1250
G01 X31.6405 Y15.1380
G01 X31.6356 Y15.1506
G01 X31.6297 Y15.1628
G01 X31.6252 Y15.1706
G01 X31.6178 Y15.1820
G01 X31.6096 Y15.1927
G01 X31.5572 Y15.2532
G01 X31.5478 Y15.2628
G01 X31.5411 Y15.2688
G01 X31.5306 Y15.2772
G01 X31.5194 Y15.2847
G01 X31.5117 Y15.2893
G01 X31.4997 Y15.2954
G01 X31.4915 Y15.2990
G01 X31.4788 Y15.3036
G01 X31.4023 Y15.3261
G01 X31.3855 Y15.3297
G01 X31.3727 Y15.3314
G01 X31.3555 Y15.3322
G01 X28.1614 Y15.3322
G01 X28.1506 Y15.3319
G01 X28.0594 Y15.3322
G01 X26.4182 Y15.3322
G01 X26.4037 Y15.3316
G01 X26.3677 Y15.3278
G01 X26.3546 Y15.3256
G01 X26.3417 Y15.3224
G01 X26.3249 Y15.3167
G01 X26.3127 Y15.3113
G01 X26.3048 Y15.3072
G01 X26.2388 Y15.2711
G01 X26.2278 Y15.2643
G01 X26.2141 Y15.2540
G01 X26.2013 Y15.2424
G01 X26.0356 Y15.0767
G01 X26.0258 Y15.0660
G01 X26.0030 Y15.0378
G01 X25.9953 Y15.0270
G01 X25.9864 Y15.0117
G01 X25.9789 Y14.9956
G01 X25.9731 Y14.9788
G01 X25.9509 Y14.9024
G01 X25.9483 Y14.8897
G01 X25.9470 Y14.8812
G01 X25.9458 Y14.8641
G01 X25.9458 Y3.6404
G01 X25.9461 Y3.6296
G01 X25.9456 Y3.4828
G01 X25.9398 Y3.4573
G01 X25.9367 Y3.4403
G01 X25.9326 Y3.4099
G01 X25.9267 Y3.3934
G01 X25.9207 Y3.3734
G01 X25.9152 Y3.3510
G01 X25.9038 Y3.3275
G01 X25.8970 Y3.3115
G01 X25.8863 Y3.2828
G01 X25.8741 Y3.2632
G01 X25.8640 Y3.2450
G01 X25.8563 Y3.2293
G01 X25.8373 Y3.2051
G01 X25.8273 Y3.1910
G01 X25.8131 Y3.1691
G01 X25.7628 Y3.1199
G01 X25.5139 Y2.8709
G01 X25.5065 Y2.8631
G01 X25.4023 Y2.7596
G01 X25.3764 Y2.7432
G01 X25.3622 Y2.7332
G01 X25.3415 Y2.7172
G01 X25.3257 Y2.7098
G01 X25.3073 Y2.6999
G01 X25.2876 Y2.6880
G01 X25.2587 Y2.6776
G01 X25.2427 Y2.6711
G01 X25.2190 Y2.6601
G01 X25.1965 Y2.6549
G01 X25.1765 Y2.6492
G01 X25.1599 Y2.6435
G01 X25.1294 Y2.6398
G01 X25.1123 Y2.6370
G01 X25.0868 Y2.6315
G01 X25.0165 Y2.6322
G01 X5.8094 Y2.6322
G01 X5.7986 Y2.6319
G01 X5.6518 Y2.6324
G01 X5.6218 Y2.6391
G01 X5.6048 Y2.6421
G01 X5.5789 Y2.6454
G01 X5.5624 Y2.6513
G01 X5.5424 Y2.6573
G01 X5.5200 Y2.6628
G01 X5.4965 Y2.6742
G01 X5.4805 Y2.6810
G01 X5.4518 Y2.6917
G01 X5.4322 Y2.7039
G01 X5.4151 Y2.7134
G01 X5.3983 Y2.7217
G01 X5.3741 Y2.7407
G01 X5.3600 Y2.7507
G01 X5.3381 Y2.7649
G01 X5.2889 Y2.8151
G01 X3.9604 Y4.1436
G01 X3.9526 Y4.1510
G01 X3.8491 Y4.2552
G01 X3.8327 Y4.2811
G01 X3.8227 Y4.2953
G01 X3.8067 Y4.3160
G01 X3.7993 Y4.3318
G01 X3.7894 Y4.3502
G01 X3.7775 Y4.3699
G01 X3.7671 Y4.3988
G01 X3.7606 Y4.4148
G01 X3.7496 Y4.4385
G01 X3.7444 Y4.4610
G01 X3.7387 Y4.4810
G01 X3.7330 Y4.4976
G01 X3.7293 Y4.5281
G01 X3.7265 Y4.5452
G01 X3.7210 Y4.5707
G01 X3.7217 Y4.6410
G01 X3.7217 Y68.5521
G01 X3.7214 Y68.5629
G01 X3.7219 Y68.7097
G01 X3.7286 Y68.7397
G01 X3.7316 Y68.7567
G01 X3.7349 Y68.7826
G01 X3.7408 Y68.7991
G01 X3.7468 Y68.8191
G01 X3.7523 Y68.8415
G01 X3.7637 Y68.8650
G01 X3.7705 Y68.8810
G01 X3.7812 Y68.9097
G01 X3.7934 Y68.9293
G01 X3.8035 Y68.9475
G01 X3.8112 Y68.9632
G01 X3.8302 Y68.9874
G01 X3.8402 Y69.0014
G01 X3.8544 Y69.0234
G01 X3.9047 Y69.0726
G01 X10.3131 Y75.4811
G01 X10.3205 Y75.4889
G01 X10.4247 Y75.5924
G01 X10.4506 Y75.6088
G01 X10.4648 Y75.6188
G01 X10.4855 Y75.6348
G01 X10.5013 Y75.6422
G01 X10.5197 Y75.6521
G01 X10.5394 Y75.6640
G01 X10.5683 Y75.6744
G01 X10.5843 Y75.6809
G01 X10.6080 Y75.6919
G01 X10.6305 Y75.6971
G01 X10.6505 Y75.7028
G01 X10.6671 Y75.7085
G01 X10.6976 Y75.7122
G01 X10.7147 Y75.7150
G01 X10.7402 Y75.7205
G01 X10.8105 Y75.7198
G01 X29.4906 Y75.7198
G01 X29.5032 Y75.7202
G01 X29.5157 Y75.7215
G01 X29.5602 Y75.7288
G01 X29.5735 Y75.7315
G01 X29.5865 Y75.7351
G01 X29.6033 Y75.7415
G01 X29.6155 Y75.7474
G01 X29.6271 Y75.7542
G01 X29.6963 Y75.8024
G01 X29.7064 Y75.8104
G01 X29.7159 Y75.8191
G01 X29.7247 Y75.8285
G01 X29.7354 Y75.8417
G01 X29.7481 Y75.8593
G01 X29.7624 Y75.8814
G01 X29.8127 Y75.9306
G01 X31.5084 Y77.6263
G01 X31.5150 Y77.6334
G01 X31.5213 Y77.6407
G01 X31.5410 Y77.6652
G01 X31.5487 Y77.6760
G01 X31.5555 Y77.6874
G01 X31.5616 Y77.6993
G01 X31.5667 Y77.7116
G01 X31.5709 Y77.7242
G01 X31.5931 Y77.8006
G01 X31.5964 Y77.8175
G01 X31.5978 Y77.8303
G01 X31.5982 Y77.8389
G01 X31.5982 Y79.4106
G01 X31.5979 Y79.4214
G01 X31.5984 Y79.5682
G01 X31.6051 Y79.5982
G01 X31.6081 Y79.6152
G01 X31.6114 Y79.6411
G01 X31.6173 Y79.6576
G01 X31.6233 Y79.6776
G01 X31.6288 Y79.7000
G01 X31.6402 Y79.7235
G01 X31.6470 Y79.7395
G01 X31.6577 Y79.7682
G01 X31.6699 Y79.7878
G01 X31.6800 Y79.8060
G01 X31.6877 Y79.8217
G01 X31.7067 Y79.8459
G01 X31.7167 Y79.8599
G01 X31.7309 Y79.8819
G01 X31.7812 Y79.9311
G01 X32.4746 Y80.6246
G01 X32.4820 Y80.6324
G01 X32.5862 Y80.7359
G01 X32.6121 Y80.7524
G01 X32.6263 Y80.7623
G01 X32.6470 Y80.7783
G01 X32.6677 Y80.7883
G01 X32.6860 Y80.7983
G01 X32.7009 Y80.8075
G01 X32.7255 Y80.8162
G01 X32.7416 Y80.8226
G01 X32.7695 Y80.8354
G01 X32.7920 Y80.8406
G01 X32.8121 Y80.8463
G01 X32.8286 Y80.8520
G01 X32.8591 Y80.8557
G01 X32.8762 Y80.8585
G01 X32.9017 Y80.8640
G01 X32.9720 Y80.8633
G01 X35.9231 Y80.8633
G01 X35.9339 Y80.8636
G01 X36.0807 Y80.8631
G01 X36.1107 Y80.8564
G01 X36.1277 Y80.8534
G01 X36.1536 Y80.8501
G01 X36.1701 Y80.8442
G01 X36.1901 Y80.8382
G01 X36.2125 Y80.8327
G01 X36.2360 Y80.8213
G01 X36.2520 Y80.8145
G01 X36.2807 Y80.8038
G01 X36.3003 Y80.7916
G01 X36.3185 Y80.7815
G01 X36.3342 Y80.7738
G01 X36.3584 Y80.7548
G01 X36.3724 Y80.7448
G01 X36.3944 Y80.7306
G01 X36.4436 Y80.6803
G01 X37.3736 Y79.7504
G01 X37.3814 Y79.7430
G01 X37.4849 Y79.6388
G01 X37.5013 Y79.6129
G01 X37.5113 Y79.5987
G01 X37.5273 Y79.5780
G01 X37.5347 Y79.5622
G01 X37.5446 Y79.5438
G01 X37.5565 Y79.5241
G01 X37.5669 Y79.4952
G01 X37.5734 Y79.4792
G01 X37.5844 Y79.4555
G01 X37.5896 Y79.4330
G01 X37.5953 Y79.4130
G01 X37.6010 Y79.3964
G01 X37.6047 Y79.3659
G01 X37.6075 Y79.3488
G01 X37.6130 Y79.3233
G01 X37.6123 Y79.2530
G01 X37.6123 Y78.5670
G01 X37.6136 Y78.5495
G01 X37.6157 Y78.5365
G01 X37.6260 Y78.4843
G01 X37.6295 Y78.4711
G01 X37.6323 Y78.4625
G01 X37.6356 Y78.4540
G01 X37.6413 Y78.4417
G01 X37.6456 Y78.4337
G01 X37.6528 Y78.4221
G01 X37.6609 Y78.4112
G01 X37.7086 Y78.3514
G01 X37.7220 Y78.3373
G01 X37.7288 Y78.3312
G01 X37.7364 Y78.3250
G01 X37.8767 Y78.1847
G01 X37.9138 Y78.1322
G01 X37.9367 Y78.1054
G01 X37.9488 Y78.0927
G01 X37.9586 Y78.0840
G01 X37.9690 Y78.0761
G01 X37.9800 Y78.0689
G01 X37.9915 Y78.0626
G01 X38.0632 Y78.0266
G01 X38.0715 Y78.0231
G01 X38.0842 Y78.0187
G01 X38.1016 Y78.0144
G01 X38.1149 Y78.0123
G01 X38.1239 Y78.0114
G01 X38.1328 Y78.0110
G01 X38.1463 Y78.0112
G01 X38.2348 Y78.0204
G01 X38.2523 Y78.0240
G01 X38.2695 Y78.0293
G01 X38.2860 Y78.0363
G01 X38.2940 Y78.0404
G01 X38.3055 Y78.0473
G01 X38.3201 Y78.0578
G01 X38.3756 Y78.1022
G01 X38.3853 Y78.1106
G01 X38.3915 Y78.1166
G01 X38.4002 Y78.1261
G01 X38.4082 Y78.1362
G01 X38.4423 Y78.1847
G01 X38.5818 Y78.3242
G01 X38.7435 Y78.4374
G01 X38.9223 Y78.5208
G01 X39.1129 Y78.5719
G01 X39.3095 Y78.5891
G01 X39.5061 Y78.5719
G01 X39.6967 Y78.5208
G01 X39.8755 Y78.4374
G01 X40.0372 Y78.3242
G01 X40.1775 Y78.1839
G01 X40.1834 Y78.1767
G01 X40.1923 Y78.1670
G01 X40.2337 Y78.1272
G01 X40.2470 Y78.1161
G01 X40.2577 Y78.1087
G01 X40.2688 Y78.1020
G01 X40.2805 Y78.0962
G01 X40.2925 Y78.0912
G01 X40.3048 Y78.0871
G01 X40.3771 Y78.0659
G01 X40.3897 Y78.0630
G01 X40.4024 Y78.0610
G01 X40.4153 Y78.0600
G01 X40.4239 Y78.0598
G01 X41.1013 Y78.0598
G01 X41.1140 Y78.0602
G01 X41.1265 Y78.0615
G01 X41.1711 Y78.0688
G01 X41.1887 Y78.0726
G01 X41.2058 Y78.0782
G01 X41.2223 Y78.0854
G01 X41.2380 Y78.0942
G01 X41.3109 Y78.1453
G01 X41.3178 Y78.1510
G01 X41.3277 Y78.1602
G01 X41.3339 Y78.1667
G01 X41.3425 Y78.1770
G01 X41.3478 Y78.1842
G01 X41.3552 Y78.1955
G01 X41.3636 Y78.2114
G01 X41.3940 Y78.2853
G01 X41.3984 Y78.2974
G01 X41.4030 Y78.3140
G01 X41.4054 Y78.3267
G01 X41.4130 Y78.3987
G01 X41.4558 Y78.5278
G01 X41.5265 Y78.6425
G01 X41.6217 Y78.7379
G01 X41.7362 Y78.8088
G01 X41.8652 Y78.8518
G01 X41.9420 Y78.8598
G01 X42.6492 Y78.8598
G01 X42.7248 Y78.8520
G01 X42.8538 Y78.8092
G01 X42.9685 Y78.7385
G01 X43.0639 Y78.6433
G01 X43.1348 Y78.5288
G01 X43.1778 Y78.3998
G01 X43.1858 Y78.3231
G01 X43.1858 Y76.9908
G01 X43.1780 Y76.9153
G01 X43.1352 Y76.7862
G01 X43.0645 Y76.6715
G01 X42.9693 Y76.5761
G01 X42.8548 Y76.5052
G01 X42.7258 Y76.4622
G01 X42.6490 Y76.4542
G01 X41.9418 Y76.4542
G01 X41.8662 Y76.4620
G01 X41.7372 Y76.5048
G01 X41.6225 Y76.5755
G01 X41.5271 Y76.6707
G01 X41.5011 Y76.7127
G01 X41.4960 Y76.7200
G01 X41.4877 Y76.7306
G01 X41.4787 Y76.7405
G01 X41.4396 Y76.7802
G01 X41.4268 Y76.7921
G01 X41.4164 Y76.8001
G01 X41.4055 Y76.8074
G01 X41.3902 Y76.8158
G01 X41.3782 Y76.8212
G01 X41.3617 Y76.8269
G01 X41.2894 Y76.8481
G01 X41.2768 Y76.8510
G01 X41.2641 Y76.8530
G01 X41.2512 Y76.8540
G01 X41.2426 Y76.8542
G01 X40.4239 Y76.8542
G01 X40.4063 Y76.8534
G01 X40.3933 Y76.8516
G01 X40.3412 Y76.8414
G01 X40.3323 Y76.8394
G01 X40.3193 Y76.8357
G01 X40.3024 Y76.8291
G01 X40.2901 Y76.8231
G01 X40.2784 Y76.8162
G01 X40.2673 Y76.8084
G01 X40.2100 Y76.7629
G01 X40.2009 Y76.7552
G01 X40.1898 Y76.7445
G01 X40.1837 Y76.7377
G01 X40.1775 Y76.7301
G01 X40.1474 Y76.6997
G01 X40.1364 Y76.6864
G01 X40.1291 Y76.6758
G01 X40.0977 Y76.6269
G01 X40.0891 Y76.6111
G01 X40.0837 Y76.5986
G01 X40.0793 Y76.5858
G01 X40.0749 Y76.5683
G01 X40.0727 Y76.5549
G01 X40.0666 Y76.4707
G01 X40.0666 Y76.4527
G01 X40.0684 Y76.4349
G01 X40.0710 Y76.4216
G01 X40.0745 Y76.4086
G01 X40.0790 Y76.3959
G01 X40.0844 Y76.3836
G01 X40.1246 Y76.3096
G01 X40.1314 Y76.2986
G01 X40.1390 Y76.2882
G01 X40.1474 Y76.2784
G01 X40.1533 Y76.2721
G01 X42.6478 Y73.7776
G01 X42.6549 Y73.7710
G01 X42.6622 Y73.7647
G01 X42.6832 Y73.7478
G01 X42.6939 Y73.7398
G01 X42.7051 Y73.7327
G01 X42.7128 Y73.7284
G01 X42.7208 Y73.7244
G01 X42.7331 Y73.7193
G01 X42.7457 Y73.7151
G01 X42.8221 Y73.6929
G01 X42.8348 Y73.6903
G01 X42.8433 Y73.6890
G01 X42.8561 Y73.6880
G01 X42.8647 Y73.6878
G01 X46.7209 Y73.6879
G01 X46.7383 Y73.6887
G01 X46.7554 Y73.6911
G01 X46.8169 Y73.7044
G01 X46.8256 Y73.7067
G01 X46.8385 Y73.7110
G01 X46.8510 Y73.7163
G01 X46.8631 Y73.7226
G01 X46.8747 Y73.7297
G01 X46.8857 Y73.7377
G01 X46.9497 Y73.7929
G01 X46.9624 Y73.8056
G01 X46.9737 Y73.8195
G01 X46.9788 Y73.8269
G01 X46.9858 Y73.8384
G01 X46.9919 Y73.8504
G01 X46.9971 Y73.8628
G01 X47.0014 Y73.8756
G01 X47.0214 Y73.9437
G01 X47.0255 Y73.9604
G01 X47.0279 Y73.9774
G01 X47.0287 Y73.9946
G01 X47.0287 Y74.5846
G01 X47.0284 Y74.5954
G01 X47.0289 Y74.7422
G01 X47.0356 Y74.7722
G01 X47.0386 Y74.7892
G01 X47.0419 Y74.8151
G01 X47.0478 Y74.8316
G01 X47.0538 Y74.8516
G01 X47.0593 Y74.8740
G01 X47.0707 Y74.8976
G01 X47.0775 Y74.9135
G01 X47.0882 Y74.9422
G01 X47.1004 Y74.9618
G01 X47.1099 Y74.9789
G01 X47.1182 Y74.9957
G01 X47.1372 Y75.0199
G01 X47.1472 Y75.0340
G01 X47.1614 Y75.0559
G01 X47.2117 Y75.1051
G01 X48.1503 Y76.0437
G01 X48.1560 Y76.0497
G01 X48.1639 Y76.0590
G01 X48.1871 Y76.0894
G01 X48.1948 Y76.1004
G01 X48.2017 Y76.1120
G01 X48.2077 Y76.1240
G01 X48.2128 Y76.1364
G01 X48.2170 Y76.1492
G01 X48.2362 Y76.2312
G01 X48.2383 Y76.2440
G01 X48.2393 Y76.2525
G01 X48.2399 Y76.2654
G01 X48.2396 Y76.2783
G01 X48.2280 Y76.4794
G01 X48.2486 Y76.6720
G01 X48.3004 Y76.8586
G01 X48.3819 Y77.0342
G01 X48.4911 Y77.1942
G01 X48.6249 Y77.3343
G01 X48.7797 Y77.4505
G01 X48.9515 Y77.5400
G01 X49.1356 Y77.6001
G01 X49.3271 Y77.6294
G01 X49.5207 Y77.6271
G01 X49.7114 Y77.5931
G01 X49.8940 Y77.5285
G01 X50.0635 Y77.4349
G01 X50.2155 Y77.3148
G01 X50.2596 Y77.2664
G01 X50.2717 Y77.2543
G01 X50.2814 Y77.2460
G01 X50.3177 Y77.2176
G01 X50.3288 Y77.2099
G01 X50.3366 Y77.2052
G01 X50.3446 Y77.2009
G01 X50.3569 Y77.1953
G01 X50.3697 Y77.1906
G01 X50.3784 Y77.1880
G01 X50.4653 Y77.1689
G01 X50.4787 Y77.1672
G01 X50.4966 Y77.1664
G01 X50.5145 Y77.1674
G01 X50.5322 Y77.1702
G01 X50.5453 Y77.1735
G01 X50.5581 Y77.1777
G01 X50.6247 Y77.2024
G01 X50.6411 Y77.2095
G01 X50.6569 Y77.2181
G01 X50.6716 Y77.2283
G01 X50.6853 Y77.2399
G01 X50.6948 Y77.2495
G01 X50.7063 Y77.2633
G01 X50.7489 Y77.3200
G01 X50.7592 Y77.3353
G01 X50.7658 Y77.3473
G01 X50.7716 Y77.3599
G01 X50.8090 Y77.4595
G01 X50.8653 Y77.5347
G01 X50.9405 Y77.5910
G01 X51.0313 Y77.6250
G01 X51.0753 Y77.6299
G01 X51.0927 Y77.6331
G01 X51.1094 Y77.6379
G01 X51.1442 Y77.6466
G01 X51.1611 Y77.6526
G01 X51.1734 Y77.6582
G01 X51.1891 Y77.6671
G01 X51.2038 Y77.6775
G01 X51.2644 Y77.7297
G01 X51.2773 Y77.7421
G01 X51.2890 Y77.7557
G01 X51.2992 Y77.7704
G01 X51.3080 Y77.7861
G01 X51.3135 Y77.7984
G01 X51.3181 Y77.8111
G01 X51.3406 Y77.8876
G01 X51.3435 Y77.9002
G01 X51.3455 Y77.9129
G01 X51.3465 Y77.9258
G01 X51.3467 Y77.9344
G01 X51.3467 Y78.3598
G01 X51.3465 Y78.3694
G01 X51.3457 Y78.3791
G01 X51.3423 Y78.4103
G01 X51.3401 Y78.4234
G01 X51.3356 Y78.4406
G01 X51.3312 Y78.4531
G01 X51.3238 Y78.4693
G01 X51.2877 Y78.5355
G01 X51.2811 Y78.5466
G01 X51.2738 Y78.5572
G01 X51.2657 Y78.5672
G01 X51.2569 Y78.5767
G01 X49.7539 Y80.0796
G01 X49.7461 Y80.0870
G01 X49.6426 Y80.1912
G01 X49.6262 Y80.2171
G01 X49.6162 Y80.2313
G01 X49.6002 Y80.2520
G01 X49.5928 Y80.2678
G01 X49.5829 Y80.2862
G01 X49.5710 Y80.3059
G01 X49.5606 Y80.3348
G01 X49.5541 Y80.3508
G01 X49.5431 Y80.3745
G01 X49.5379 Y80.3970
G01 X49.5322 Y80.4170
G01 X49.5265 Y80.4336
G01 X49.5228 Y80.4641
G01 X49.5200 Y80.4812
G01 X49.5145 Y80.5067
G01 X49.5152 Y80.5770
G01 X49.5152 Y81.3499
G01 X49.5146 Y81.3644
G01 X49.5108 Y81.4005
G01 X49.5094 Y81.4092
G01 X49.5065 Y81.4222
G01 X49.5012 Y81.4391
G01 X49.4962 Y81.4514
G01 X49.4923 Y81.4594
G01 X49.4541 Y81.5294
G01 X49.4496 Y81.5368
G01 X49.4423 Y81.5474
G01 X49.4342 Y81.5574
G01 X49.4254 Y81.5668
G01 X49.3123 Y81.6799
G01 X49.2071 Y81.8301
G01 X49.1297 Y81.9963
G01 X49.0822 Y82.1734
G01 X49.0662 Y82.3560
G01 X49.0822 Y82.5386
G01 X49.1297 Y82.7157
G01 X49.2071 Y82.8819
G01 X49.3123 Y83.0321
G01 X49.4419 Y83.1617
G01 X49.5921 Y83.2669
G01 X49.7583 Y83.3443
G01 X49.9354 Y83.3918
G01 X50.1180 Y83.4078
G01 X50.3006 Y83.3918
G01 X50.4777 Y83.3443
G01 X50.6439 Y83.2669
G01 X50.7941 Y83.1617
G01 X50.9237 Y83.0321
G01 X51.0289 Y82.8819
G01 X51.1100 Y82.7079
G01 X51.1163 Y82.6957
G01 X51.1234 Y82.6840
G01 X51.1287 Y82.6766
G01 X51.1372 Y82.6659
G01 X51.1884 Y82.6071
G01 X51.1947 Y82.6009
G01 X51.2046 Y82.5921
G01 X51.2152 Y82.5841
G01 X51.2226 Y82.5792
G01 X51.2302 Y82.5747
G01 X51.2420 Y82.5686
G01 X51.2583 Y82.5618
G01 X51.3390 Y82.5373
G01 X51.3521 Y82.5342
G01 X51.3654 Y82.5321
G01 X51.3788 Y82.5310
G01 X51.3923 Y82.5308
G01 X51.4102 Y82.5323
G01 X51.4278 Y82.5354
G01 X51.5134 Y82.5598
G01 X51.5301 Y82.5664
G01 X51.5421 Y82.5725
G01 X51.5574 Y82.5819
G01 X51.5717 Y82.5927
G01 X51.5817 Y82.6018
G01 X51.5909 Y82.6115
G01 X51.6407 Y82.6681
G01 X51.6462 Y82.6750
G01 X51.6537 Y82.6858
G01 X51.6605 Y82.6971
G01 X51.6660 Y82.7079
G01 X51.7471 Y82.8819
G01 X51.8523 Y83.0321
G01 X51.9654 Y83.1452
G01 X51.9752 Y83.1558
G01 X51.9980 Y83.1840
G01 X52.0080 Y83.1986
G01 X52.0125 Y83.2063
G01 X52.0186 Y83.2181
G01 X52.0237 Y83.2304
G01 X52.0266 Y83.2388
G01 X52.0501 Y83.3194
G01 X52.0520 Y83.3278
G01 X52.0540 Y83.3406
G01 X52.0552 Y83.3578
G01 X52.0552 Y84.0561
G01 X52.0549 Y84.0669
G01 X52.0554 Y84.2137
G01 X52.0621 Y84.2437
G01 X52.0651 Y84.2607
G01 X52.0684 Y84.2866
G01 X52.0743 Y84.3031
G01 X52.0803 Y84.3231
G01 X52.0858 Y84.3455
G01 X52.0972 Y84.3690
G01 X52.1040 Y84.3850
G01 X52.1147 Y84.4137
G01 X52.1269 Y84.4333
G01 X52.1370 Y84.4515
G01 X52.1447 Y84.4672
G01 X52.1637 Y84.4914
G01 X52.1737 Y84.5054
G01 X52.1879 Y84.5274
G01 X52.2382 Y84.5766
G01 X56.4776 Y88.8161
G01 X56.4850 Y88.8239
G01 X56.5999 Y88.9382
G01 X56.6124 Y88.9519
G01 X56.6208 Y88.9626
G01 X56.6283 Y88.9739
G01 X56.6350 Y88.9858
G01 X56.6700 Y89.0621
G01 X56.6762 Y89.0789
G01 X56.6808 Y89.0963
G01 X56.6830 Y89.1096
G01 X56.6843 Y89.1230
G01 X56.6845 Y89.1364
G01 X56.6838 Y89.1499
G01 X56.6726 Y89.2291
G01 X56.6702 Y89.2423
G01 X56.6680 Y89.2510
G01 X56.6624 Y89.2681
G01 X56.6552 Y89.2845
G01 X56.6464 Y89.3001
G01 X56.6387 Y89.3112
G01 X56.6303 Y89.3217
G01 X56.5808 Y89.3787
G01 X56.5681 Y89.3914
G01 X56.5542 Y89.4027
G01 X56.5430 Y89.4102
G01 X56.5274 Y89.4190
G01 X56.5151 Y89.4245
G01 X56.5024 Y89.4291
G01 X56.4217 Y89.4526
G01 X56.4091 Y89.4552
G01 X56.4005 Y89.4565
G01 X56.3877 Y89.4575
G01 X56.3791 Y89.4577
G01 X1.4030 Y89.4577
G01 X1.3901 Y89.4573
G01 X1.3730 Y89.4552
G01 X1.3122 Y89.4422
G01 X1.2991 Y89.4388
G01 X1.2905 Y89.4360
G01 X1.2738 Y89.4292
G01 X1.2618 Y89.4230
G01 X1.2540 Y89.4183
G01 X1.2393 Y89.4079
G01 X1.1720 Y89.3497
G01 X1.1597 Y89.3366
G01 X1.1540 Y89.3297
G01 X1.1462 Y89.3187
G01 X1.1392 Y89.3072
G01 X1.1350 Y89.2993
G01 X1.1279 Y89.2828
G01 X1.1236 Y89.2700
G01 X1.1014 Y89.1936
G01 X1.0995 Y89.1852
G01 X1.0975 Y89.1725
G01 X1.0967 Y89.1639
G01 X1.0963 Y89.1510
G01 X1.0963 Y1.0120
G01 X1.0971 Y0.9948
G01 X1.0995 Y0.9778
G01 X1.1118 Y0.9212
G01 X1.1165 Y0.9038
G01 X1.1229 Y0.8869
G01 X1.1310 Y0.8708
G01 X1.1407 Y0.8555
G01 X1.1518 Y0.8413
G00 Z2.0000
G00 X1.2263 Y0.9059
G01 F50.00
G01 Z-0.1200
G01 F60.00
G01 X1.2755 Y0.8492
G01 X1.2846 Y0.8410
G01 X1.2931 Y0.8353
G01 X1.3003 Y0.8315
G01 X1.3098 Y0.8278
G01 X1.3799 Y0.8072
G01 X1.3913 Y0.8047
G01 X1.4030 Y0.8039
G01 X92.1455 Y0.8039
G01 X92.1533 Y0.8042
G01 X92.1610 Y0.8053
G01 X92.2153 Y0.8171
G01 X92.2252 Y0.8199
G01 X92.2346 Y0.8239
G01 X92.2435 Y0.8291
G01 X92.2501 Y0.8340
G01 X92.3083 Y0.8845
G01 X92.3139 Y0.8905
G01 X92.3201 Y0.8986
G01 X92.3251 Y0.9074
G01 X92.3291 Y0.9168
G01 X92.3509 Y0.9907
G01 X92.3528 Y1.0003
G01 X92.3536 Y1.0120
G01 X92.3536 Y89.1510
G01 X92.3533 Y89.1588
G01 X92.3522 Y89.1665
G01 X92.3404 Y89.2208
G01 X92.3376 Y89.2307
G01 X92.3336 Y89.2401
G01 X92.3295 Y89.2473
G01 X92.3235 Y89.2556
G01 X92.2730 Y89.3138
G01 X92.2655 Y89.3207
G01 X92.2589 Y89.3256
G01 X92.2501 Y89.3306
G01 X92.2407 Y89.3346
G01 X92.1668 Y89.3564
G01 X92.1572 Y89.3583
G01 X92.1455 Y89.3591
G01 X85.4285 Y89.3591
G01 X85.4129 Y89.3582
G01 X85.4050 Y89.3568
G01 X85.3992 Y89.3553
G01 X85.3268 Y89.3292
G01 X85.3175 Y89.3249
G01 X85.3105 Y89.3207
G01 X85.3025 Y89.3145
G01 X85.2952 Y89.3073
G01 X85.2470 Y89.2445
G01 X85.2415 Y89.2359
G01 X85.2371 Y89.2267
G01 X85.2340 Y89.2170
G01 X85.2317 Y89.2050
G01 X85.2255 Y89.1282
G01 X85.2257 Y89.1200
G01 X85.2266 Y89.1119
G01 X85.2289 Y89.1020
G01 X85.2316 Y89.0943
G01 X85.2351 Y89.0869
G01 X85.2714 Y89.0192
G01 X85.2759 Y89.0127
G01 X85.2809 Y89.0068
G01 X85.3436 Y88.9427
G01 X90.8643 Y83.4221
G01 X90.8701 Y83.4168
G01 X90.9836 Y83.3024
G01 X91.0032 Y83.2713
G01 X91.0117 Y83.2591
G01 X91.0329 Y83.2317
G01 X91.0438 Y83.2086
G01 X91.0523 Y83.1928
G01 X91.0670 Y83.1690
G01 X91.0792 Y83.1343
G01 X91.0848 Y83.1206
G01 X91.0994 Y83.0891
G01 X91.1055 Y83.0617
G01 X91.1104 Y83.0445
G01 X91.1188 Y83.0204
G01 X91.1230 Y82.9838
G01 X91.1254 Y82.9692
G01 X91.1327 Y82.9353
G01 X91.1319 Y82.8550
G01 X91.1319 Y33.5489
G01 X91.1322 Y33.5410
G01 X91.1316 Y33.3799
G01 X91.1234 Y33.3440
G01 X91.1209 Y33.3294
G01 X91.1165 Y33.2950
G01 X91.1078 Y33.2710
G01 X91.1027 Y33.2539
G01 X91.0962 Y33.2266
G01 X91.0811 Y33.1953
G01 X91.0754 Y33.1817
G01 X91.0627 Y33.1472
G01 X91.0489 Y33.1257
G01 X91.0401 Y33.1101
G01 X91.0277 Y33.0849
G01 X91.0061 Y33.0578
G01 X90.9975 Y33.0458
G01 X90.9775 Y33.0149
G01 X90.9201 Y32.9587
G01 X87.4326 Y29.4712
G01 X87.4272 Y29.4654
G01 X87.3129 Y29.3519
G01 X87.2835 Y29.3335
G01 X87.2713 Y29.3250
G01 X87.2422 Y29.3026
G01 X87.2191 Y29.2917
G01 X87.2033 Y29.2832
G01 X87.1795 Y29.2685
G01 X87.1448 Y29.2563
G01 X87.1311 Y29.2507
G01 X87.0996 Y29.2361
G01 X87.0722 Y29.2300
G01 X87.0550 Y29.2251
G01 X87.0309 Y29.2167
G01 X86.9943 Y29.2125
G01 X86.9797 Y29.2101
G01 X86.9458 Y29.2028
G01 X86.8655 Y29.2036
G01 X59.8479 Y29.2036
G01 X59.8400 Y29.2033
G01 X59.6789 Y29.2039
G01 X59.6430 Y29.2121
G01 X59.6284 Y29.2146
G01 X59.5940 Y29.2190
G01 X59.5700 Y29.2277
G01 X59.5529 Y29.2328
G01 X59.5256 Y29.2393
G01 X59.4943 Y29.2543
G01 X59.4807 Y29.2601
G01 X59.4462 Y29.2728
G01 X59.4225 Y29.2879
G01 X59.4057 Y29.2972
G01 X59.3839 Y29.3078
G01 X59.3551 Y29.3306
G01 X59.3431 Y29.3392
G01 X59.3139 Y29.3580
G01 X59.2577 Y29.4155
G01 X53.7520 Y34.9212
G01 X53.7454 Y34.9271
G01 X53.7229 Y34.9452
G01 X53.7162 Y34.9498
G01 X53.7074 Y34.9546
G01 X53.6960 Y34.9588
G01 X53.6222 Y34.9803
G01 X53.6126 Y34.9818
G01 X53.6048 Y34.9821
G01 X33.0222 Y34.9821
G01 X33.0134 Y34.9817
G01 X32.9827 Y34.9783
G01 X32.9709 Y34.9755
G01 X32.9615 Y34.9719
G01 X32.8921 Y34.9342
G01 X32.8855 Y34.9300
G01 X32.8779 Y34.9239
G01 X32.5808 Y34.6269
G01 X32.5571 Y34.5977
G01 X32.5527 Y34.5910
G01 X32.5481 Y34.5820
G01 X32.5447 Y34.5725
G01 X32.5247 Y34.5044
G01 X32.5228 Y34.4968
G01 X32.5217 Y34.4891
G01 X32.5214 Y34.4813
G01 X32.5214 Y32.8057
G01 X32.5222 Y32.7960
G01 X32.5297 Y32.7511
G01 X32.5316 Y32.7431
G01 X32.5352 Y32.7335
G01 X32.5389 Y32.7261
G01 X32.5433 Y32.7192
G01 X32.5844 Y32.6613
G01 X32.5905 Y32.6536
G01 X32.5946 Y32.6494
G01 X32.6005 Y32.6443
G01 X32.7277 Y32.5439
G01 X32.8745 Y32.3825
G01 X32.9178 Y32.3157
G01 X32.9424 Y32.2863
G01 X32.9493 Y32.2791
G01 X32.9570 Y32.2727
G01 X32.9672 Y32.2665
G01 X33.0327 Y32.2343
G01 X33.0421 Y32.2304
G01 X33.0500 Y32.2281
G01 X33.0560 Y32.2269
G01 X33.0641 Y32.2260
G01 X33.0722 Y32.2260
G01 X33.1509 Y32.2349
G01 X33.1609 Y32.2369
G01 X33.1724 Y32.2410
G01 X33.1815 Y32.2457
G01 X33.1899 Y32.2514
G01 X33.2464 Y32.2977
G01 X33.2549 Y32.3057
G01 X33.2622 Y32.3149
G01 X33.3257 Y32.4081
G01 X33.4764 Y32.5657
G01 X33.6508 Y32.6967
G01 X33.8443 Y32.7974
G01 X34.0516 Y32.8652
G01 X34.2672 Y32.8982
G01 X34.4853 Y32.8955
G01 X34.7000 Y32.8572
G01 X34.9056 Y32.7844
G01 X35.0965 Y32.6790
G01 X35.2677 Y32.5439
G01 X35.4145 Y32.3825
G01 X35.4578 Y32.3157
G01 X35.4824 Y32.2863
G01 X35.4893 Y32.2791
G01 X35.4970 Y32.2727
G01 X35.5072 Y32.2665
G01 X35.5746 Y32.2334
G01 X35.5821 Y32.2304
G01 X35.5900 Y32.2281
G01 X35.6000 Y32.2264
G01 X35.6081 Y32.2259
G01 X35.6183 Y32.2265
G01 X35.6889 Y32.2346
G01 X35.6969 Y32.2360
G01 X35.7067 Y32.2388
G01 X35.7161 Y32.2427
G01 X35.7232 Y32.2467
G01 X35.7315 Y32.2527
G01 X35.7864 Y32.2977
G01 X35.7949 Y32.3057
G01 X35.8022 Y32.3149
G01 X35.8657 Y32.4081
G01 X36.0164 Y32.5657
G01 X36.1908 Y32.6967
G01 X36.3843 Y32.7974
G01 X36.5916 Y32.8652
G01 X36.8072 Y32.8982
G01 X37.0253 Y32.8955
G01 X37.2400 Y32.8572
G01 X37.4456 Y32.7844
G01 X37.6365 Y32.6790
G01 X37.8077 Y32.5439
G01 X37.9545 Y32.3825
G01 X37.9978 Y32.3157
G01 X38.0224 Y32.2863
G01 X38.0293 Y32.2791
G01 X38.0370 Y32.2727
G01 X38.0472 Y32.2665
G01 X38.1146 Y32.2334
G01 X38.1221 Y32.2304
G01 X38.1300 Y32.2281
G01 X38.1400 Y32.2264
G01 X38.1481 Y32.2259
G01 X38.1583 Y32.2265
G01 X38.2289 Y32.2346
G01 X38.2369 Y32.2360
G01 X38.2467 Y32.2388
G01 X38.2561 Y32.2427
G01 X38.2632 Y32.2467
G01 X38.2715 Y32.2527
G01 X38.3264 Y32.2977
G01 X38.3349 Y32.3057
G01 X38.3422 Y32.3149
G01 X38.4057 Y32.4081
G01 X38.5564 Y32.5657
G01 X38.7308 Y32.6967
G01 X38.9243 Y32.7974
G01 X39.1316 Y32.8652
G01 X39.3472 Y32.8982
G01 X39.5653 Y32.8955
G01 X39.7800 Y32.8572
G01 X39.9856 Y32.7844
G01 X40.1765 Y32.6790
G01 X40.3477 Y32.5439
G01 X40.4945 Y32.3825
G01 X40.5378 Y32.3157
G01 X40.5624 Y32.2863
G01 X40.5693 Y32.2791
G01 X40.5770 Y32.2727
G01 X40.5872 Y32.2665
G01 X40.6546 Y32.2334
G01 X40.6621 Y32.2304
G01 X40.6700 Y32.2281
G01 X40.6800 Y32.2264
G01 X40.6881 Y32.2259
G01 X40.6983 Y32.2265
G01 X40.7689 Y32.2346
G01 X40.7769 Y32.2360
G01 X40.7867 Y32.2388
G01 X40.7961 Y32.2427
G01 X40.8032 Y32.2467
G01 X40.8115 Y32.2527
G01 X40.8664 Y32.2977
G01 X40.8749 Y32.3057
G01 X40.8822 Y32.3149
G01 X40.9457 Y32.4081
G01 X41.0964 Y32.5657
G01 X41.2708 Y32.6967
G01 X41.4643 Y32.7974
G01 X41.6716 Y32.8652
G01 X41.8872 Y32.8982
G01 X42.1053 Y32.8955
G01 X42.3200 Y32.8572
G01 X42.5256 Y32.7844
G01 X42.7165 Y32.6790
G01 X42.8877 Y32.5439
G01 X43.0345 Y32.3825
G01 X43.0778 Y32.3157
G01 X43.1024 Y32.2863
G01 X43.1093 Y32.2791
G01 X43.1170 Y32.2727
G01 X43.1272 Y32.2665
G01 X43.1964 Y32.2326
G01 X43.2041 Y32.2297
G01 X43.2139 Y32.2273
G01 X43.2220 Y32.2262
G01 X43.2302 Y32.2259
G01 X43.2383 Y32.2265
G01 X43.3089 Y32.2346
G01 X43.3169 Y32.2360
G01 X43.3248 Y32.2381
G01 X43.3324 Y32.2410
G01 X43.3397 Y32.2446
G01 X43.3483 Y32.2502
G01 X43.4064 Y32.2977
G01 X43.4149 Y32.3057
G01 X43.4222 Y32.3149
G01 X43.4857 Y32.4081
G01 X43.6364 Y32.5657
G01 X43.8108 Y32.6967
G01 X44.0043 Y32.7974
G01 X44.2116 Y32.8652
G01 X44.4272 Y32.8982
G01 X44.6453 Y32.8955
G01 X44.8600 Y32.8572
G01 X45.0656 Y32.7844
G01 X45.2565 Y32.6790
G01 X45.4277 Y32.5439
G01 X45.5745 Y32.3825
G01 X45.6194 Y32.3136
G01 X45.6440 Y32.2843
G01 X45.6496 Y32.2786
G01 X45.6557 Y32.2735
G01 X45.6623 Y32.2689
G01 X45.6675 Y32.2660
G01 X45.7367 Y32.2321
G01 X45.7444 Y32.2293
G01 X45.7503 Y32.2277
G01 X45.7563 Y32.2265
G01 X45.7644 Y32.2256
G01 X45.7725 Y32.2255
G01 X45.7786 Y32.2260
G01 X45.8492 Y32.2342
G01 X45.8592 Y32.2360
G01 X45.8708 Y32.2398
G01 X45.8800 Y32.2442
G01 X45.8886 Y32.2497
G01 X45.8979 Y32.2572
G01 X46.1706 Y31.9845
G01 X46.1519 Y31.9445
G01 X46.1208 Y31.8575
G01 X46.0971 Y31.7641
G01 X46.0826 Y31.6668
G01 X46.0779 Y31.5705
G01 X46.0826 Y31.4742
G01 X46.0971 Y31.3769
G01 X46.1208 Y31.2835
G01 X46.1519 Y31.1965
G01 X46.1706 Y31.1565
G01 X45.8955 Y30.8814
G01 X45.8519 Y30.9040
G01 X45.8445 Y30.9075
G01 X45.8329 Y30.9111
G01 X45.8269 Y30.9123
G01 X45.8187 Y30.9132
G01 X45.8065 Y30.9130
G01 X45.7358 Y30.9066
G01 X45.7277 Y30.9054
G01 X45.7179 Y30.9029
G01 X45.7102 Y30.9000
G01 X45.7029 Y30.8963
G01 X45.6944 Y30.8908
G01 X45.6352 Y30.8447
G01 X45.6267 Y30.8366
G01 X45.6206 Y30.8290
G01 X45.5335 Y30.7079
G01 X45.3790 Y30.5540
G01 X45.2015 Y30.4273
G01 X45.0056 Y30.3314
G01 X44.7967 Y30.2687
G01 X44.6670 Y30.2521
G01 X44.6553 Y30.2497
G01 X44.6441 Y30.2457
G01 X44.5720 Y30.2117
G01 X44.5648 Y30.2078
G01 X44.5563 Y30.2020
G01 X44.5473 Y30.1937
G01 X44.5420 Y30.1875
G01 X44.5384 Y30.1824
G01 X44.4983 Y30.1141
G01 X44.4942 Y30.1048
G01 X44.4912 Y30.0951
G01 X44.4895 Y30.0850
G01 X44.4890 Y30.0748
G01 X44.4922 Y29.9978
G01 X44.4943 Y29.9857
G01 X44.4973 Y29.9760
G01 X44.5015 Y29.9667
G01 X44.5068 Y29.9580
G01 X44.5488 Y29.8983
G01 X44.5540 Y29.8919
G01 X44.5613 Y29.8848
G01 X44.5694 Y29.8787
G01 X44.5800 Y29.8727
G01 X44.6550 Y29.8422
G01 X44.6626 Y29.8401
G01 X44.6703 Y29.8388
G01 X44.7360 Y29.8320
G01 X44.8863 Y29.7822
G01 X45.0205 Y29.6994
G01 X45.1322 Y29.5880
G01 X45.2152 Y29.4539
G01 X45.2242 Y29.4304
G01 X45.2278 Y29.4233
G01 X45.2321 Y29.4166
G01 X45.2370 Y29.4104
G01 X45.2862 Y29.3537
G01 X45.2922 Y29.3481
G01 X45.2986 Y29.3431
G01 X45.3055 Y29.3388
G01 X45.3110 Y29.3360
G01 X45.3224 Y29.3317
G01 X45.3924 Y29.3111
G01 X45.4020 Y29.3092
G01 X45.4098 Y29.3084
G01 X45.7059 Y29.3084
G01 X45.7171 Y29.3094
G01 X45.7568 Y29.3158
G01 X45.7647 Y29.3175
G01 X45.7763 Y29.3215
G01 X45.7871 Y29.3271
G01 X45.8488 Y29.3698
G01 X45.8537 Y29.3735
G01 X45.8598 Y29.3789
G01 X45.8640 Y29.3834
G01 X45.8690 Y29.3898
G01 X45.8734 Y29.3967
G01 X45.8771 Y29.4039
G01 X45.9072 Y29.4769
G01 X45.9093 Y29.4844
G01 X45.9107 Y29.4921
G01 X45.9158 Y29.5387
G01 X45.9592 Y29.6544
G01 X46.0324 Y29.7521
G01 X46.1301 Y29.8253
G01 X46.2458 Y29.8687
G01 X46.2933 Y29.8739
G01 X46.6815 Y29.8739
G01 X46.6998 Y29.8747
G01 X46.7101 Y29.8763
G01 X46.7219 Y29.8799
G01 X46.7900 Y29.9063
G01 X46.7992 Y29.9108
G01 X46.8077 Y29.9164
G01 X46.8154 Y29.9231
G01 X46.8236 Y29.9322
G01 X46.8689 Y29.9946
G01 X46.8730 Y30.0016
G01 X46.8772 Y30.0109
G01 X46.8801 Y30.0207
G01 X46.8816 Y30.0287
G01 X46.8864 Y30.1077
G01 X46.8861 Y30.1179
G01 X46.8849 Y30.1260
G01 X46.8824 Y30.1359
G01 X46.8777 Y30.1472
G01 X46.8410 Y30.2126
G01 X46.8342 Y30.2228
G01 X46.8289 Y30.2290
G01 X46.8245 Y30.2332
G01 X46.8182 Y30.2384
G01 X46.8096 Y30.2439
G01 X46.7450 Y30.2781
G01 X46.7379 Y30.2814
G01 X46.7267 Y30.2851
G01 X46.6906 Y30.2926
G01 X46.6872 Y30.2936
G01 X46.4868 Y30.3701
G01 X46.4836 Y30.3716
G01 X46.3908 Y30.4259
G01 X46.6460 Y30.6811
G01 X46.6860 Y30.6624
G01 X46.7730 Y30.6313
G01 X46.8664 Y30.6076
G01 X46.9637 Y30.5931
G01 X47.0600 Y30.5884
G01 X47.1563 Y30.5931
G01 X47.2536 Y30.6076
G01 X47.3470 Y30.6313
G01 X47.4340 Y30.6624
G01 X47.4740 Y30.6811
G01 X47.7319 Y30.4232
G01 X47.5470 Y30.3326
G01 X47.5437 Y30.3313
G01 X47.3773 Y30.2814
G01 X47.3664 Y30.2773
G01 X47.3563 Y30.2717
G01 X47.2955 Y30.2324
G01 X47.2875 Y30.2261
G01 X47.2790 Y30.2174
G01 X47.2730 Y30.2093
G01 X47.2680 Y30.2005
G01 X47.2360 Y30.1303
G01 X47.2334 Y30.1226
G01 X47.2312 Y30.1126
G01 X47.2302 Y30.1025
G01 X47.2306 Y30.0923
G01 X47.2415 Y30.0160
G01 X47.2438 Y30.0060
G01 X47.2473 Y29.9965
G01 X47.2520 Y29.9874
G01 X47.2591 Y29.9774
G01 X47.3082 Y29.9207
G01 X47.3140 Y29.9149
G01 X47.3220 Y29.9086
G01 X47.3307 Y29.9033
G01 X47.3400 Y29.8991
G01 X47.4158 Y29.8766
G01 X47.4235 Y29.8750
G01 X47.4312 Y29.8741
G01 X48.0807 Y29.8739
G01 X48.1282 Y29.8687
G01 X48.2439 Y29.8253
G01 X48.3416 Y29.7521
G01 X48.4148 Y29.6544
G01 X48.4582 Y29.5387
G01 X48.4634 Y29.4912
G01 X48.4634 Y28.1038
G01 X48.4582 Y28.0563
G01 X48.4148 Y27.9406
G01 X48.3416 Y27.8429
G01 X48.2439 Y27.7697
G01 X48.1282 Y27.7263
G01 X48.0807 Y27.7211
G01 X47.3092 Y27.7211
G01 X47.2953 Y27.7207
G01 X47.2872 Y27.7198
G01 X47.2812 Y27.7186
G01 X47.2734 Y27.7163
G01 X47.2031 Y27.6901
G01 X47.1921 Y27.6847
G01 X47.1853 Y27.6802
G01 X47.1805 Y27.6765
G01 X47.1746 Y27.6709
G01 X47.1692 Y27.6647
G01 X47.1230 Y27.6029
G01 X47.1179 Y27.5941
G01 X47.1146 Y27.5867
G01 X47.1120 Y27.5790
G01 X47.1099 Y27.5690
G01 X47.1040 Y27.4900
G01 X47.1044 Y27.4778
G01 X47.1061 Y27.4678
G01 X47.1090 Y27.4580
G01 X47.1130 Y27.4486
G01 X47.1480 Y27.3845
G01 X47.1532 Y27.3763
G01 X47.1568 Y27.3716
G01 X47.1620 Y27.3658
G01 X47.6208 Y26.9071
G01 X47.6266 Y26.9018
G01 X47.7401 Y26.7874
G01 X47.7597 Y26.7563
G01 X47.7682 Y26.7441
G01 X47.7894 Y26.7167
G01 X47.8003 Y26.6936
G01 X47.8088 Y26.6778
G01 X47.8235 Y26.6540
G01 X47.8357 Y26.6193
G01 X47.8413 Y26.6056
G01 X47.8559 Y26.5741
G01 X47.8614 Y26.5492
G01 X47.8669 Y26.5295
G01 X47.8737 Y26.5100
G01 X47.8789 Y26.4973
G01 X47.8823 Y26.4902
G01 X47.8863 Y26.4836
G01 X47.8910 Y26.4773
G01 X47.9401 Y26.4207
G01 X47.9474 Y26.4136
G01 X47.9556 Y26.4074
G01 X47.9644 Y26.4024
G01 X47.9758 Y26.3978
G01 X48.0458 Y26.3772
G01 X48.0534 Y26.3753
G01 X48.0651 Y26.3739
G01 X48.0807 Y26.3739
G01 X48.1282 Y26.3687
G01 X48.2439 Y26.3253
G01 X48.3416 Y26.2521
G01 X48.4148 Y26.1544
G01 X48.4582 Y26.0387
G01 X48.4634 Y25.9912
G01 X48.4634 Y24.6038
G01 X48.4582 Y24.5563
G01 X48.4148 Y24.4406
G01 X48.3415 Y24.3427
G01 X48.3350 Y24.3369
G01 X48.3258 Y24.3274
G01 X48.3063 Y24.3032
G01 X48.3007 Y24.2948
G01 X48.2961 Y24.2858
G01 X48.2933 Y24.2783
G01 X48.2712 Y24.2025
G01 X48.2697 Y24.1929
G01 X48.2694 Y24.1851
G01 X48.2694 Y23.7699
G01 X48.2697 Y23.7620
G01 X48.2691 Y23.6009
G01 X48.2609 Y23.5650
G01 X48.2584 Y23.5504
G01 X48.2540 Y23.5160
G01 X48.2453 Y23.4920
G01 X48.2402 Y23.4749
G01 X48.2337 Y23.4476
G01 X48.2186 Y23.4163
G01 X48.2129 Y23.4027
G01 X48.2002 Y23.3682
G01 X48.1864 Y23.3467
G01 X48.1776 Y23.3311
G01 X48.1652 Y23.3059
G01 X48.1436 Y23.2788
G01 X48.1350 Y23.2668
G01 X48.1150 Y23.2359
G01 X48.0576 Y23.1797
G01 X46.3603 Y21.4824
G01 X46.3366 Y21.4532
G01 X46.3322 Y21.4465
G01 X46.3284 Y21.4394
G01 X46.3242 Y21.4280
G01 X46.3032 Y21.3561
G01 X46.3014 Y21.3465
G01 X46.3009 Y21.3368
G01 X46.3009 Y16.0801
G01 X46.3012 Y16.0723
G01 X46.3096 Y16.0215
G01 X46.3118 Y16.0136
G01 X46.3156 Y16.0040
G01 X46.3184 Y15.9985
G01 X46.3228 Y15.9916
G01 X46.3639 Y15.9337
G01 X46.3687 Y15.9275
G01 X46.3741 Y15.9218
G01 X46.3800 Y15.9167
G01 X46.5431 Y15.7879
G01 X46.6957 Y15.6202
G01 X46.8189 Y15.4298
G01 X46.9093 Y15.2219
G01 X46.9645 Y15.0020
G01 X46.9784 Y14.8335
G01 X46.9784 Y14.6068
G01 X46.9630 Y14.4623
G01 X46.9630 Y14.4529
G01 X46.9654 Y14.4087
G01 X46.9663 Y14.4026
G01 X46.9681 Y14.3947
G01 X46.9707 Y14.3870
G01 X46.9732 Y14.3814
G01 X47.0091 Y14.3155
G01 X47.0154 Y14.3056
G01 X47.0231 Y14.2968
G01 X49.6528 Y11.6671
G01 X49.6586 Y11.6618
G01 X49.7721 Y11.5474
G01 X49.7917 Y11.5163
G01 X49.8002 Y11.5041
G01 X49.8214 Y11.4767
G01 X49.8323 Y11.4536
G01 X49.8408 Y11.4378
G01 X49.8555 Y11.4140
G01 X49.8677 Y11.3793
G01 X49.8733 Y11.3656
G01 X49.8879 Y11.3341
G01 X49.8940 Y11.3067
G01 X49.8989 Y11.2895
G01 X49.9073 Y11.2654
G01 X49.9115 Y11.2288
G01 X49.9139 Y11.2142
G01 X49.9212 Y11.1803
G01 X49.9204 Y11.1000
G01 X49.9204 Y9.4357
G01 X49.9211 Y9.4245
G01 X49.9290 Y9.3770
G01 X49.9313 Y9.3692
G01 X49.9335 Y9.3635
G01 X49.9391 Y9.3527
G01 X49.9818 Y9.2909
G01 X49.9868 Y9.2845
G01 X49.9924 Y9.2785
G01 X49.9985 Y9.2732
G01 X50.0035 Y9.2696
G01 X50.0104 Y9.2653
G01 X50.0159 Y9.2626
G01 X50.0852 Y9.2339
G01 X50.0964 Y9.2304
G01 X50.1102 Y9.2283
G01 X50.2259 Y9.1850
G01 X50.3236 Y9.1117
G01 X50.3968 Y9.0140
G01 X50.4402 Y8.8983
G01 X50.4454 Y8.8508
G01 X50.4454 Y7.1635
G01 X50.4402 Y7.1160
G01 X50.3968 Y7.0003
G01 X50.3236 Y6.9026
G01 X50.2259 Y6.8293
G01 X50.1102 Y6.7860
G01 X50.0625 Y6.7808
G01 X50.0543 Y6.7803
G01 X50.0423 Y6.7782
G01 X49.9811 Y6.7606
G01 X49.9702 Y6.7557
G01 X49.9602 Y6.7493
G01 X49.9512 Y6.7415
G01 X49.9010 Y6.6913
G01 X49.8942 Y6.6836
G01 X49.8895 Y6.6770
G01 X49.8855 Y6.6698
G01 X49.8816 Y6.6605
G01 X49.8791 Y6.6523
G01 X49.8676 Y6.6312
G01 X49.5580 Y6.3215
G01 X49.4749 Y6.3514
G01 X49.3911 Y6.3724
G01 X49.3055 Y6.3851
G01 X49.2190 Y6.3893
G01 X49.1325 Y6.3851
G01 X49.0469 Y6.3724
G01 X48.9629 Y6.3513
G01 X48.8800 Y6.3215
G01 X48.5716 Y6.6299
G01 X48.5505 Y6.6700
G01 X48.5451 Y6.6785
G01 X48.5386 Y6.6862
G01 X48.5305 Y6.6938
G01 X48.5034 Y6.7285
G01 X48.4993 Y6.7330
G01 X48.4932 Y6.7385
G01 X48.4832 Y6.7455
G01 X48.4723 Y6.7510
G01 X48.3997 Y6.7767
G01 X48.3920 Y6.7788
G01 X48.3841 Y6.7802
G01 X48.3755 Y6.7808
G01 X48.3278 Y6.7860
G01 X48.2121 Y6.8293
G01 X48.1144 Y6.9026
G01 X48.0412 Y7.0003
G01 X47.9978 Y7.1160
G01 X47.9926 Y7.1635
G01 X47.9926 Y8.8508
G01 X47.9978 Y8.8983
G01 X48.0412 Y9.0140
G01 X48.1144 Y9.1117
G01 X48.2121 Y9.1850
G01 X48.3278 Y9.2283
G01 X48.3357 Y9.2293
G01 X48.3431 Y9.2308
G01 X48.3894 Y9.2437
G01 X48.4006 Y9.2487
G01 X48.4109 Y9.2552
G01 X48.4708 Y9.3069
G01 X48.4779 Y9.3142
G01 X48.4841 Y9.3223
G01 X48.4891 Y9.3312
G01 X48.4937 Y9.3425
G01 X48.5149 Y9.4145
G01 X48.5168 Y9.4240
G01 X48.5176 Y9.4357
G01 X48.5176 Y10.7323
G01 X48.5172 Y10.7411
G01 X48.5141 Y10.7698
G01 X48.5126 Y10.7778
G01 X48.5110 Y10.7836
G01 X48.5090 Y10.7893
G01 X48.5057 Y10.7966
G01 X48.4697 Y10.8624
G01 X48.4644 Y10.8706
G01 X48.4567 Y10.8795
G01 X46.0617 Y13.2743
G01 X46.0533 Y13.2809
G01 X46.0138 Y13.3080
G01 X46.0050 Y13.3130
G01 X45.9956 Y13.3169
G01 X45.9898 Y13.3187
G01 X45.9819 Y13.3203
G01 X45.9095 Y13.3301
G01 X45.9017 Y13.3308
G01 X45.8939 Y13.3307
G01 X45.8862 Y13.3299
G01 X45.6960 Y13.3008
G01 X45.4693 Y13.3036
G01 X45.2461 Y13.3433
G01 X45.0323 Y13.4190
G01 X44.8338 Y13.5286
G01 X44.6559 Y13.6691
G01 X44.5033 Y13.8368
G01 X44.4977 Y13.8447
G01 X44.4757 Y13.8708
G01 X44.4716 Y13.8752
G01 X44.4658 Y13.8807
G01 X44.4594 Y13.8855
G01 X44.4509 Y13.8906
G01 X44.3816 Y13.9245
G01 X44.3759 Y13.9267
G01 X44.3681 Y13.9290
G01 X44.3601 Y13.9305
G01 X44.3519 Y13.9311
G01 X44.3397 Y13.9306
G01 X44.2631 Y13.9215
G01 X44.2552 Y13.9196
G01 X44.2456 Y13.9161
G01 X44.2383 Y13.9124
G01 X44.2298 Y13.9069
G01 X44.1717 Y13.8594
G01 X44.1645 Y13.8528
G01 X44.1570 Y13.8438
G01 X44.1354 Y13.8121
G01 X44.1331 Y13.8093
G01 X43.9790 Y13.6480
G01 X43.9763 Y13.6457
G01 X43.7979 Y13.5117
G01 X43.7949 Y13.5098
G01 X43.5971 Y13.4068
G01 X43.5938 Y13.4054
G01 X43.3956 Y13.3407
G01 X43.3956 Y13.7036
G01 X43.4573 Y13.7259
G01 X43.5490 Y13.7695
G01 X43.6343 Y13.8207
G01 X43.7143 Y13.8799
G01 X43.7882 Y13.9466
G01 X43.7939 Y13.9523
G01 X43.8593 Y14.0246
G01 X43.9198 Y14.1062
G01 X43.9720 Y14.1933
G01 X44.0138 Y14.2814
G01 X44.0168 Y14.2888
G01 X44.0483 Y14.3768
G01 X44.0507 Y14.3845
G01 X44.0743 Y14.4791
G01 X44.0889 Y14.5776
G01 X44.0941 Y14.6790
G01 X44.0941 Y14.7760
G01 X44.0892 Y14.8774
G01 X44.0750 Y14.9739
G01 X44.0734 Y14.9818
G01 X44.0496 Y15.0763
G01 X44.0154 Y15.1719
G01 X43.9738 Y15.2601
G01 X43.9700 Y15.2672
G01 X43.9188 Y15.3523
G01 X43.8592 Y15.4325
G01 X43.7939 Y15.5047
G01 X43.7882 Y15.5104
G01 X43.7143 Y15.5771
G01 X43.6343 Y15.6363
G01 X43.5490 Y15.6875
G01 X43.4573 Y15.7311
G01 X43.3956 Y15.7534
G01 X43.3956 Y16.1162
G01 X43.4145 Y16.1126
G01 X43.6248 Y16.0381
G01 X43.6280 Y16.0367
G01 X43.8233 Y15.9289
G01 X43.8263 Y15.9269
G01 X44.0014 Y15.7886
G01 X44.0040 Y15.7862
G01 X44.1541 Y15.6212
G01 X44.1607 Y15.6123
G01 X44.1827 Y15.5862
G01 X44.1882 Y15.5804
G01 X44.1926 Y15.5763
G01 X44.1990 Y15.5715
G01 X44.2075 Y15.5664
G01 X44.2768 Y15.5325
G01 X44.2844 Y15.5297
G01 X44.2923 Y15.5276
G01 X44.2983 Y15.5266
G01 X44.3065 Y15.5259
G01 X44.3187 Y15.5264
G01 X44.3912 Y15.5348
G01 X44.4012 Y15.5369
G01 X44.4109 Y15.5401
G01 X44.4218 Y15.5456
G01 X44.4302 Y15.5513
G01 X44.4897 Y15.6002
G01 X44.4952 Y15.6057
G01 X44.5002 Y15.6117
G01 X44.5243 Y15.6467
G01 X44.6809 Y15.8106
G01 X44.8183 Y15.9139
G01 X44.8258 Y15.9211
G01 X44.8575 Y15.9552
G01 X44.8625 Y15.9614
G01 X44.8669 Y15.9681
G01 X44.8697 Y15.9734
G01 X44.8729 Y15.9808
G01 X44.8948 Y16.0546
G01 X44.8970 Y16.0641
G01 X44.8978 Y16.0699
G01 X44.8981 Y16.0778
G01 X44.8981 Y21.6256
G01 X44.8978 Y21.6335
G01 X44.8984 Y21.7946
G01 X44.9066 Y21.8305
G01 X44.9091 Y21.8451
G01 X44.9135 Y21.8795
G01 X44.9222 Y21.9035
G01 X44.9273 Y21.9206
G01 X44.9338 Y21.9479
G01 X44.9488 Y21.9792
G01 X44.9546 Y21.9928
G01 X44.9673 Y22.0273
G01 X44.9824 Y22.0510
G01 X44.9911 Y22.0666
G01 X45.0023 Y22.0896
G01 X45.0251 Y22.1184
G01 X45.0337 Y22.1304
G01 X45.0525 Y22.1596
G01 X45.1100 Y22.2158
G01 X46.7600 Y23.8658
G01 X46.7695 Y23.8760
G01 X46.7734 Y23.8808
G01 X46.7769 Y23.8858
G01 X46.7811 Y23.8929
G01 X46.8130 Y23.9628
G01 X46.8159 Y23.9705
G01 X46.8179 Y23.9784
G01 X46.8195 Y23.9905
G01 X46.8196 Y23.9966
G01 X46.8191 Y24.0047
G01 X46.8084 Y24.0790
G01 X46.8061 Y24.0890
G01 X46.8025 Y24.0985
G01 X46.7978 Y24.1076
G01 X46.7921 Y24.1160
G01 X46.7430 Y24.1728
G01 X46.7343 Y24.1814
G01 X46.7244 Y24.1887
G01 X46.7136 Y24.1943
G01 X46.7040 Y24.1978
G01 X46.6340 Y24.2184
G01 X46.6264 Y24.2200
G01 X46.6186 Y24.2209
G01 X46.2933 Y24.2211
G01 X46.2458 Y24.2263
G01 X46.1301 Y24.2697
G01 X46.0324 Y24.3429
G01 X45.9592 Y24.4406
G01 X45.9158 Y24.5563
G01 X45.9106 Y24.6038
G01 X45.9106 Y25.9912
G01 X45.9158 Y26.0387
G01 X45.9592 Y26.1544
G01 X46.0378 Y26.2594
G01 X46.0418 Y26.2660
G01 X46.0600 Y26.2993
G01 X46.0648 Y26.3108
G01 X46.0670 Y26.3187
G01 X46.0687 Y26.3290
G01 X46.0741 Y26.4080
G01 X46.0735 Y26.4181
G01 X46.0715 Y26.4281
G01 X46.0684 Y26.4378
G01 X46.0641 Y26.4471
G01 X46.0291 Y26.5111
G01 X46.0237 Y26.5192
G01 X46.0187 Y26.5253
G01 X45.7478 Y26.7962
G01 X45.7186 Y26.8196
G01 X45.7100 Y26.8248
G01 X45.7027 Y26.8282
G01 X45.6950 Y26.8308
G01 X45.6250 Y26.8514
G01 X45.6155 Y26.8533
G01 X45.6057 Y26.8541
G01 X45.3672 Y26.8540
G01 X45.3567 Y26.8528
G01 X45.3023 Y26.8415
G01 X45.2926 Y26.8386
G01 X45.2852 Y26.8354
G01 X45.2764 Y26.8305
G01 X45.2698 Y26.8258
G01 X45.2108 Y26.7762
G01 X45.2051 Y26.7704
G01 X45.2012 Y26.7657
G01 X45.1977 Y26.7607
G01 X45.1936 Y26.7536
G01 X45.1888 Y26.7423
G01 X45.1659 Y26.6687
G01 X45.1642 Y26.6607
G01 X45.1634 Y26.6526
G01 X45.1633 Y26.6445
G01 X45.1641 Y26.6363
G01 X45.1662 Y26.6264
G01 X45.1868 Y26.5523
G01 X45.1889 Y26.5469
G01 X45.1924 Y26.5398
G01 X45.2134 Y26.5058
G01 X45.2155 Y26.5013
G01 X45.2640 Y26.3559
G01 X45.2650 Y26.3513
G01 X45.2742 Y26.2622
G01 X45.2743 Y26.2261
G01 X44.9302 Y26.2261
G01 X44.9291 Y26.2476
G01 X44.9243 Y26.2798
G01 X44.9163 Y26.3114
G01 X44.9061 Y26.3402
G01 X44.8932 Y26.3680
G01 X44.8894 Y26.3751
G01 X44.8747 Y26.3995
G01 X44.8540 Y26.4273
G01 X44.8334 Y26.4499
G01 X44.8092 Y26.4718
G01 X44.7830 Y26.4912
G01 X44.7586 Y26.5059
G01 X44.7515 Y26.5097
G01 X44.7293 Y26.5202
G01 X44.7218 Y26.5233
G01 X44.6949 Y26.5328
G01 X44.6613 Y26.5411
G01 X44.6311 Y26.5456
G01 X44.5985 Y26.5471
G01 X43.2985 Y26.5471
G01 X43.2659 Y26.5456
G01 X43.2337 Y26.5408
G01 X43.2021 Y26.5328
G01 X43.1714 Y26.5219
G01 X43.1419 Y26.5079
G01 X43.1140 Y26.4912
G01 X43.0878 Y26.4718
G01 X43.0651 Y26.4513
G01 X43.0417 Y26.4257
G01 X43.0223 Y26.3995
G01 X43.0056 Y26.3716
G01 X42.9924 Y26.3440
G01 X42.9807 Y26.3114
G01 X42.9731 Y26.2818
G01 X42.9682 Y26.2496
G01 X42.9668 Y26.2261
G01 X42.6226 Y26.2261
G01 X42.6228 Y26.2623
G01 X42.6318 Y26.3501
G01 X42.6327 Y26.3547
G01 X42.6810 Y26.5002
G01 X42.6831 Y26.5047
G01 X42.7039 Y26.5385
G01 X42.7077 Y26.5457
G01 X42.7276 Y26.6001
G01 X42.7309 Y26.6117
G01 X42.7324 Y26.6237
G01 X42.7322 Y26.6358
G01 X42.7216 Y26.7100
G01 X42.7195 Y26.7200
G01 X42.7163 Y26.7297
G01 X42.7118 Y26.7388
G01 X42.7062 Y26.7474
G01 X42.6545 Y26.8073
G01 X42.6503 Y26.8117
G01 X42.6441 Y26.8170
G01 X42.6391 Y26.8206
G01 X42.6321 Y26.8247
G01 X42.6265 Y26.8273
G01 X42.6189 Y26.8302
G01 X42.5470 Y26.8514
G01 X42.5393 Y26.8530
G01 X42.5316 Y26.8539
G01 X42.2053 Y26.8541
G01 X42.1972 Y26.8535
G01 X42.1585 Y26.8478
G01 X42.1508 Y26.8463
G01 X42.1414 Y26.8433
G01 X42.1341 Y26.8401
G01 X42.1272 Y26.8363
G01 X42.0645 Y26.7951
G01 X42.0565 Y26.7888
G01 X42.0480 Y26.7800
G01 X42.0420 Y26.7718
G01 X42.0371 Y26.7628
G01 X42.0058 Y26.6924
G01 X42.0032 Y26.6846
G01 X42.0014 Y26.6767
G01 X42.0003 Y26.6665
G01 X42.0004 Y26.6584
G01 X42.0012 Y26.6503
G01 X42.0077 Y26.6082
G01 X42.0077 Y26.5959
G01 X42.0084 Y26.5899
G01 X42.0100 Y26.5820
G01 X42.0640 Y26.4194
G01 X42.0650 Y26.4148
G01 X42.0742 Y26.3257
G01 X42.0743 Y26.3021
G01 X41.7296 Y26.3021
G01 X41.7288 Y26.3131
G01 X41.7239 Y26.3453
G01 X41.7163 Y26.3749
G01 X41.7054 Y26.4056
G01 X41.6914 Y26.4351
G01 X41.6768 Y26.4596
G01 X41.6724 Y26.4663
G01 X41.6577 Y26.4860
G01 X41.6526 Y26.4923
G01 X41.6334 Y26.5134
G01 X41.6092 Y26.5353
G01 X41.5830 Y26.5547
G01 X41.5586 Y26.5694
G01 X41.5515 Y26.5732
G01 X41.5293 Y26.5837
G01 X41.5218 Y26.5868
G01 X41.4949 Y26.5963
G01 X41.4672 Y26.6034
G01 X41.4593 Y26.6050
G01 X41.4311 Y26.6091
G01 X41.3985 Y26.6106
G01 X40.1485 Y26.6106
G01 X40.1159 Y26.6091
G01 X40.0857 Y26.6046
G01 X40.0560 Y26.5974
G01 X40.0483 Y26.5951
G01 X40.0214 Y26.5854
G01 X39.9919 Y26.5714
G01 X39.9674 Y26.5568
G01 X39.9607 Y26.5524
G01 X39.9378 Y26.5353
G01 X39.9166 Y26.5161
G01 X39.9109 Y26.5104
G01 X39.8944 Y26.4923
G01 X39.8893 Y26.4860
G01 X39.8723 Y26.4630
G01 X39.8576 Y26.4386
G01 X39.8538 Y26.4315
G01 X39.8416 Y26.4056
G01 X39.8319 Y26.3787
G01 X39.8296 Y26.3710
G01 X39.8227 Y26.3433
G01 X39.8184 Y26.3151
G01 X39.8177 Y26.3070
G01 X39.8164 Y26.2785
G01 X39.8164 Y25.6535
G01 X39.8179 Y25.6209
G01 X39.8231 Y25.5867
G01 X39.8296 Y25.5610
G01 X39.8319 Y25.5533
G01 X39.8416 Y25.5264
G01 X39.8538 Y25.5005
G01 X39.8576 Y25.4934
G01 X39.8723 Y25.4690
G01 X39.8917 Y25.4428
G01 X39.9136 Y25.4186
G01 X39.9347 Y25.3994
G01 X39.9410 Y25.3943
G01 X39.9640 Y25.3773
G01 X39.9884 Y25.3626
G01 X39.9955 Y25.3588
G01 X40.0195 Y25.3474
G01 X40.0521 Y25.3357
G01 X40.0798 Y25.3286
G01 X40.0877 Y25.3270
G01 X40.1184 Y25.3227
G01 X40.1485 Y25.3214
G01 X40.4374 Y25.3214
G01 X40.4374 Y24.9776
G01 X40.1012 Y24.9778
G01 X40.0134 Y24.9868
G01 X40.0088 Y24.9877
G01 X39.8633 Y25.0360
G01 X39.8588 Y25.0381
G01 X39.7289 Y25.1182
G01 X39.7250 Y25.1213
G01 X39.6170 Y25.2291
G01 X39.6139 Y25.2330
G01 X39.5856 Y25.2788
G01 X39.5813 Y25.2850
G01 X39.5500 Y25.3214
G01 X39.5442 Y25.3271
G01 X39.5395 Y25.3310
G01 X39.5311 Y25.3367
G01 X39.5238 Y25.3405
G01 X39.4531 Y25.3712
G01 X39.4453 Y25.3737
G01 X39.4353 Y25.3757
G01 X39.4252 Y25.3764
G01 X39.4170 Y25.3761
G01 X39.3349 Y25.3627
G01 X39.3270 Y25.3604
G01 X39.3213 Y25.3582
G01 X39.3140 Y25.3546
G01 X39.3088 Y25.3514
G01 X39.2991 Y25.3439
G01 X39.2420 Y25.2922
G01 X39.2367 Y25.2861
G01 X39.2320 Y25.2794
G01 X39.2024 Y25.2315
G01 X39.0910 Y25.1198
G01 X38.9569 Y25.0368
G01 X38.8825 Y25.0119
G01 X38.8682 Y25.0063
G01 X38.8628 Y25.0037
G01 X38.8559 Y24.9998
G01 X38.8479 Y24.9939
G01 X38.7912 Y24.9448
G01 X38.7828 Y24.9359
G01 X38.7768 Y24.9276
G01 X38.7720 Y24.9187
G01 X38.7683 Y24.9092
G01 X38.7462 Y24.8334
G01 X38.7447 Y24.8238
G01 X38.7444 Y24.8160
G01 X38.7444 Y20.3122
G01 X38.7446 Y20.3056
G01 X38.7486 Y20.2707
G01 X38.7510 Y20.2609
G01 X38.7538 Y20.2533
G01 X38.7573 Y20.2461
G01 X38.7923 Y20.1821
G01 X38.7976 Y20.1739
G01 X38.8040 Y20.1664
G01 X40.9533 Y18.0171
G01 X40.9591 Y18.0118
G01 X41.0483 Y17.9221
G01 X41.0726 Y17.8974
G01 X41.0922 Y17.8663
G01 X41.1007 Y17.8541
G01 X41.1219 Y17.8267
G01 X41.1328 Y17.8036
G01 X41.1413 Y17.7878
G01 X41.1560 Y17.7640
G01 X41.1682 Y17.7293
G01 X41.1738 Y17.7156
G01 X41.1884 Y17.6841
G01 X41.1945 Y17.6567
G01 X41.1994 Y17.6395
G01 X41.2078 Y17.6154
G01 X41.2120 Y17.5788
G01 X41.2144 Y17.5642
G01 X41.2217 Y17.5303
G01 X41.2209 Y17.4500
G01 X41.2211 Y16.3571
G01 X41.2223 Y16.3475
G01 X41.2346 Y16.2912
G01 X41.2369 Y16.2833
G01 X41.2409 Y16.2739
G01 X41.2461 Y16.2650
G01 X41.2510 Y16.2584
G01 X41.3015 Y16.2002
G01 X41.3090 Y16.1933
G01 X41.3156 Y16.1884
G01 X41.3226 Y16.1843
G01 X41.3300 Y16.1809
G01 X41.3377 Y16.1782
G01 X41.4096 Y16.1572
G01 X41.4192 Y16.1554
G01 X41.4270 Y16.1549
G01 X41.5157 Y16.1549
G01 X41.5632 Y16.1497
G01 X41.6789 Y16.1063
G01 X41.7766 Y16.0331
G01 X41.8498 Y15.9354
G01 X41.8543 Y15.9237
G01 X41.8634 Y15.9038
G01 X41.8672 Y15.8970
G01 X41.8716 Y15.8905
G01 X41.8792 Y15.8816
G01 X41.9340 Y15.8274
G01 X41.9405 Y15.8224
G01 X41.9492 Y15.8170
G01 X41.9565 Y15.8136
G01 X41.9642 Y15.8109
G01 X42.0396 Y15.7944
G01 X42.0517 Y15.7927
G01 X42.0598 Y15.7926
G01 X42.0680 Y15.7933
G01 X42.0760 Y15.7948
G01 X42.0819 Y15.7964
G01 X42.1522 Y15.8227
G01 X42.1629 Y15.8276
G01 X42.1727 Y15.8339
G01 X42.3211 Y15.9453
G01 X42.3241 Y15.9472
G01 X42.5219 Y16.0502
G01 X42.5252 Y16.0516
G01 X42.7234 Y16.1163
G01 X42.7234 Y15.7534
G01 X42.6617 Y15.7311
G01 X42.5700 Y15.6875
G01 X42.4848 Y15.6364
G01 X42.4047 Y15.5770
G01 X42.3308 Y15.5104
G01 X42.3251 Y15.5047
G01 X42.2597 Y15.4324
G01 X42.1992 Y15.3508
G01 X42.1470 Y15.2637
G01 X42.1052 Y15.1756
G01 X42.1022 Y15.1682
G01 X42.0707 Y15.0802
G01 X42.0683 Y15.0725
G01 X42.0447 Y14.9779
G01 X42.0301 Y14.8794
G01 X42.0249 Y14.7780
G01 X42.0249 Y14.6810
G01 X42.0298 Y14.5796
G01 X42.0440 Y14.4831
G01 X42.0456 Y14.4752
G01 X42.0694 Y14.3807
G01 X42.1036 Y14.2851
G01 X42.1452 Y14.1969
G01 X42.1490 Y14.1898
G01 X42.2004 Y14.1045
G01 X42.2597 Y14.0246
G01 X42.3251 Y13.9523
G01 X42.3308 Y13.9466
G01 X42.4047 Y13.8799
G01 X42.4847 Y13.8207
G01 X42.5700 Y13.7695
G01 X42.6617 Y13.7259
G01 X42.7234 Y13.7036
G01 X42.7234 Y13.3408
G01 X42.7045 Y13.3444
G01 X42.4942 Y13.4189
G01 X42.4910 Y13.4203
G01 X42.2957 Y13.5281
G01 X42.2927 Y13.5301
G01 X42.1754 Y13.6227
G01 X42.1525 Y13.6380
G01 X42.1436 Y13.6429
G01 X42.1361 Y13.6459
G01 X42.1284 Y13.6482
G01 X42.0551 Y13.6643
G01 X42.0490 Y13.6652
G01 X42.0409 Y13.6658
G01 X42.0327 Y13.6655
G01 X42.0266 Y13.6648
G01 X42.0206 Y13.6636
G01 X42.0128 Y13.6614
G01 X41.9424 Y13.6352
G01 X41.9368 Y13.6328
G01 X41.9297 Y13.6288
G01 X41.9230 Y13.6242
G01 X41.9183 Y13.6203
G01 X41.9138 Y13.6160
G01 X41.9085 Y13.6099
G01 X41.8633 Y13.5498
G01 X41.8589 Y13.5428
G01 X41.8560 Y13.5372
G01 X41.8498 Y13.5216
G01 X41.7766 Y13.4239
G01 X41.6789 Y13.3507
G01 X41.5632 Y13.3073
G01 X41.5157 Y13.3021
G01 X41.4886 Y13.3021
G01 X41.4770 Y13.3007
G01 X41.4167 Y13.2874
G01 X41.4090 Y13.2846
G01 X41.4034 Y13.2821
G01 X41.3962 Y13.2780
G01 X41.3912 Y13.2746
G01 X41.3312 Y13.2229
G01 X41.3228 Y13.2140
G01 X41.3168 Y13.2057
G01 X41.3120 Y13.1967
G01 X41.3083 Y13.1872
G01 X41.2871 Y13.1153
G01 X41.2849 Y13.1038
G01 X41.2844 Y13.0940
G01 X41.2844 Y9.6897
G01 X41.2847 Y9.6822
G01 X41.2926 Y9.6330
G01 X41.2953 Y9.6232
G01 X41.2992 Y9.6138
G01 X41.3054 Y9.6033
G01 X41.3470 Y9.5433
G01 X41.3535 Y9.5354
G01 X41.3625 Y9.5272
G01 X41.3709 Y9.5214
G01 X41.3799 Y9.5166
G01 X41.4492 Y9.4879
G01 X41.4604 Y9.4844
G01 X41.4742 Y9.4823
G01 X41.5899 Y9.4390
G01 X41.6876 Y9.3657
G01 X41.7608 Y9.2680
G01 X41.8042 Y9.1523
G01 X41.8094 Y9.1048
G01 X41.8094 Y7.4175
G01 X41.8042 Y7.3700
G01 X41.7608 Y7.2543
G01 X41.6876 Y7.1566
G01 X41.5899 Y7.0833
G01 X41.4742 Y7.0400
G01 X41.4265 Y7.0348
G01 X41.4183 Y7.0343
G01 X41.4063 Y7.0322
G01 X41.3451 Y7.0146
G01 X41.3378 Y7.0115
G01 X41.3325 Y7.0087
G01 X41.3274 Y7.0056
G01 X41.3211 Y7.0008
G01 X41.3152 Y6.9955
G01 X41.2650 Y6.9453
G01 X41.2582 Y6.9376
G01 X41.2535 Y6.9310
G01 X41.2495 Y6.9238
G01 X41.2456 Y6.9145
G01 X41.2431 Y6.9063
G01 X41.2316 Y6.8852
G01 X40.9220 Y6.5755
G01 X40.8389 Y6.6054
G01 X40.7551 Y6.6264
G01 X40.6695 Y6.6391
G01 X40.5830 Y6.6433
G01 X40.4965 Y6.6391
G01 X40.4109 Y6.6264
G01 X40.3269 Y6.6053
G01 X40.2440 Y6.5755
G01 X39.9356 Y6.8839
G01 X39.9145 Y6.9240
G01 X39.9091 Y6.9325
G01 X39.9026 Y6.9402
G01 X39.8945 Y6.9478
G01 X39.8674 Y6.9825
G01 X39.8633 Y6.9870
G01 X39.8572 Y6.9925
G01 X39.8472 Y6.9995
G01 X39.8363 Y7.0050
G01 X39.7637 Y7.0307
G01 X39.7560 Y7.0328
G01 X39.7481 Y7.0342
G01 X39.7395 Y7.0348
G01 X39.6918 Y7.0400
G01 X39.5761 Y7.0833
G01 X39.4784 Y7.1566
G01 X39.4052 Y7.2543
G01 X39.3618 Y7.3700
G01 X39.3566 Y7.4175
G01 X39.3566 Y9.1048
G01 X39.3618 Y9.1523
G01 X39.4052 Y9.2680
G01 X39.4784 Y9.3657
G01 X39.5761 Y9.4390
G01 X39.6918 Y9.4823
G01 X39.6997 Y9.4833
G01 X39.7071 Y9.4848
G01 X39.7534 Y9.4977
G01 X39.7646 Y9.5027
G01 X39.7699 Y9.5057
G01 X39.7765 Y9.5104
G01 X39.8363 Y9.5623
G01 X39.8432 Y9.5698
G01 X39.8502 Y9.5798
G01 X39.8548 Y9.5889
G01 X39.8583 Y9.5985
G01 X39.8789 Y9.6685
G01 X39.8805 Y9.6761
G01 X39.8814 Y9.6839
G01 X39.8816 Y13.0979
G01 X39.8802 Y13.1095
G01 X39.8679 Y13.1658
G01 X39.8641 Y13.1775
G01 X39.8586 Y13.1885
G01 X39.8515 Y13.1986
G01 X39.8010 Y13.2568
G01 X39.7966 Y13.2611
G01 X39.7902 Y13.2662
G01 X39.7799 Y13.2727
G01 X39.7725 Y13.2761
G01 X39.7648 Y13.2788
G01 X39.6948 Y13.2994
G01 X39.6833 Y13.3016
G01 X39.6735 Y13.3021
G01 X39.5233 Y13.3021
G01 X39.4758 Y13.3073
G01 X39.3601 Y13.3507
G01 X39.2624 Y13.4239
G01 X39.1892 Y13.5216
G01 X39.1458 Y13.6373
G01 X39.1406 Y13.6848
G01 X39.1404 Y13.8249
G01 X39.1392 Y13.8345
G01 X39.1274 Y13.8888
G01 X39.1239 Y13.9006
G01 X39.1186 Y13.9117
G01 X39.1118 Y13.9220
G01 X39.0627 Y13.9788
G01 X39.0571 Y13.9847
G01 X39.0525 Y13.9887
G01 X39.0459 Y13.9936
G01 X39.0389 Y13.9977
G01 X39.0333 Y14.0003
G01 X39.0257 Y14.0032
G01 X38.9538 Y14.0244
G01 X38.9442 Y14.0263
G01 X38.9325 Y14.0271
G01 X34.3844 Y14.0271
G01 X34.3765 Y14.0268
G01 X34.2154 Y14.0274
G01 X34.1816 Y14.0352
G01 X34.1670 Y14.0378
G01 X34.1305 Y14.0425
G01 X34.1041 Y14.0520
G01 X34.0870 Y14.0570
G01 X34.0621 Y14.0628
G01 X34.0308 Y14.0778
G01 X34.0172 Y14.0836
G01 X33.9827 Y14.0963
G01 X33.9590 Y14.1114
G01 X33.9422 Y14.1207
G01 X33.9204 Y14.1313
G01 X33.8916 Y14.1541
G01 X33.8796 Y14.1627
G01 X33.8504 Y14.1815
G01 X33.7944 Y14.2387
G01 X33.6855 Y14.3477
G01 X33.6789 Y14.3536
G01 X33.6564 Y14.3717
G01 X33.6462 Y14.3783
G01 X33.6409 Y14.3811
G01 X33.6334 Y14.3841
G01 X33.5614 Y14.4053
G01 X33.5519 Y14.4075
G01 X33.5461 Y14.4083
G01 X33.5383 Y14.4086
G01 X31.9463 Y14.4086
G01 X31.8988 Y14.4138
G01 X31.7831 Y14.4572
G01 X31.6854 Y14.5304
G01 X31.6122 Y14.6281
G01 X31.5688 Y14.7438
G01 X31.5636 Y14.7913
G01 X31.5634 Y15.0314
G01 X31.5622 Y15.0410
G01 X31.5499 Y15.0973
G01 X31.5469 Y15.1071
G01 X31.5426 Y15.1164
G01 X31.5384 Y15.1235
G01 X31.5335 Y15.1301
G01 X31.4857 Y15.1853
G01 X31.4770 Y15.1939
G01 X31.4689 Y15.2001
G01 X31.4582 Y15.2060
G01 X31.4487 Y15.2097
G01 X31.3768 Y15.2309
G01 X31.3710 Y15.2322
G01 X31.3633 Y15.2333
G01 X31.3555 Y15.2336
G01 X28.1614 Y15.2336
G01 X28.1535 Y15.2333
G01 X28.0594 Y15.2336
G01 X26.4182 Y15.2336
G01 X26.4094 Y15.2332
G01 X26.3807 Y15.2301
G01 X26.3688 Y15.2276
G01 X26.3593 Y15.2242
G01 X26.3521 Y15.2207
G01 X26.2881 Y15.1857
G01 X26.2831 Y15.1826
G01 X26.2768 Y15.1779
G01 X26.2710 Y15.1727
G01 X26.1023 Y15.0038
G01 X26.0789 Y14.9746
G01 X26.0737 Y14.9660
G01 X26.0703 Y14.9587
G01 X26.0677 Y14.9510
G01 X26.0471 Y14.8810
G01 X26.0452 Y14.8715
G01 X26.0444 Y14.8617
G01 X26.0444 Y3.6404
G01 X26.0447 Y3.6325
G01 X26.0441 Y3.4714
G01 X26.0363 Y3.4376
G01 X26.0337 Y3.4230
G01 X26.0290 Y3.3865
G01 X26.0203 Y3.3625
G01 X26.0152 Y3.3454
G01 X26.0087 Y3.3181
G01 X25.9937 Y3.2868
G01 X25.9879 Y3.2732
G01 X25.9752 Y3.2387
G01 X25.9601 Y3.2150
G01 X25.9514 Y3.1994
G01 X25.9402 Y3.1764
G01 X25.9174 Y3.1476
G01 X25.9088 Y3.1356
G01 X25.8900 Y3.1064
G01 X25.8325 Y3.0502
G01 X25.5836 Y2.8012
G01 X25.5782 Y2.7954
G01 X25.4886 Y2.7062
G01 X25.4639 Y2.6819
G01 X25.4328 Y2.6623
G01 X25.4206 Y2.6538
G01 X25.3932 Y2.6326
G01 X25.3679 Y2.6206
G01 X25.3522 Y2.6120
G01 X25.3305 Y2.5985
G01 X25.2958 Y2.5863
G01 X25.2821 Y2.5807
G01 X25.2506 Y2.5661
G01 X25.2232 Y2.5600
G01 X25.2060 Y2.5551
G01 X25.1819 Y2.5467
G01 X25.1453 Y2.5425
G01 X25.1307 Y2.5401
G01 X25.0968 Y2.5328
G01 X25.0165 Y2.5336
G01 X5.8094 Y2.5336
G01 X5.8015 Y2.5333
G01 X5.6404 Y2.5339
G01 X5.6045 Y2.5421
G01 X5.5899 Y2.5446
G01 X5.5555 Y2.5490
G01 X5.5315 Y2.5577
G01 X5.5144 Y2.5628
G01 X5.4871 Y2.5693
G01 X5.4558 Y2.5843
G01 X5.4422 Y2.5901
G01 X5.4077 Y2.6028
G01 X5.3840 Y2.6179
G01 X5.3672 Y2.6272
G01 X5.3454 Y2.6378
G01 X5.3166 Y2.6606
G01 X5.3046 Y2.6692
G01 X5.2754 Y2.6881
G01 X5.2192 Y2.7454
G01 X3.8907 Y4.0739
G01 X3.8849 Y4.0793
G01 X3.7714 Y4.1936
G01 X3.7518 Y4.2247
G01 X3.7433 Y4.2369
G01 X3.7221 Y4.2643
G01 X3.7112 Y4.2874
G01 X3.7027 Y4.3032
G01 X3.6880 Y4.3270
G01 X3.6758 Y4.3617
G01 X3.6702 Y4.3754
G01 X3.6556 Y4.4069
G01 X3.6495 Y4.4343
G01 X3.6446 Y4.4515
G01 X3.6362 Y4.4756
G01 X3.6320 Y4.5122
G01 X3.6296 Y4.5268
G01 X3.6223 Y4.5607
G01 X3.6231 Y4.6410
G01 X3.6231 Y68.5521
G01 X3.6228 Y68.5600
G01 X3.6234 Y68.7211
G01 X3.6316 Y68.7570
G01 X3.6341 Y68.7716
G01 X3.6385 Y68.8060
G01 X3.6472 Y68.8300
G01 X3.6523 Y68.8471
G01 X3.6588 Y68.8744
G01 X3.6738 Y68.9057
G01 X3.6796 Y68.9193
G01 X3.6923 Y68.9538
G01 X3.7074 Y68.9775
G01 X3.7161 Y68.9931
G01 X3.7273 Y69.0161
G01 X3.7501 Y69.0449
G01 X3.7587 Y69.0569
G01 X3.7775 Y69.0861
G01 X3.8350 Y69.1423
G01 X10.2434 Y75.5508
G01 X10.2487 Y75.5566
G01 X10.3384 Y75.6458
G01 X10.3631 Y75.6701
G01 X10.3942 Y75.6897
G01 X10.4064 Y75.6982
G01 X10.4338 Y75.7194
G01 X10.4569 Y75.7303
G01 X10.4727 Y75.7388
G01 X10.4965 Y75.7535
G01 X10.5312 Y75.7657
G01 X10.5449 Y75.7713
G01 X10.5764 Y75.7859
G01 X10.6038 Y75.7920
G01 X10.6210 Y75.7969
G01 X10.6451 Y75.8053
G01 X10.6817 Y75.8095
G01 X10.6963 Y75.8119
G01 X10.7302 Y75.8192
G01 X10.8105 Y75.8184
G01 X29.4906 Y75.8184
G01 X29.5020 Y75.8191
G01 X29.5502 Y75.8273
G01 X29.5619 Y75.8311
G01 X29.5675 Y75.8336
G01 X29.5747 Y75.8376
G01 X29.6362 Y75.8806
G01 X29.6409 Y75.8841
G01 X29.6467 Y75.8894
G01 X29.6556 Y75.8996
G01 X29.6655 Y75.9132
G01 X29.6855 Y75.9441
G01 X29.7430 Y76.0003
G01 X31.4387 Y77.6960
G01 X31.4446 Y77.7026
G01 X31.4615 Y77.7236
G01 X31.4662 Y77.7301
G01 X31.4721 Y77.7406
G01 X31.4763 Y77.7520
G01 X31.4969 Y77.8220
G01 X31.4988 Y77.8315
G01 X31.4996 Y77.8413
G01 X31.4996 Y79.4106
G01 X31.4993 Y79.4185
G01 X31.4999 Y79.5796
G01 X31.5081 Y79.6155
G01 X31.5106 Y79.6301
G01 X31.5150 Y79.6645
G01 X31.5237 Y79.6885
G01 X31.5288 Y79.7056
G01 X31.5353 Y79.7329
G01 X31.5503 Y79.7642
G01 X31.5561 Y79.7778
G01 X31.5688 Y79.8123
G01 X31.5839 Y79.8360
G01 X31.5926 Y79.8516
G01 X31.6038 Y79.8746
G01 X31.6266 Y79.9034
G01 X31.6352 Y79.9154
G01 X31.6540 Y79.9446
G01 X31.7115 Y80.0008
G01 X32.4049 Y80.6943
G01 X32.4103 Y80.7001
G01 X32.5246 Y80.8136
G01 X32.5557 Y80.8332
G01 X32.5679 Y80.8417
G01 X32.5953 Y80.8629
G01 X32.6207 Y80.8749
G01 X32.6363 Y80.8835
G01 X32.6580 Y80.8970
G01 X32.6908 Y80.9084
G01 X32.7045 Y80.9140
G01 X32.7379 Y80.9294
G01 X32.7653 Y80.9355
G01 X32.7825 Y80.9404
G01 X32.8066 Y80.9488
G01 X32.8431 Y80.9530
G01 X32.8578 Y80.9554
G01 X32.8917 Y80.9627
G01 X32.9720 Y80.9619
G01 X35.9231 Y80.9619
G01 X35.9310 Y80.9622
G01 X36.0921 Y80.9616
G01 X36.1280 Y80.9534
G01 X36.1426 Y80.9509
G01 X36.1770 Y80.9465
G01 X36.2010 Y80.9378
G01 X36.2181 Y80.9327
G01 X36.2454 Y80.9262
G01 X36.2767 Y80.9112
G01 X36.2903 Y80.9054
G01 X36.3248 Y80.8927
G01 X36.3485 Y80.8776
G01 X36.3641 Y80.8689
G01 X36.3871 Y80.8577
G01 X36.4159 Y80.8349
G01 X36.4279 Y80.8263
G01 X36.4571 Y80.8075
G01 X36.5133 Y80.7500
G01 X37.4433 Y79.8201
G01 X37.4491 Y79.8148
G01 X37.5626 Y79.7004
G01 X37.5822 Y79.6693
G01 X37.5907 Y79.6571
G01 X37.6119 Y79.6297
G01 X37.6239 Y79.6044
G01 X37.6325 Y79.5887
G01 X37.6460 Y79.5670
G01 X37.6582 Y79.5323
G01 X37.6638 Y79.5186
G01 X37.6784 Y79.4871
G01 X37.6845 Y79.4597
G01 X37.6894 Y79.4425
G01 X37.6978 Y79.4184
G01 X37.7020 Y79.3818
G01 X37.7044 Y79.3672
G01 X37.7117 Y79.3333
G01 X37.7109 Y79.2530
G01 X37.7109 Y78.5694
G01 X37.7115 Y78.5614
G01 X37.7124 Y78.5555
G01 X37.7218 Y78.5077
G01 X37.7244 Y78.4978
G01 X37.7292 Y78.4864
G01 X37.7356 Y78.4758
G01 X37.7834 Y78.4156
G01 X37.7919 Y78.4069
G01 X37.8008 Y78.4000
G01 X37.9525 Y78.2483
G01 X37.9902 Y78.1945
G01 X38.0153 Y78.1656
G01 X38.0243 Y78.1578
G01 X38.0309 Y78.1534
G01 X38.0361 Y78.1505
G01 X38.1014 Y78.1175
G01 X38.1109 Y78.1137
G01 X38.1207 Y78.1111
G01 X38.1329 Y78.1096
G01 X38.1431 Y78.1098
G01 X38.2198 Y78.1178
G01 X38.2297 Y78.1200
G01 X38.2393 Y78.1234
G01 X38.2485 Y78.1279
G01 X38.2553 Y78.1324
G01 X38.3140 Y78.1792
G01 X38.3213 Y78.1857
G01 X38.3289 Y78.1946
G01 X38.3665 Y78.2483
G01 X38.5182 Y78.4000
G01 X38.6940 Y78.5231
G01 X38.8885 Y78.6138
G01 X39.0957 Y78.6693
G01 X39.3095 Y78.6880
G01 X39.5233 Y78.6693
G01 X39.7305 Y78.6138
G01 X39.9250 Y78.5231
G01 X40.1008 Y78.4000
G01 X40.2525 Y78.2483
G01 X40.2570 Y78.2423
G01 X40.2623 Y78.2364
G01 X40.2988 Y78.2013
G01 X40.3063 Y78.1949
G01 X40.3162 Y78.1885
G01 X40.3215 Y78.1858
G01 X40.3288 Y78.1829
G01 X40.4007 Y78.1617
G01 X40.4122 Y78.1592
G01 X40.4239 Y78.1584
G01 X41.1013 Y78.1584
G01 X41.1128 Y78.1592
G01 X41.1551 Y78.1661
G01 X41.1650 Y78.1684
G01 X41.1728 Y78.1711
G01 X41.1820 Y78.1755
G01 X41.1889 Y78.1799
G01 X41.2519 Y78.2244
G01 X41.2579 Y78.2299
G01 X41.2634 Y78.2359
G01 X41.2683 Y78.2425
G01 X41.2715 Y78.2477
G01 X41.2759 Y78.2569
G01 X41.3027 Y78.3226
G01 X41.3053 Y78.3300
G01 X41.3072 Y78.3376
G01 X41.3082 Y78.3433
G01 X41.3160 Y78.4195
G01 X41.3658 Y78.5698
G01 X41.4486 Y78.7040
G01 X41.5600 Y78.8157
G01 X41.6941 Y78.8987
G01 X41.8443 Y78.9487
G01 X41.9369 Y78.9584
G01 X42.6542 Y78.9584
G01 X42.7455 Y78.9490
G01 X42.8958 Y78.8992
G01 X43.0300 Y78.8164
G01 X43.1417 Y78.7050
G01 X43.2247 Y78.5709
G01 X43.2747 Y78.4207
G01 X43.2844 Y78.3282
G01 X43.2844 Y76.9858
G01 X43.2750 Y76.8945
G01 X43.2252 Y76.7442
G01 X43.1424 Y76.6100
G01 X43.0310 Y76.4983
G01 X42.8969 Y76.4153
G01 X42.7467 Y76.3653
G01 X42.6541 Y76.3556
G01 X41.9368 Y76.3556
G01 X41.8455 Y76.3650
G01 X41.6952 Y76.4148
G01 X41.5610 Y76.4976
G01 X41.4493 Y76.6090
G01 X41.4196 Y76.6570
G01 X41.4138 Y76.6653
G01 X41.4084 Y76.6714
G01 X41.3693 Y76.7111
G01 X41.3620 Y76.7177
G01 X41.3555 Y76.7224
G01 X41.3504 Y76.7255
G01 X41.3432 Y76.7290
G01 X41.3377 Y76.7311
G01 X41.2639 Y76.7529
G01 X41.2543 Y76.7548
G01 X41.2426 Y76.7557
G01 X40.4199 Y76.7556
G01 X40.4080 Y76.7541
G01 X40.3542 Y76.7433
G01 X40.3464 Y76.7407
G01 X40.3407 Y76.7382
G01 X40.3335 Y76.7343
G01 X40.3266 Y76.7297
G01 X40.2666 Y76.6817
G01 X40.2594 Y76.6746
G01 X40.2525 Y76.6657
G01 X40.2203 Y76.6334
G01 X40.2165 Y76.6289
G01 X40.2120 Y76.6225
G01 X40.1830 Y76.5775
G01 X40.1790 Y76.5703
G01 X40.1756 Y76.5629
G01 X40.1730 Y76.5551
G01 X40.1712 Y76.5471
G01 X40.1704 Y76.5410
G01 X40.1650 Y76.4661
G01 X40.1650 Y76.4579
G01 X40.1659 Y76.4498
G01 X40.1686 Y76.4379
G01 X40.1707 Y76.4321
G01 X40.1740 Y76.4247
G01 X40.2090 Y76.3606
G01 X40.2153 Y76.3507
G01 X40.2230 Y76.3418
G01 X42.7175 Y73.8473
G01 X42.7241 Y73.8414
G01 X42.7483 Y73.8221
G01 X42.7568 Y73.8167
G01 X42.7677 Y73.8116
G01 X42.8435 Y73.7891
G01 X42.8530 Y73.7872
G01 X42.8647 Y73.7864
G01 X46.7213 Y73.7865
G01 X46.7291 Y73.7868
G01 X46.7389 Y73.7883
G01 X46.7937 Y73.8002
G01 X46.8035 Y73.8032
