(G-CODE GENERATED BY FLATCAM v8.992 - www.flatcam.org - Version Date: 2020/05/03)

(Name: NPN Tracer V2b-F_Cu (fast).gbr_iso_1_cnc)
(Type: G-code from Geometry)
(Units: MM)

(Created on Thursday, 20 April 2023 at 23:13)

(This preprocessor is the default preprocessor used by FlatCAM.)
(It is made to work with MACH3 compatible motion controllers.)

(TOOL DIAMETER: 0.1643 mm)
(Feedrate_XY: 120.0 mm/min)
(Feedrate_Z: 60.0 mm/min)
(Feedrate rapids 1500.0 mm/min)

(Z_Cut: -0.12 mm)
(Z_Move: 2.0 mm)
(Z Start: None mm)
(Z End: 10.0 mm)
(Steps per circle: 64)
(Preprocessor Geometry: default)

(X range:    0.8005 ...   92.7480  mm)
(Y range:    0.4095 ...   89.7535  mm)

(Spindle Speed: None RPM)
G21
G90
G94



G01 F120.00
G00 Z2.0000

M03
G00 X1.1270 Y0.8198
G01 F60.00
G01 Z-0.1200
G01 F120.00
G01 X1.1735 Y0.7661
G01 X1.1806 Y0.7583
G01 X1.1881 Y0.7508
G01 X1.2001 Y0.7403
G01 X1.2128 Y0.7307
G01 X1.2216 Y0.7249
G01 X1.2354 Y0.7170
G01 X1.2449 Y0.7123
G01 X1.2547 Y0.7080
G01 X1.2696 Y0.7026
G01 X1.3477 Y0.6797
G01 X1.3576 Y0.6773
G01 X1.3726 Y0.6746
G01 X1.3878 Y0.6730
G01 X1.4030 Y0.6724
G01 X92.1455 Y0.6724
G01 X92.1658 Y0.6734
G01 X92.1809 Y0.6754
G01 X92.2432 Y0.6887
G01 X92.2536 Y0.6912
G01 X92.2638 Y0.6942
G01 X92.2739 Y0.6978
G01 X92.2886 Y0.7041
G01 X92.2982 Y0.7088
G01 X92.3120 Y0.7169
G01 X92.3209 Y0.7228
G01 X92.3295 Y0.7292
G01 X92.3377 Y0.7360
G01 X92.3992 Y0.7896
G01 X92.4067 Y0.7971
G01 X92.4138 Y0.8050
G01 X92.4237 Y0.8175
G01 X92.4297 Y0.8262
G01 X92.4354 Y0.8352
G01 X92.4405 Y0.8444
G01 X92.4474 Y0.8588
G01 X92.4514 Y0.8686
G01 X92.4564 Y0.8837
G01 X92.4791 Y0.9616
G01 X92.4812 Y0.9716
G01 X92.4836 Y0.9866
G01 X92.4848 Y1.0018
G01 X92.4851 Y1.0120
G01 X92.4851 Y89.1510
G01 X92.4845 Y89.1662
G01 X92.4821 Y89.1864
G01 X92.4688 Y89.2487
G01 X92.4663 Y89.2591
G01 X92.4633 Y89.2693
G01 X92.4597 Y89.2794
G01 X92.4534 Y89.2941
G01 X92.4487 Y89.3037
G01 X92.4434 Y89.3130
G01 X92.4347 Y89.3264
G01 X92.4283 Y89.3350
G01 X92.4215 Y89.3432
G01 X92.3679 Y89.4047
G01 X92.3604 Y89.4122
G01 X92.3525 Y89.4193
G01 X92.3443 Y89.4260
G01 X92.3313 Y89.4352
G01 X92.3223 Y89.4409
G01 X92.3131 Y89.4460
G01 X92.3036 Y89.4507
G01 X92.2938 Y89.4550
G01 X92.2839 Y89.4587
G01 X92.2738 Y89.4619
G01 X92.1959 Y89.4846
G01 X92.1859 Y89.4867
G01 X92.1709 Y89.4891
G01 X92.1506 Y89.4905
G01 X85.4310 Y89.4906
G01 X85.4168 Y89.4903
G01 X85.4065 Y89.4897
G01 X85.3910 Y89.4879
G01 X85.3808 Y89.4861
G01 X85.3656 Y89.4824
G01 X85.3508 Y89.4777
G01 X85.2840 Y89.4535
G01 X85.2693 Y89.4476
G01 X85.2597 Y89.4430
G01 X85.2504 Y89.4380
G01 X85.2413 Y89.4325
G01 X85.2325 Y89.4265
G01 X85.2240 Y89.4202
G01 X85.2119 Y89.4098
G01 X85.2043 Y89.4024
G01 X85.1971 Y89.3947
G01 X85.1869 Y89.3824
G01 X85.1376 Y89.3175
G01 X85.1290 Y89.3040
G01 X85.1239 Y89.2948
G01 X85.1192 Y89.2852
G01 X85.1151 Y89.2755
G01 X85.1114 Y89.2655
G01 X85.1082 Y89.2554
G01 X85.1044 Y89.2400
G01 X85.1024 Y89.2295
G01 X85.1006 Y89.2137
G01 X85.0941 Y89.1324
G01 X85.0942 Y89.1165
G01 X85.0949 Y89.1059
G01 X85.0962 Y89.0954
G01 X85.0979 Y89.0849
G01 X85.1015 Y89.0694
G01 X85.1046 Y89.0592
G01 X85.1081 Y89.0492
G01 X85.1121 Y89.0394
G01 X85.1191 Y89.0251
G01 X85.1575 Y88.9536
G01 X85.1657 Y88.9408
G01 X85.1717 Y88.9326
G01 X85.1781 Y88.9247
G01 X85.1884 Y88.9134
G01 X85.2519 Y88.8486
G01 X90.7713 Y83.3291
G01 X90.7797 Y83.3212
G01 X90.8800 Y83.2202
G01 X90.8954 Y83.1961
G01 X90.9058 Y83.1812
G01 X90.9200 Y83.1628
G01 X90.9264 Y83.1494
G01 X90.9368 Y83.1301
G01 X90.9477 Y83.1118
G01 X90.9574 Y83.0848
G01 X90.9643 Y83.0681
G01 X90.9741 Y83.0469
G01 X90.9790 Y83.0262
G01 X90.9850 Y83.0051
G01 X90.9898 Y82.9911
G01 X90.9932 Y82.9626
G01 X90.9962 Y82.9447
G01 X91.0011 Y82.9220
G01 X91.0004 Y82.8550
G01 X91.0004 Y33.5489
G01 X91.0007 Y33.5373
G01 X91.0002 Y33.3951
G01 X90.9940 Y33.3671
G01 X90.9909 Y33.3492
G01 X90.9879 Y33.3261
G01 X90.9830 Y33.3122
G01 X90.9767 Y33.2912
G01 X90.9715 Y33.2705
G01 X90.9614 Y33.2495
G01 X90.9543 Y33.2328
G01 X90.9442 Y33.2060
G01 X90.9363 Y33.1935
G01 X90.9255 Y33.1744
G01 X90.9158 Y33.1554
G01 X90.9014 Y33.1372
G01 X90.8907 Y33.1225
G01 X90.8750 Y33.0985
G01 X90.8271 Y33.0517
G01 X87.3396 Y29.5642
G01 X87.3317 Y29.5558
G01 X87.2307 Y29.4555
G01 X87.2111 Y29.4431
G01 X87.1961 Y29.4328
G01 X87.1733 Y29.4155
G01 X87.1599 Y29.4091
G01 X87.1406 Y29.3987
G01 X87.1223 Y29.3878
G01 X87.0953 Y29.3781
G01 X87.0786 Y29.3712
G01 X87.0574 Y29.3614
G01 X87.0367 Y29.3565
G01 X87.0156 Y29.3505
G01 X87.0016 Y29.3457
G01 X86.9731 Y29.3423
G01 X86.9552 Y29.3393
G01 X86.9325 Y29.3344
G01 X86.8655 Y29.3351
G01 X59.8479 Y29.3351
G01 X59.8363 Y29.3348
G01 X59.6941 Y29.3353
G01 X59.6661 Y29.3415
G01 X59.6482 Y29.3446
G01 X59.6251 Y29.3476
G01 X59.6112 Y29.3525
G01 X59.5902 Y29.3588
G01 X59.5695 Y29.3640
G01 X59.5485 Y29.3741
G01 X59.5318 Y29.3812
G01 X59.5050 Y29.3913
G01 X59.4868 Y29.4025
G01 X59.4690 Y29.4125
G01 X59.4544 Y29.4197
G01 X59.4318 Y29.4374
G01 X59.4170 Y29.4479
G01 X59.3975 Y29.4605
G01 X59.3506 Y29.5084
G01 X53.8449 Y35.0141
G01 X53.8323 Y35.0258
G01 X53.7986 Y35.0527
G01 X53.7856 Y35.0615
G01 X53.7765 Y35.0668
G01 X53.7672 Y35.0716
G01 X53.7529 Y35.0781
G01 X53.7381 Y35.0834
G01 X53.6649 Y35.1049
G01 X53.6502 Y35.1087
G01 X53.6301 Y35.1121
G01 X53.6149 Y35.1133
G01 X53.6048 Y35.1136
G01 X33.0222 Y35.1136
G01 X33.0108 Y35.1133
G01 X32.9994 Y35.1124
G01 X32.9674 Y35.1089
G01 X32.9571 Y35.1072
G01 X32.9468 Y35.1051
G01 X32.9316 Y35.1010
G01 X32.9217 Y35.0976
G01 X32.9072 Y35.0916
G01 X32.8931 Y35.0846
G01 X32.8220 Y35.0455
G01 X32.8051 Y35.0341
G01 X32.7895 Y35.0211
G01 X32.4894 Y34.7214
G01 X32.4815 Y34.7131
G01 X32.4572 Y34.6834
G01 X32.4478 Y34.6708
G01 X32.4420 Y34.6620
G01 X32.4367 Y34.6530
G01 X32.4296 Y34.6390
G01 X32.4235 Y34.6245
G01 X32.4201 Y34.6146
G01 X32.3986 Y34.5414
G01 X32.3948 Y34.5267
G01 X32.3914 Y34.5066
G01 X32.3902 Y34.4914
G01 X32.3899 Y34.4813
G01 X32.3900 Y32.8026
G01 X32.3909 Y32.7875
G01 X32.3921 Y32.7774
G01 X32.4006 Y32.7262
G01 X32.4029 Y32.7158
G01 X32.4073 Y32.7003
G01 X32.4109 Y32.6902
G01 X32.4150 Y32.6803
G01 X32.4220 Y32.6659
G01 X32.4273 Y32.6566
G01 X32.4331 Y32.6476
G01 X32.4772 Y32.5852
G01 X32.4897 Y32.5692
G01 X32.5001 Y32.5580
G01 X32.5151 Y32.5443
G01 X32.6377 Y32.4474
G01 X32.7700 Y32.3021
G01 X32.8051 Y32.2478
G01 X32.8145 Y32.2344
G01 X32.8454 Y32.1975
G01 X32.8525 Y32.1899
G01 X32.8599 Y32.1827
G01 X32.8717 Y32.1725
G01 X32.8800 Y32.1662
G01 X32.8885 Y32.1603
G01 X32.9019 Y32.1523
G01 X32.9796 Y32.1140
G01 X32.9894 Y32.1098
G01 X32.9993 Y32.1061
G01 X33.0145 Y32.1015
G01 X33.0249 Y32.0990
G01 X33.0353 Y32.0971
G01 X33.0511 Y32.0952
G01 X33.0670 Y32.0945
G01 X33.0776 Y32.0946
G01 X33.0882 Y32.0953
G01 X33.1640 Y32.1041
G01 X33.1797 Y32.1065
G01 X33.1901 Y32.1087
G01 X33.2003 Y32.1115
G01 X33.2104 Y32.1148
G01 X33.2252 Y32.1206
G01 X33.2348 Y32.1251
G01 X33.2442 Y32.1301
G01 X33.2533 Y32.1355
G01 X33.2621 Y32.1414
G01 X33.2706 Y32.1477
G01 X33.3297 Y32.1960
G01 X33.3411 Y32.2061
G01 X33.3518 Y32.2170
G01 X33.3585 Y32.2246
G01 X33.3678 Y32.2367
G01 X33.4282 Y32.3251
G01 X33.5639 Y32.4671
G01 X33.7211 Y32.5851
G01 X33.8954 Y32.6758
G01 X34.0821 Y32.7369
G01 X34.2764 Y32.7666
G01 X34.4728 Y32.7642
G01 X34.6663 Y32.7297
G01 X34.8515 Y32.6641
G01 X35.0235 Y32.5692
G01 X35.1777 Y32.4474
G01 X35.3100 Y32.3021
G01 X35.3512 Y32.2388
G01 X35.3613 Y32.2259
G01 X35.3854 Y32.1975
G01 X35.3925 Y32.1899
G01 X35.4038 Y32.1792
G01 X35.4158 Y32.1693
G01 X35.4285 Y32.1603
G01 X35.4374 Y32.1549
G01 X35.4465 Y32.1499
G01 X35.5245 Y32.1118
G01 X35.5393 Y32.1061
G01 X35.5494 Y32.1029
G01 X35.5597 Y32.1002
G01 X35.5701 Y32.0980
G01 X35.5805 Y32.0964
G01 X35.5964 Y32.0948
G01 X35.6070 Y32.0945
G01 X35.6176 Y32.0946
G01 X35.6335 Y32.0959
G01 X35.7145 Y32.1055
G01 X35.7301 Y32.1087
G01 X35.7403 Y32.1115
G01 X35.7504 Y32.1148
G01 X35.7603 Y32.1186
G01 X35.7700 Y32.1228
G01 X35.7795 Y32.1276
G01 X35.7888 Y32.1328
G01 X35.7977 Y32.1384
G01 X35.8106 Y32.1477
G01 X35.8736 Y32.1993
G01 X35.8883 Y32.2133
G01 X35.8952 Y32.2208
G01 X35.9048 Y32.2326
G01 X35.9682 Y32.3251
G01 X36.1039 Y32.4671
G01 X36.2611 Y32.5851
G01 X36.4354 Y32.6758
G01 X36.6221 Y32.7369
G01 X36.8164 Y32.7666
G01 X37.0128 Y32.7642
G01 X37.2063 Y32.7297
G01 X37.3915 Y32.6641
G01 X37.5635 Y32.5692
G01 X37.7177 Y32.4474
G01 X37.8500 Y32.3021
G01 X37.8912 Y32.2388
G01 X37.8978 Y32.2301
G01 X37.9220 Y32.2014
G01 X37.9325 Y32.1899
G01 X37.9399 Y32.1827
G01 X37.9477 Y32.1758
G01 X37.9600 Y32.1662
G01 X37.9685 Y32.1603
G01 X37.9774 Y32.1549
G01 X37.9911 Y32.1475
G01 X38.0596 Y32.1140
G01 X38.0743 Y32.1079
G01 X38.0844 Y32.1044
G01 X38.0945 Y32.1015
G01 X38.1049 Y32.0990
G01 X38.1153 Y32.0971
G01 X38.1311 Y32.0952
G01 X38.1417 Y32.0946
G01 X38.1523 Y32.0945
G01 X38.1629 Y32.0949
G01 X38.1735 Y32.0959
G01 X38.2492 Y32.1047
G01 X38.2649 Y32.1075
G01 X38.2803 Y32.1115
G01 X38.2904 Y32.1148
G01 X38.3003 Y32.1186
G01 X38.3148 Y32.1251
G01 X38.3242 Y32.1301
G01 X38.3333 Y32.1355
G01 X38.3421 Y32.1414
G01 X38.3506 Y32.1477
G01 X38.4136 Y32.1993
G01 X38.4211 Y32.2061
G01 X38.4318 Y32.2170
G01 X38.4385 Y32.2246
G01 X38.4478 Y32.2367
G01 X38.5082 Y32.3251
G01 X38.6439 Y32.4671
G01 X38.8011 Y32.5851
G01 X38.9754 Y32.6758
G01 X39.1621 Y32.7369
G01 X39.3564 Y32.7666
G01 X39.5528 Y32.7642
G01 X39.7463 Y32.7297
G01 X39.9315 Y32.6641
G01 X40.1035 Y32.5692
G01 X40.2577 Y32.4474
G01 X40.3900 Y32.3021
G01 X40.4312 Y32.2388
G01 X40.4378 Y32.2301
G01 X40.4620 Y32.2014
G01 X40.4725 Y32.1899
G01 X40.4799 Y32.1827
G01 X40.4917 Y32.1725
G01 X40.5000 Y32.1662
G01 X40.5085 Y32.1603
G01 X40.5174 Y32.1549
G01 X40.5311 Y32.1475
G01 X40.5996 Y32.1140
G01 X40.6094 Y32.1098
G01 X40.6193 Y32.1061
G01 X40.6294 Y32.1029
G01 X40.6397 Y32.1002
G01 X40.6501 Y32.0980
G01 X40.6605 Y32.0964
G01 X40.6711 Y32.0952
G01 X40.6817 Y32.0946
G01 X40.6923 Y32.0945
G01 X40.7029 Y32.0949
G01 X40.7892 Y32.1047
G01 X40.7997 Y32.1065
G01 X40.8152 Y32.1101
G01 X40.8254 Y32.1131
G01 X40.8354 Y32.1166
G01 X40.8452 Y32.1206
G01 X40.8548 Y32.1251
G01 X40.8642 Y32.1301
G01 X40.8733 Y32.1355
G01 X40.8821 Y32.1414
G01 X40.8906 Y32.1477
G01 X40.9536 Y32.1993
G01 X40.9611 Y32.2061
G01 X40.9718 Y32.2170
G01 X40.9785 Y32.2246
G01 X40.9878 Y32.2367
G01 X41.0482 Y32.3251
G01 X41.1839 Y32.4671
G01 X41.3411 Y32.5851
G01 X41.5154 Y32.6758
G01 X41.7021 Y32.7369
G01 X41.8964 Y32.7666
G01 X42.0928 Y32.7642
G01 X42.2863 Y32.7297
G01 X42.4715 Y32.6641
G01 X42.6435 Y32.5692
G01 X42.7977 Y32.4474
G01 X42.9300 Y32.3021
G01 X42.9712 Y32.2388
G01 X42.9778 Y32.2301
G01 X43.0020 Y32.2014
G01 X43.0125 Y32.1899
G01 X43.0199 Y32.1827
G01 X43.0277 Y32.1758
G01 X43.0400 Y32.1662
G01 X43.0485 Y32.1603
G01 X43.0574 Y32.1549
G01 X43.0711 Y32.1475
G01 X43.1396 Y32.1140
G01 X43.1494 Y32.1098
G01 X43.1593 Y32.1061
G01 X43.1694 Y32.1029
G01 X43.1797 Y32.1002
G01 X43.1901 Y32.0980
G01 X43.2005 Y32.0964
G01 X43.2111 Y32.0952
G01 X43.2217 Y32.0946
G01 X43.2323 Y32.0945
G01 X43.2429 Y32.0949
G01 X43.3292 Y32.1047
G01 X43.3397 Y32.1065
G01 X43.3552 Y32.1101
G01 X43.3704 Y32.1148
G01 X43.3803 Y32.1186
G01 X43.3900 Y32.1228
G01 X43.4042 Y32.1301
G01 X43.4133 Y32.1355
G01 X43.4221 Y32.1414
G01 X43.4348 Y32.1510
G01 X43.4936 Y32.1993
G01 X43.5011 Y32.2061
G01 X43.5118 Y32.2170
G01 X43.5185 Y32.2246
G01 X43.5278 Y32.2367
G01 X43.5882 Y32.3251
G01 X43.7239 Y32.4671
G01 X43.8811 Y32.5851
G01 X44.0554 Y32.6758
G01 X44.2421 Y32.7369
G01 X44.4364 Y32.7666
G01 X44.6328 Y32.7642
G01 X44.8263 Y32.7297
G01 X45.0115 Y32.6641
G01 X45.1835 Y32.5692
G01 X45.3377 Y32.4474
G01 X45.4700 Y32.3021
G01 X45.5115 Y32.2383
G01 X45.5181 Y32.2297
G01 X45.5423 Y32.2010
G01 X45.5492 Y32.1932
G01 X45.5602 Y32.1822
G01 X45.5720 Y32.1720
G01 X45.5803 Y32.1658
G01 X45.5932 Y32.1571
G01 X45.6068 Y32.1494
G01 X45.6799 Y32.1135
G01 X45.6897 Y32.1094
G01 X45.7047 Y32.1040
G01 X45.7149 Y32.1010
G01 X45.7252 Y32.0986
G01 X45.7409 Y32.0959
G01 X45.7514 Y32.0948
G01 X45.7673 Y32.0940
G01 X45.7779 Y32.0942
G01 X45.7938 Y32.0954
G01 X45.8655 Y32.1038
G01 X46.0155 Y31.9537
G01 X45.9976 Y31.9037
G01 X45.9929 Y31.8887
G01 X45.9701 Y31.7980
G01 X45.9668 Y31.7826
G01 X45.9518 Y31.6797
G01 X45.9467 Y31.5810
G01 X45.9464 Y31.5705
G01 X45.9467 Y31.5600
G01 X45.9518 Y31.4613
G01 X45.9668 Y31.3584
G01 X45.9701 Y31.3430
G01 X45.9929 Y31.2523
G01 X45.9976 Y31.2373
G01 X46.0155 Y31.1873
G01 X45.8664 Y31.0382
G01 X45.8527 Y31.0412
G01 X45.8369 Y31.0435
G01 X45.8264 Y31.0444
G01 X45.8105 Y31.0448
G01 X45.7946 Y31.0439
G01 X45.7239 Y31.0375
G01 X45.7081 Y31.0354
G01 X45.6977 Y31.0334
G01 X45.6823 Y31.0294
G01 X45.6672 Y31.0243
G01 X45.6574 Y31.0203
G01 X45.6431 Y31.0134
G01 X45.6338 Y31.0082
G01 X45.6249 Y31.0025
G01 X45.6162 Y30.9964
G01 X45.5520 Y30.9464
G01 X45.5405 Y30.9363
G01 X45.5333 Y30.9292
G01 X45.5265 Y30.9217
G01 X45.5168 Y30.9098
G01 X45.4331 Y30.7934
G01 X45.2939 Y30.6547
G01 X45.1339 Y30.5406
G01 X44.9575 Y30.4541
G01 X44.7693 Y30.3977
G01 X44.6452 Y30.3817
G01 X44.6250 Y30.3776
G01 X44.6053 Y30.3716
G01 X44.5862 Y30.3637
G01 X44.5064 Y30.3257
G01 X44.4971 Y30.3205
G01 X44.4837 Y30.3117
G01 X44.4710 Y30.3020
G01 X44.4630 Y30.2950
G01 X44.4553 Y30.2876
G01 X44.4445 Y30.2758
G01 X44.4377 Y30.2676
G01 X44.4285 Y30.2545
G01 X44.3869 Y30.1842
G01 X44.3818 Y30.1749
G01 X44.3771 Y30.1654
G01 X44.3729 Y30.1557
G01 X44.3692 Y30.1457
G01 X44.3660 Y30.1356
G01 X44.3622 Y30.1202
G01 X44.3602 Y30.1098
G01 X44.3588 Y30.0992
G01 X44.3577 Y30.0834
G01 X44.3576 Y30.0728
G01 X44.3606 Y29.9965
G01 X44.3619 Y29.9807
G01 X44.3643 Y29.9649
G01 X44.3666 Y29.9546
G01 X44.3709 Y29.9393
G01 X44.3764 Y29.9243
G01 X44.3806 Y29.9146
G01 X44.3854 Y29.9051
G01 X44.3933 Y29.8914
G01 X44.4400 Y29.8244
G01 X44.4496 Y29.8117
G01 X44.4565 Y29.8037
G01 X44.4677 Y29.7923
G01 X44.4755 Y29.7852
G01 X44.4880 Y29.7753
G01 X44.4967 Y29.7692
G01 X44.5102 Y29.7609
G01 X44.5196 Y29.7559
G01 X44.5341 Y29.7494
G01 X44.6093 Y29.7189
G01 X44.6239 Y29.7143
G01 X44.6437 Y29.7099
G01 X44.6588 Y29.7078
G01 X44.7083 Y29.7027
G01 X44.8304 Y29.6622
G01 X44.9385 Y29.5955
G01 X45.0285 Y29.5058
G01 X45.0963 Y29.3961
G01 X45.1023 Y29.3811
G01 X45.1065 Y29.3717
G01 X45.1112 Y29.3625
G01 X45.1164 Y29.3535
G01 X45.1249 Y29.3405
G01 X45.1343 Y29.3282
G01 X45.1877 Y29.2667
G01 X45.1950 Y29.2590
G01 X45.2027 Y29.2517
G01 X45.2149 Y29.2415
G01 X45.2279 Y29.2323
G01 X45.2415 Y29.2240
G01 X45.2556 Y29.2168
G01 X45.2703 Y29.2106
G01 X45.2803 Y29.2071
G01 X45.3584 Y29.1842
G01 X45.3733 Y29.1808
G01 X45.3833 Y29.1791
G01 X45.4035 Y29.1772
G01 X45.7089 Y29.1770
G01 X45.7235 Y29.1778
G01 X45.7332 Y29.1789
G01 X45.7777 Y29.1860
G01 X45.7933 Y29.1892
G01 X45.8086 Y29.1934
G01 X45.8186 Y29.1969
G01 X45.8284 Y29.2008
G01 X45.8427 Y29.2076
G01 X45.8519 Y29.2128
G01 X45.8609 Y29.2184
G01 X45.9237 Y29.2617
G01 X45.9364 Y29.2713
G01 X45.9445 Y29.2782
G01 X45.9522 Y29.2854
G01 X45.9596 Y29.2931
G01 X45.9699 Y29.3052
G01 X45.9792 Y29.3181
G01 X45.9849 Y29.3270
G01 X45.9902 Y29.3362
G01 X45.9950 Y29.3457
G01 X45.9993 Y29.3554
G01 X46.0302 Y29.4304
G01 X46.0349 Y29.4449
G01 X46.0394 Y29.4647
G01 X46.0410 Y29.4748
G01 X46.0447 Y29.5080
G01 X46.0756 Y29.5906
G01 X46.1263 Y29.6582
G01 X46.1939 Y29.7089
G01 X46.2765 Y29.7398
G01 X46.3004 Y29.7424
G01 X46.6861 Y29.7425
G01 X46.7066 Y29.7434
G01 X46.7174 Y29.7444
G01 X46.7333 Y29.7469
G01 X46.7491 Y29.7506
G01 X46.7594 Y29.7537
G01 X46.7695 Y29.7574
G01 X46.8455 Y29.7871
G01 X46.8551 Y29.7917
G01 X46.8644 Y29.7967
G01 X46.8735 Y29.8022
G01 X46.8866 Y29.8113
G01 X46.8949 Y29.8179
G01 X46.9029 Y29.8249
G01 X46.9142 Y29.8361
G01 X46.9212 Y29.8440
G01 X46.9311 Y29.8565
G01 X46.9789 Y29.9226
G01 X46.9871 Y29.9362
G01 X46.9920 Y29.9456
G01 X46.9984 Y29.9602
G01 X47.0038 Y29.9752
G01 X47.0068 Y29.9854
G01 X47.0102 Y30.0009
G01 X47.0119 Y30.0114
G01 X47.0134 Y30.0272
G01 X47.0177 Y30.1034
G01 X47.0177 Y30.1193
G01 X47.0170 Y30.1299
G01 X47.0157 Y30.1404
G01 X47.0140 Y30.1509
G01 X47.0117 Y30.1612
G01 X47.0089 Y30.1715
G01 X47.0057 Y30.1816
G01 X47.0019 Y30.1915
G01 X46.9953 Y30.2060
G01 X46.9528 Y30.2818
G01 X46.9471 Y30.2907
G01 X46.9410 Y30.2994
G01 X46.9345 Y30.3078
G01 X46.9276 Y30.3158
G01 X46.9165 Y30.3272
G01 X46.9086 Y30.3343
G01 X46.9004 Y30.3410
G01 X46.8875 Y30.3503
G01 X46.8785 Y30.3559
G01 X46.8692 Y30.3611
G01 X46.8065 Y30.3943
G01 X46.7879 Y30.4030
G01 X46.7783 Y30.4067
G01 X46.7637 Y30.4113
G01 X46.7538 Y30.4138
G01 X46.7256 Y30.4196
G01 X46.6133 Y30.4625
G01 X46.6768 Y30.5260
G01 X46.7268 Y30.5081
G01 X46.7418 Y30.5034
G01 X46.8325 Y30.4806
G01 X46.8479 Y30.4773
G01 X46.9508 Y30.4623
G01 X47.0495 Y30.4572
G01 X47.0600 Y30.4569
G01 X47.0705 Y30.4572
G01 X47.1692 Y30.4623
G01 X47.2721 Y30.4773
G01 X47.2875 Y30.4806
G01 X47.3782 Y30.5034
G01 X47.3932 Y30.5081
G01 X47.4432 Y30.5260
G01 X47.5089 Y30.4603
G01 X47.4973 Y30.4546
G01 X47.3395 Y30.4073
G01 X47.3205 Y30.4006
G01 X47.3023 Y30.3921
G01 X47.2891 Y30.3847
G01 X47.2171 Y30.3379
G01 X47.2087 Y30.3315
G01 X47.2006 Y30.3248
G01 X47.1929 Y30.3176
G01 X47.1855 Y30.3100
G01 X47.1785 Y30.3021
G01 X47.1719 Y30.2939
G01 X47.1657 Y30.2854
G01 X47.1600 Y30.2765
G01 X47.1522 Y30.2627
G01 X47.1476 Y30.2532
G01 X47.1181 Y30.1887
G01 X47.1139 Y30.1789
G01 X47.1102 Y30.1690
G01 X47.1071 Y30.1588
G01 X47.1044 Y30.1486
G01 X47.1013 Y30.1330
G01 X47.1000 Y30.1224
G01 X47.0991 Y30.1119
G01 X47.0988 Y30.1013
G01 X47.0990 Y30.0907
G01 X47.0997 Y30.0801
G01 X47.1009 Y30.0695
G01 X47.1110 Y29.9993
G01 X47.1139 Y29.9836
G01 X47.1179 Y29.9682
G01 X47.1230 Y29.9532
G01 X47.1293 Y29.9385
G01 X47.1366 Y29.9244
G01 X47.1450 Y29.9109
G01 X47.1511 Y29.9022
G01 X47.1576 Y29.8938
G01 X47.2111 Y29.8322
G01 X47.2184 Y29.8245
G01 X47.2261 Y29.8172
G01 X47.2342 Y29.8103
G01 X47.2426 Y29.8038
G01 X47.2557 Y29.7949
G01 X47.2648 Y29.7895
G01 X47.2742 Y29.7846
G01 X47.2839 Y29.7801
G01 X47.2937 Y29.7761
G01 X47.3037 Y29.7726
G01 X47.3818 Y29.7497
G01 X47.3967 Y29.7463
G01 X47.4168 Y29.7434
G01 X47.4371 Y29.7424
G01 X48.0736 Y29.7424
G01 X48.0975 Y29.7398
G01 X48.1801 Y29.7089
G01 X48.2477 Y29.6582
G01 X48.2984 Y29.5906
G01 X48.3293 Y29.5080
G01 X48.3319 Y29.4841
G01 X48.3319 Y28.1109
G01 X48.3293 Y28.0870
G01 X48.2984 Y28.0044
G01 X48.2477 Y27.9368
G01 X48.1801 Y27.8861
G01 X48.0975 Y27.8552
G01 X48.0736 Y27.8526
G01 X47.3092 Y27.8526
G01 X47.2873 Y27.8519
G01 X47.2716 Y27.8503
G01 X47.2612 Y27.8487
G01 X47.2508 Y27.8465
G01 X47.2356 Y27.8422
G01 X47.1591 Y27.8140
G01 X47.1492 Y27.8100
G01 X47.1396 Y27.8056
G01 X47.1256 Y27.7981
G01 X47.1166 Y27.7925
G01 X47.1079 Y27.7864
G01 X47.0954 Y27.7766
G01 X47.0836 Y27.7658
G01 X47.0727 Y27.7542
G01 X47.0627 Y27.7419
G01 X47.0171 Y27.6807
G01 X47.0111 Y27.6719
G01 X47.0056 Y27.6629
G01 X47.0006 Y27.6535
G01 X46.9961 Y27.6439
G01 X46.9901 Y27.6292
G01 X46.9868 Y27.6191
G01 X46.9840 Y27.6089
G01 X46.9817 Y27.5985
G01 X46.9798 Y27.5881
G01 X46.9781 Y27.5723
G01 X46.9726 Y27.4909
G01 X46.9726 Y27.4803
G01 X46.9736 Y27.4644
G01 X46.9750 Y27.4539
G01 X46.9780 Y27.4382
G01 X46.9821 Y27.4229
G01 X46.9855 Y27.4128
G01 X46.9894 Y27.4029
G01 X46.9938 Y27.3933
G01 X47.0327 Y27.3215
G01 X47.0432 Y27.3042
G01 X47.0554 Y27.2879
G01 X47.0691 Y27.2729
G01 X47.5278 Y26.8141
G01 X47.5362 Y26.8062
G01 X47.6365 Y26.7052
G01 X47.6519 Y26.6811
G01 X47.6623 Y26.6662
G01 X47.6765 Y26.6478
G01 X47.6829 Y26.6344
G01 X47.6933 Y26.6151
G01 X47.7042 Y26.5968
G01 X47.7139 Y26.5698
G01 X47.7208 Y26.5530
G01 X47.7306 Y26.5319
G01 X47.7338 Y26.5175
G01 X47.7396 Y26.4963
G01 X47.7435 Y26.4839
G01 X47.7500 Y26.4656
G01 X47.7581 Y26.4454
G01 X47.7670 Y26.4272
G01 X47.7775 Y26.4099
G01 X47.7865 Y26.3976
G01 X47.8394 Y26.3361
G01 X47.8503 Y26.3245
G01 X47.8580 Y26.3172
G01 X47.8702 Y26.3070
G01 X47.8788 Y26.3007
G01 X47.8876 Y26.2949
G01 X47.9014 Y26.2870
G01 X47.9158 Y26.2801
G01 X47.9256 Y26.2761
G01 X47.9407 Y26.2711
G01 X48.0088 Y26.2511
G01 X48.0236 Y26.2473
G01 X48.0386 Y26.2446
G01 X48.0487 Y26.2434
G01 X48.0588 Y26.2427
G01 X48.0736 Y26.2424
G01 X48.0975 Y26.2398
G01 X48.1801 Y26.2089
G01 X48.2477 Y26.1582
G01 X48.2984 Y26.0906
G01 X48.3293 Y26.0080
G01 X48.3319 Y25.9841
G01 X48.3319 Y24.6109
G01 X48.3293 Y24.5870
G01 X48.2984 Y24.5044
G01 X48.2437 Y24.4315
G01 X48.2334 Y24.4211
G01 X48.2257 Y24.4126
G01 X48.2020 Y24.3831
G01 X48.1958 Y24.3746
G01 X48.1900 Y24.3659
G01 X48.1847 Y24.3568
G01 X48.1799 Y24.3475
G01 X48.1734 Y24.3332
G01 X48.1681 Y24.3184
G01 X48.1466 Y24.2453
G01 X48.1428 Y24.2305
G01 X48.1394 Y24.2104
G01 X48.1382 Y24.1952
G01 X48.1379 Y24.1851
G01 X48.1379 Y23.7699
G01 X48.1382 Y23.7583
G01 X48.1377 Y23.6161
G01 X48.1315 Y23.5881
G01 X48.1284 Y23.5702
G01 X48.1254 Y23.5471
G01 X48.1205 Y23.5332
G01 X48.1142 Y23.5122
G01 X48.1090 Y23.4915
G01 X48.0989 Y23.4705
G01 X48.0918 Y23.4538
G01 X48.0817 Y23.4270
G01 X48.0738 Y23.4145
G01 X48.0630 Y23.3954
G01 X48.0533 Y23.3764
G01 X48.0389 Y23.3582
G01 X48.0282 Y23.3435
G01 X48.0125 Y23.3195
G01 X47.9646 Y23.2727
G01 X46.2649 Y21.5728
G01 X46.2536 Y21.5599
G01 X46.2303 Y21.5306
G01 X46.2215 Y21.5176
G01 X46.2162 Y21.5085
G01 X46.2114 Y21.4992
G01 X46.2049 Y21.4849
G01 X46.1996 Y21.4701
G01 X46.1754 Y21.3871
G01 X46.1724 Y21.3722
G01 X46.1709 Y21.3621
G01 X46.1697 Y21.3469
G01 X46.1694 Y21.3368
G01 X46.1694 Y16.0801
G01 X46.1704 Y16.0599
G01 X46.1723 Y16.0448
G01 X46.1812 Y15.9934
G01 X46.1838 Y15.9830
G01 X46.1868 Y15.9727
G01 X46.1904 Y15.9626
G01 X46.1945 Y15.9527
G01 X46.2015 Y15.9383
G01 X46.2068 Y15.9290
G01 X46.2126 Y15.9200
G01 X46.2567 Y15.8576
G01 X46.2659 Y15.8455
G01 X46.2796 Y15.8304
G01 X46.2946 Y15.8167
G01 X46.4532 Y15.6914
G01 X46.5912 Y15.5397
G01 X46.7026 Y15.3675
G01 X46.7844 Y15.1794
G01 X46.8344 Y14.9804
G01 X46.8469 Y14.8281
G01 X46.8469 Y14.6138
G01 X46.8326 Y14.4800
G01 X46.8316 Y14.4654
G01 X46.8317 Y14.4458
G01 X46.8339 Y14.4057
G01 X46.8353 Y14.3899
G01 X46.8379 Y14.3742
G01 X46.8417 Y14.3588
G01 X46.8466 Y14.3437
G01 X46.8526 Y14.3290
G01 X46.8597 Y14.3148
G01 X46.8962 Y14.2481
G01 X46.9043 Y14.2351
G01 X46.9102 Y14.2268
G01 X46.9198 Y14.2150
G01 X46.9302 Y14.2038
G01 X49.5598 Y11.5741
G01 X49.5682 Y11.5662
G01 X49.6685 Y11.4652
G01 X49.6839 Y11.4411
G01 X49.6943 Y11.4262
G01 X49.7085 Y11.4078
G01 X49.7149 Y11.3944
G01 X49.7253 Y11.3751
G01 X49.7362 Y11.3568
G01 X49.7459 Y11.3298
G01 X49.7528 Y11.3131
G01 X49.7626 Y11.2919
G01 X49.7675 Y11.2712
G01 X49.7735 Y11.2501
G01 X49.7783 Y11.2361
G01 X49.7817 Y11.2076
G01 X49.7847 Y11.1897
G01 X49.7896 Y11.1670
G01 X49.7889 Y11.1000
G01 X49.7889 Y9.4357
G01 X49.7894 Y9.4211
G01 X49.7909 Y9.4065
G01 X49.7980 Y9.3620
G01 X49.8012 Y9.3465
G01 X49.8054 Y9.3312
G01 X49.8089 Y9.3212
G01 X49.8128 Y9.3114
G01 X49.8173 Y9.3018
G01 X49.8222 Y9.2924
G01 X49.8304 Y9.2788
G01 X49.8737 Y9.2161
G01 X49.8833 Y9.2034
G01 X49.8937 Y9.1914
G01 X49.9012 Y9.1838
G01 X49.9090 Y9.1767
G01 X49.9214 Y9.1667
G01 X49.9301 Y9.1605
G01 X49.9390 Y9.1548
G01 X49.9482 Y9.1496
G01 X49.9577 Y9.1448
G01 X50.0329 Y9.1132
G01 X50.0424 Y9.1095
G01 X50.0570 Y9.1049
G01 X50.0668 Y9.1024
G01 X50.0777 Y9.1001
G01 X50.1621 Y9.0685
G01 X50.2297 Y9.0178
G01 X50.2804 Y8.9502
G01 X50.3113 Y8.8677
G01 X50.3139 Y8.8437
G01 X50.3139 Y7.1706
G01 X50.3113 Y7.1466
G01 X50.2804 Y7.0641
G01 X50.2297 Y6.9965
G01 X50.1621 Y6.9458
G01 X50.0795 Y6.9148
G01 X50.0355 Y6.9104
G01 X50.0198 Y6.9078
G01 X50.0044 Y6.9041
G01 X49.9410 Y6.8858
G01 X49.9265 Y6.8803
G01 X49.9170 Y6.8760
G01 X49.9078 Y6.8713
G01 X49.8945 Y6.8635
G01 X49.8817 Y6.8547
G01 X49.8696 Y6.8450
G01 X49.8582 Y6.8344
G01 X49.8080 Y6.7842
G01 X49.8007 Y6.7765
G01 X49.7938 Y6.7685
G01 X49.7873 Y6.7601
G01 X49.7812 Y6.7514
G01 X49.7729 Y6.7379
G01 X49.7656 Y6.7237
G01 X49.7592 Y6.7087
G01 X49.5241 Y6.4735
G01 X49.5128 Y6.4772
G01 X49.5031 Y6.4799
G01 X49.4270 Y6.4990
G01 X49.4167 Y6.5013
G01 X49.4064 Y6.5031
G01 X49.3183 Y6.5159
G01 X49.2295 Y6.5205
G01 X49.2190 Y6.5207
G01 X49.2085 Y6.5205
G01 X49.1197 Y6.5159
G01 X49.0316 Y6.5031
G01 X49.0213 Y6.5013
G01 X49.0110 Y6.4990
G01 X48.9349 Y6.4799
G01 X48.9248 Y6.4771
G01 X48.9139 Y6.4735
G01 X48.6787 Y6.7087
G01 X48.6627 Y6.7385
G01 X48.6571 Y6.7474
G01 X48.6480 Y6.7603
G01 X48.6380 Y6.7724
G01 X48.6273 Y6.7835
G01 X48.6066 Y6.8101
G01 X48.5996 Y6.8181
G01 X48.5923 Y6.8258
G01 X48.5847 Y6.8331
G01 X48.5725 Y6.8434
G01 X48.5596 Y6.8527
G01 X48.5506 Y6.8584
G01 X48.5414 Y6.8636
G01 X48.5271 Y6.8705
G01 X48.5123 Y6.8764
G01 X48.4454 Y6.9000
G01 X48.4355 Y6.9032
G01 X48.4255 Y6.9060
G01 X48.4103 Y6.9092
G01 X48.3949 Y6.9112
G01 X48.3850 Y6.9120
G01 X48.3585 Y6.9148
G01 X48.2759 Y6.9458
G01 X48.2083 Y6.9965
G01 X48.1576 Y7.0641
G01 X48.1267 Y7.1466
G01 X48.1241 Y7.1706
G01 X48.1241 Y8.8437
G01 X48.1267 Y8.8677
G01 X48.1576 Y8.9502
G01 X48.2083 Y9.0178
G01 X48.2759 Y9.0685
G01 X48.3603 Y9.1001
G01 X48.3797 Y9.1045
G01 X48.4185 Y9.1152
G01 X48.4336 Y9.1199
G01 X48.4483 Y9.1258
G01 X48.4579 Y9.1303
G01 X48.4672 Y9.1353
G01 X48.4763 Y9.1408
G01 X48.4851 Y9.1467
G01 X48.4977 Y9.1563
G01 X48.5554 Y9.2062
G01 X48.5670 Y9.2170
G01 X48.5743 Y9.2248
G01 X48.5812 Y9.2328
G01 X48.5908 Y9.2455
G01 X48.5994 Y9.2589
G01 X48.6045 Y9.2682
G01 X48.6092 Y9.2777
G01 X48.6154 Y9.2923
G01 X48.6189 Y9.3024
G01 X48.6418 Y9.3804
G01 X48.6452 Y9.3953
G01 X48.6476 Y9.4104
G01 X48.6488 Y9.4256
G01 X48.6491 Y9.4357
G01 X48.6491 Y10.7323
G01 X48.6484 Y10.7494
G01 X48.6444 Y10.7871
G01 X48.6417 Y10.8026
G01 X48.6393 Y10.8128
G01 X48.6365 Y10.8229
G01 X48.6331 Y10.8328
G01 X48.6292 Y10.8426
G01 X48.6225 Y10.8568
G01 X48.5836 Y10.9282
G01 X48.5755 Y10.9411
G01 X48.5696 Y10.9494
G01 X48.5633 Y10.9574
G01 X48.5532 Y10.9688
G01 X46.1538 Y13.3682
G01 X46.1455 Y13.3756
G01 X46.1323 Y13.3860
G01 X46.0856 Y13.4181
G01 X46.0720 Y13.4263
G01 X46.0627 Y13.4311
G01 X46.0531 Y13.4355
G01 X46.0384 Y13.4412
G01 X46.0283 Y13.4444
G01 X46.0181 Y13.4471
G01 X46.0026 Y13.4501
G01 X45.9220 Y13.4610
G01 X45.9068 Y13.4621
G01 X45.8916 Y13.4622
G01 X45.8814 Y13.4616
G01 X45.8663 Y13.4598
G01 X45.6868 Y13.4324
G01 X45.4817 Y13.4349
G01 X45.2798 Y13.4708
G01 X45.0864 Y13.5393
G01 X44.9068 Y13.6384
G01 X44.7458 Y13.7656
G01 X44.6065 Y13.9187
G01 X44.5967 Y13.9312
G01 X44.5691 Y13.9634
G01 X44.5619 Y13.9709
G01 X44.5543 Y13.9779
G01 X44.5463 Y13.9846
G01 X44.5381 Y13.9909
G01 X44.5251 Y13.9995
G01 X44.5116 Y14.0072
G01 X44.4432 Y14.0408
G01 X44.4287 Y14.0473
G01 X44.4187 Y14.0510
G01 X44.4086 Y14.0542
G01 X44.3932 Y14.0580
G01 X44.3775 Y14.0607
G01 X44.3617 Y14.0623
G01 X44.3457 Y14.0626
G01 X44.3299 Y14.0617
G01 X44.2541 Y14.0530
G01 X44.2436 Y14.0515
G01 X44.2331 Y14.0495
G01 X44.2177 Y14.0456
G01 X44.2076 Y14.0423
G01 X44.1977 Y14.0385
G01 X44.1880 Y14.0343
G01 X44.1785 Y14.0295
G01 X44.1648 Y14.0216
G01 X44.1559 Y14.0157
G01 X44.1433 Y14.0061
G01 X44.0883 Y13.9611
G01 X44.0733 Y13.9474
G01 X44.0628 Y13.9363
G01 X44.0532 Y13.9245
G01 X44.0319 Y13.8936
G01 X43.8902 Y13.7454
G01 X43.7262 Y13.6222
G01 X43.5444 Y13.5276
G01 X43.5271 Y13.5219
G01 X43.5271 Y13.6135
G01 X43.6092 Y13.6526
G01 X43.6183 Y13.6578
G01 X43.7073 Y13.7114
G01 X43.7910 Y13.7732
G01 X43.7993 Y13.7796
G01 X43.8765 Y13.8492
G01 X43.8841 Y13.8564
G01 X43.8913 Y13.8640
G01 X43.9541 Y13.9333
G01 X43.9609 Y13.9412
G01 X43.9673 Y13.9495
G01 X44.0291 Y14.0332
G01 X44.0854 Y14.1267
G01 X44.0926 Y14.1407
G01 X44.1326 Y14.2252
G01 X44.1368 Y14.2348
G01 X44.1406 Y14.2445
G01 X44.1754 Y14.3425
G01 X44.2021 Y14.4484
G01 X44.2050 Y14.4638
G01 X44.2187 Y14.5563
G01 X44.2204 Y14.5719
G01 X44.2255 Y14.6758
G01 X44.2256 Y14.7760
G01 X44.2253 Y14.7865
G01 X44.2200 Y14.8903
G01 X44.2050 Y14.9932
G01 X44.2032 Y15.0035
G01 X44.2009 Y15.0137
G01 X44.1754 Y15.1145
G01 X44.1406 Y15.2125
G01 X44.1368 Y15.2222
G01 X44.1326 Y15.2318
G01 X44.0879 Y15.3257
G01 X44.0347 Y15.4150
G01 X44.0235 Y15.4318
G01 X43.9673 Y15.5075
G01 X43.9607 Y15.5160
G01 X43.9541 Y15.5237
G01 X43.8841 Y15.6006
G01 X43.8033 Y15.6740
G01 X43.7910 Y15.6838
G01 X43.7159 Y15.7395
G01 X43.7073 Y15.7456
G01 X43.6985 Y15.7512
G01 X43.6092 Y15.8044
G01 X43.5271 Y15.8435
G01 X43.5271 Y15.9333
G01 X43.5724 Y15.9172
G01 X43.7519 Y15.8181
G01 X43.9128 Y15.6911
G01 X44.0522 Y15.5378
G01 X44.0617 Y15.5258
G01 X44.0893 Y15.4936
G01 X44.0965 Y15.4862
G01 X44.1081 Y15.4757
G01 X44.1162 Y15.4692
G01 X44.1246 Y15.4631
G01 X44.1377 Y15.4548
G01 X44.1515 Y15.4475
G01 X44.2200 Y15.4139
G01 X44.2297 Y15.4097
G01 X44.2397 Y15.4060
G01 X44.2498 Y15.4028
G01 X44.2600 Y15.4001
G01 X44.2704 Y15.3979
G01 X44.2809 Y15.3963
G01 X44.2914 Y15.3951
G01 X44.3020 Y15.3945
G01 X44.3126 Y15.3944
G01 X44.3232 Y15.3948
G01 X44.3338 Y15.3958
G01 X44.4148 Y15.4055
G01 X44.4253 Y15.4075
G01 X44.4356 Y15.4100
G01 X44.4507 Y15.4147
G01 X44.4607 Y15.4185
G01 X44.4704 Y15.4227
G01 X44.4799 Y15.4275
G01 X44.4936 Y15.4355
G01 X44.5025 Y15.4413
G01 X44.5151 Y15.4509
G01 X44.5778 Y15.5026
G01 X44.5887 Y15.5132
G01 X44.6021 Y15.5285
G01 X44.6082 Y15.5366
G01 X44.6267 Y15.5637
G01 X44.7685 Y15.7120
G01 X44.8939 Y15.8062
G01 X44.9024 Y15.8129
G01 X44.9106 Y15.8201
G01 X44.9183 Y15.8276
G01 X44.9593 Y15.8720
G01 X44.9658 Y15.8801
G01 X44.9720 Y15.8886
G01 X44.9803 Y15.9018
G01 X44.9877 Y15.9155
G01 X44.9941 Y15.9298
G01 X44.9978 Y15.9395
G01 X45.0009 Y15.9495
G01 X45.0209 Y16.0176
G01 X45.0257 Y16.0373
G01 X45.0286 Y16.0575
G01 X45.0296 Y16.0778
G01 X45.0296 Y21.6256
G01 X45.0293 Y21.6372
G01 X45.0298 Y21.7794
G01 X45.0360 Y21.8074
G01 X45.0391 Y21.8253
G01 X45.0421 Y21.8484
G01 X45.0470 Y21.8623
G01 X45.0533 Y21.8833
G01 X45.0585 Y21.9040
G01 X45.0686 Y21.9250
G01 X45.0757 Y21.9417
G01 X45.0858 Y21.9685
G01 X45.0970 Y21.9867
G01 X45.1076 Y22.0058
G01 X45.1142 Y22.0191
G01 X45.1319 Y22.0417
G01 X45.1423 Y22.0564
G01 X45.1550 Y22.0760
G01 X45.2029 Y22.1229
G01 X46.8529 Y23.7729
G01 X46.8643 Y23.7849
G01 X46.8748 Y23.7971
G01 X46.8843 Y23.8099
G01 X46.8928 Y23.8235
G01 X46.9003 Y23.8376
G01 X46.9359 Y23.9161
G01 X46.9396 Y23.9260
G01 X46.9428 Y23.9362
G01 X46.9466 Y23.9516
G01 X46.9485 Y23.9620
G01 X46.9499 Y23.9726
G01 X46.9510 Y23.9884
G01 X46.9509 Y24.0043
G01 X46.9496 Y24.0202
G01 X46.9370 Y24.1062
G01 X46.9347 Y24.1166
G01 X46.9319 Y24.1268
G01 X46.9286 Y24.1369
G01 X46.9248 Y24.1468
G01 X46.9182 Y24.1612
G01 X46.9106 Y24.1752
G01 X46.9019 Y24.1885
G01 X46.8922 Y24.2012
G01 X46.8352 Y24.2667
G01 X46.8276 Y24.2742
G01 X46.8198 Y24.2813
G01 X46.8115 Y24.2880
G01 X46.8030 Y24.2943
G01 X46.7896 Y24.3029
G01 X46.7756 Y24.3104
G01 X46.7660 Y24.3149
G01 X46.7512 Y24.3207
G01 X46.6681 Y24.3453
G01 X46.6532 Y24.3487
G01 X46.6432 Y24.3504
G01 X46.6280 Y24.3520
G01 X46.6128 Y24.3526
G01 X46.3004 Y24.3526
G01 X46.2765 Y24.3552
G01 X46.1939 Y24.3861
G01 X46.1263 Y24.4368
G01 X46.0756 Y24.5044
G01 X46.0447 Y24.5870
G01 X46.0421 Y24.6109
G01 X46.0421 Y25.9841
G01 X46.0447 Y26.0080
G01 X46.0756 Y26.0906
G01 X46.1406 Y26.1773
G01 X46.1467 Y26.1858
G01 X46.1524 Y26.1947
G01 X46.1743 Y26.2345
G01 X46.1793 Y26.2440
G01 X46.1857 Y26.2589
G01 X46.1894 Y26.2690
G01 X46.1926 Y26.2793
G01 X46.1964 Y26.2950
G01 X46.1982 Y26.3056
G01 X46.1995 Y26.3163
G01 X46.2053 Y26.3978
G01 X46.2056 Y26.4084
G01 X46.2053 Y26.4190
G01 X46.2044 Y26.4295
G01 X46.2031 Y26.4401
G01 X46.2012 Y26.4505
G01 X46.1989 Y26.4608
G01 X46.1960 Y26.4710
G01 X46.1907 Y26.4861
G01 X46.1865 Y26.4958
G01 X46.1819 Y26.5054
G01 X46.1403 Y26.5812
G01 X46.1289 Y26.5980
G01 X46.1160 Y26.6137
G01 X45.8439 Y26.8861
G01 X45.8313 Y26.8978
G01 X45.8018 Y26.9215
G01 X45.7890 Y26.9306
G01 X45.7801 Y26.9362
G01 X45.7709 Y26.9413
G01 X45.7615 Y26.9459
G01 X45.7519 Y26.9501
G01 X45.7421 Y26.9537
G01 X45.7321 Y26.9569
G01 X45.6591 Y26.9783
G01 X45.6392 Y26.9826
G01 X45.6241 Y26.9846
G01 X45.6139 Y26.9853
G01 X45.3714 Y26.9856
G01 X45.3604 Y26.9853
G01 X45.3440 Y26.9838
G01 X45.3332 Y26.9821
G01 X45.2672 Y26.9682
G01 X45.2571 Y26.9653
G01 X45.2472 Y26.9619
G01 X45.2374 Y26.9580
G01 X45.2279 Y26.9537
G01 X45.2185 Y26.9489
G01 X45.2094 Y26.9436
G01 X45.1963 Y26.9349
G01 X45.1839 Y26.9253
G01 X45.1254 Y26.8762
G01 X45.1177 Y26.8690
G01 X45.1102 Y26.8615
G01 X45.1032 Y26.8535
G01 X45.0966 Y26.8452
G01 X45.0904 Y26.8366
G01 X45.0819 Y26.8232
G01 X45.0768 Y26.8139
G01 X45.0700 Y26.7995
G01 X45.0661 Y26.7896
G01 X45.0627 Y26.7796
G01 X45.0415 Y26.7118
G01 X45.0386 Y26.7016
G01 X45.0362 Y26.6913
G01 X45.0343 Y26.6808
G01 X45.0330 Y26.6703
G01 X45.0321 Y26.6597
G01 X45.0318 Y26.6491
G01 X45.0323 Y26.6332
G01 X45.0333 Y26.6227
G01 X45.0349 Y26.6122
G01 X45.0381 Y26.5966
G01 X45.0612 Y26.5133
G01 X45.0685 Y26.4943
G01 X45.0751 Y26.4805
G01 X45.0800 Y26.4717
G01 X45.0949 Y26.4475
G01 X45.1249 Y26.3576
G01 X45.0395 Y26.3576
G01 X45.0268 Y26.3924
G01 X45.0121 Y26.4242
G01 X45.0048 Y26.4381
G01 X44.9840 Y26.4726
G01 X44.9601 Y26.5050
G01 X44.9500 Y26.5170
G01 X44.9263 Y26.5428
G01 X44.8966 Y26.5700
G01 X44.8843 Y26.5798
G01 X44.8604 Y26.5975
G01 X44.8517 Y26.6033
G01 X44.8170 Y26.6238
G01 X44.7855 Y26.6391
G01 X44.7710 Y26.6452
G01 X44.7331 Y26.6586
G01 X44.6992 Y26.6674
G01 X44.6838 Y26.6706
G01 X44.6439 Y26.6764
G01 X44.6090 Y26.6783
G01 X44.5985 Y26.6786
G01 X43.2985 Y26.6786
G01 X43.2880 Y26.6783
G01 X43.2531 Y26.6764
G01 X43.2184 Y26.6715
G01 X43.2029 Y26.6686
G01 X43.1639 Y26.6586
G01 X43.1260 Y26.6452
G01 X43.1115 Y26.6391
G01 X43.0800 Y26.6238
G01 X43.0498 Y26.6061
G01 X43.0366 Y26.5975
G01 X43.0127 Y26.5798
G01 X43.0044 Y26.5734
G01 X42.9965 Y26.5665
G01 X42.9744 Y26.5465
G01 X42.9670 Y26.5391
G01 X42.9470 Y26.5170
G01 X42.9369 Y26.5050
G01 X42.9130 Y26.4726
G01 X42.8948 Y26.4427
G01 X42.8897 Y26.4335
G01 X42.8849 Y26.4242
G01 X42.8702 Y26.3924
G01 X42.8575 Y26.3576
G01 X42.7722 Y26.3576
G01 X42.8017 Y26.4466
G01 X42.8175 Y26.4723
G01 X42.8226 Y26.4815
G01 X42.8272 Y26.4910
G01 X42.8332 Y26.5056
G01 X42.8529 Y26.5603
G01 X42.8574 Y26.5753
G01 X42.8607 Y26.5907
G01 X42.8629 Y26.6062
G01 X42.8639 Y26.6219
G01 X42.8638 Y26.6376
G01 X42.8625 Y26.6533
G01 X42.8509 Y26.7340
G01 X42.8489 Y26.7444
G01 X42.8463 Y26.7547
G01 X42.8416 Y26.7699
G01 X42.8378 Y26.7798
G01 X42.8335 Y26.7895
G01 X42.8262 Y26.8036
G01 X42.8178 Y26.8171
G01 X42.8085 Y26.8300
G01 X42.7552 Y26.8919
G01 X42.7481 Y26.8997
G01 X42.7406 Y26.9072
G01 X42.7327 Y26.9143
G01 X42.7202 Y26.9242
G01 X42.7070 Y26.9331
G01 X42.6933 Y26.9410
G01 X42.6789 Y26.9479
G01 X42.6641 Y26.9537
G01 X42.6540 Y26.9569
G01 X42.5760 Y26.9796
G01 X42.5611 Y26.9826
G01 X42.5409 Y26.9850
G01 X42.5257 Y26.9856
G01 X42.2020 Y26.9855
G01 X42.1915 Y26.9850
G01 X42.1811 Y26.9840
G01 X42.1341 Y26.9770
G01 X42.1191 Y26.9738
G01 X42.0994 Y26.9679
G01 X42.0803 Y26.9601
G01 X42.0666 Y26.9531
G01 X42.0534 Y26.9451
G01 X41.9897 Y26.9032
G01 X41.9811 Y26.8969
G01 X41.9689 Y26.8868
G01 X41.9611 Y26.8795
G01 X41.9538 Y26.8719
G01 X41.9468 Y26.8639
G01 X41.9402 Y26.8555
G01 X41.9341 Y26.8469
G01 X41.9284 Y26.8379
G01 X41.9232 Y26.8287
G01 X41.9184 Y26.8193
G01 X41.8873 Y26.7496
G01 X41.8814 Y26.7351
G01 X41.8782 Y26.7252
G01 X41.8741 Y26.7101
G01 X41.8712 Y26.6947
G01 X41.8699 Y26.6844
G01 X41.8691 Y26.6740
G01 X41.8688 Y26.6635
G01 X41.8690 Y26.6531
G01 X41.8698 Y26.6427
G01 X41.8775 Y26.5770
G01 X41.8800 Y26.5609
G01 X41.8824 Y26.5503
G01 X41.8853 Y26.5398
G01 X41.9207 Y26.4336
G01 X41.8351 Y26.4336
G01 X41.8287 Y26.4510
G01 X41.8247 Y26.4607
G01 X41.8098 Y26.4924
G01 X41.8022 Y26.5062
G01 X41.7868 Y26.5317
G01 X41.7810 Y26.5404
G01 X41.7601 Y26.5685
G01 X41.7500 Y26.5805
G01 X41.7263 Y26.6063
G01 X41.6966 Y26.6335
G01 X41.6843 Y26.6433
G01 X41.6561 Y26.6640
G01 X41.6216 Y26.6848
G01 X41.6077 Y26.6921
G01 X41.5759 Y26.7068
G01 X41.5381 Y26.7205
G01 X41.5280 Y26.7236
G01 X41.4992 Y26.7309
G01 X41.4838 Y26.7341
G01 X41.4439 Y26.7399
G01 X41.4090 Y26.7418
G01 X41.3985 Y26.7421
G01 X40.1485 Y26.7421
G01 X40.1380 Y26.7418
G01 X40.1031 Y26.7399
G01 X40.0632 Y26.7341
G01 X40.0478 Y26.7309
G01 X40.0190 Y26.7236
G01 X40.0089 Y26.7205
G01 X39.9711 Y26.7068
G01 X39.9393 Y26.6921
G01 X39.9254 Y26.6848
G01 X39.8909 Y26.6640
G01 X39.8585 Y26.6401
G01 X39.8465 Y26.6300
G01 X39.8207 Y26.6063
G01 X39.7970 Y26.5805
G01 X39.7869 Y26.5685
G01 X39.7630 Y26.5361
G01 X39.7422 Y26.5016
G01 X39.7349 Y26.4877
G01 X39.7202 Y26.4559
G01 X39.7065 Y26.4181
G01 X39.7034 Y26.4080
G01 X39.6961 Y26.3792
G01 X39.6938 Y26.3689
G01 X39.6920 Y26.3586
G01 X39.6871 Y26.3232
G01 X39.6850 Y26.2837
G01 X39.6849 Y25.6535
G01 X39.6852 Y25.6430
G01 X39.6871 Y25.6081
G01 X39.6920 Y25.5734
G01 X39.6949 Y25.5579
G01 X39.7034 Y25.5240
G01 X39.7065 Y25.5139
G01 X39.7164 Y25.4859
G01 X39.7223 Y25.4713
G01 X39.7349 Y25.4443
G01 X39.7397 Y25.4350
G01 X39.7448 Y25.4258
G01 X39.7602 Y25.4003
G01 X39.7660 Y25.3916
G01 X39.7837 Y25.3677
G01 X39.7935 Y25.3554
G01 X39.8135 Y25.3333
G01 X39.8244 Y25.3220
G01 X39.8504 Y25.2985
G01 X39.8627 Y25.2887
G01 X39.8909 Y25.2680
G01 X39.9208 Y25.2498
G01 X39.9346 Y25.2422
G01 X39.9615 Y25.2294
G01 X39.9760 Y25.2233
G01 X40.0089 Y25.2115
G01 X40.0240 Y25.2071
G01 X40.0529 Y25.1999
G01 X40.0684 Y25.1970
G01 X40.0982 Y25.1927
G01 X40.1094 Y25.1916
G01 X40.1380 Y25.1902
G01 X40.3059 Y25.1899
G01 X40.3059 Y25.1091
G01 X40.1091 Y25.1091
G01 X40.0388 Y25.1163
G01 X39.9169 Y25.1567
G01 X39.8088 Y25.2233
G01 X39.7189 Y25.3130
G01 X39.6947 Y25.3521
G01 X39.6863 Y25.3641
G01 X39.6770 Y25.3756
G01 X39.6471 Y25.4100
G01 X39.6359 Y25.4213
G01 X39.6280 Y25.4284
G01 X39.6198 Y25.4351
G01 X39.6069 Y25.4443
G01 X39.5979 Y25.4499
G01 X39.5887 Y25.4551
G01 X39.5743 Y25.4619
G01 X39.5043 Y25.4923
G01 X39.4944 Y25.4960
G01 X39.4843 Y25.4992
G01 X39.4740 Y25.5020
G01 X39.4637 Y25.5042
G01 X39.4532 Y25.5059
G01 X39.4427 Y25.5071
G01 X39.4321 Y25.5077
G01 X39.4215 Y25.5078
G01 X39.4056 Y25.5071
G01 X39.3950 Y25.5059
G01 X39.3145 Y25.4927
G01 X39.3041 Y25.4905
G01 X39.2939 Y25.4878
G01 X39.2788 Y25.4827
G01 X39.2641 Y25.4766
G01 X39.2499 Y25.4693
G01 X39.2364 Y25.4611
G01 X39.2234 Y25.4518
G01 X39.2152 Y25.4451
G01 X39.1584 Y25.3941
G01 X39.1471 Y25.3831
G01 X39.1365 Y25.3713
G01 X39.1269 Y25.3587
G01 X39.1210 Y25.3499
G01 X39.0985 Y25.3135
G01 X39.0088 Y25.2235
G01 X38.9007 Y25.1567
G01 X38.8397 Y25.1362
G01 X38.8124 Y25.1253
G01 X38.8030 Y25.1208
G01 X38.7895 Y25.1133
G01 X38.7765 Y25.1048
G01 X38.7642 Y25.0953
G01 X38.7066 Y25.0455
G01 X38.6950 Y25.0346
G01 X38.6842 Y25.0229
G01 X38.6775 Y25.0147
G01 X38.6712 Y25.0062
G01 X38.6654 Y24.9973
G01 X38.6575 Y24.9835
G01 X38.6528 Y24.9740
G01 X38.6485 Y24.9643
G01 X38.6448 Y24.9544
G01 X38.6216 Y24.8761
G01 X38.6178 Y24.8614
G01 X38.6144 Y24.8413
G01 X38.6132 Y24.8261
G01 X38.6129 Y24.8160
G01 X38.6129 Y20.3122
G01 X38.6136 Y20.2951
G01 X38.6176 Y20.2574
G01 X38.6203 Y20.2419
G01 X38.6227 Y20.2317
G01 X38.6255 Y20.2216
G01 X38.6289 Y20.2117
G01 X38.6328 Y20.2019
G01 X38.6371 Y20.1924
G01 X38.6419 Y20.1831
G01 X38.6810 Y20.1120
G01 X38.6865 Y20.1034
G01 X38.6955 Y20.0911
G01 X38.7088 Y20.0757
G01 X40.8603 Y17.9241
G01 X40.8687 Y17.9162
G01 X40.9690 Y17.8152
G01 X40.9844 Y17.7911
G01 X40.9948 Y17.7762
G01 X41.0090 Y17.7578
G01 X41.0154 Y17.7444
G01 X41.0258 Y17.7251
G01 X41.0367 Y17.7068
G01 X41.0464 Y17.6798
G01 X41.0533 Y17.6631
G01 X41.0631 Y17.6419
G01 X41.0680 Y17.6212
G01 X41.0740 Y17.6001
G01 X41.0788 Y17.5861
G01 X41.0822 Y17.5576
G01 X41.0852 Y17.5397
G01 X41.0901 Y17.5170
G01 X41.0894 Y17.4500
G01 X41.0894 Y16.3630
G01 X41.0900 Y16.3478
G01 X41.0909 Y16.3376
G01 X41.0943 Y16.3176
G01 X41.1082 Y16.2549
G01 X41.1112 Y16.2447
G01 X41.1148 Y16.2346
G01 X41.1189 Y16.2247
G01 X41.1234 Y16.2151
G01 X41.1284 Y16.2056
G01 X41.1339 Y16.1965
G01 X41.1398 Y16.1876
G01 X41.1462 Y16.1790
G01 X41.2030 Y16.1132
G01 X41.2103 Y16.1055
G01 X41.2220 Y16.0947
G01 X41.2345 Y16.0848
G01 X41.2476 Y16.0759
G01 X41.2614 Y16.0680
G01 X41.2758 Y16.0611
G01 X41.2906 Y16.0553
G01 X41.3007 Y16.0521
G01 X41.3737 Y16.0307
G01 X41.3836 Y16.0283
G01 X41.3986 Y16.0256
G01 X41.4087 Y16.0244
G01 X41.4239 Y16.0235
G01 X41.5086 Y16.0234
G01 X41.5325 Y16.0208
G01 X41.6151 Y15.9899
G01 X41.6827 Y15.9392
G01 X41.7340 Y15.8707
G01 X41.7453 Y15.8462
G01 X41.7499 Y15.8372
G01 X41.7577 Y15.8241
G01 X41.7695 Y15.8075
G01 X41.7829 Y15.7922
G01 X41.8367 Y15.7384
G01 X41.8484 Y15.7276
G01 X41.8566 Y15.7209
G01 X41.8695 Y15.7116
G01 X41.8831 Y15.7034
G01 X41.8925 Y15.6984
G01 X41.9021 Y15.6939
G01 X41.9169 Y15.6881
G01 X41.9321 Y15.6834
G01 X41.9424 Y15.6809
G01 X42.0118 Y15.6659
G01 X42.0275 Y15.6631
G01 X42.0380 Y15.6619
G01 X42.0486 Y15.6613
G01 X42.0645 Y15.6612
G01 X42.0751 Y15.6619
G01 X42.0856 Y15.6630
G01 X42.0961 Y15.6647
G01 X42.1065 Y15.6669
G01 X42.1218 Y15.6712
G01 X42.1318 Y15.6747
G01 X42.1983 Y15.6996
G01 X42.2170 Y15.7076
G01 X42.2305 Y15.7148
G01 X42.2475 Y15.7258
G01 X42.3928 Y15.8348
G01 X42.5746 Y15.9294
G01 X42.5919 Y15.9351
G01 X42.5919 Y15.8435
G01 X42.5098 Y15.8044
G01 X42.5007 Y15.7992
G01 X42.4120 Y15.7458
G01 X42.4031 Y15.7395
G01 X42.3195 Y15.6772
G01 X42.2425 Y15.6078
G01 X42.2349 Y15.6006
G01 X42.2277 Y15.5930
G01 X42.1649 Y15.5237
G01 X42.1581 Y15.5158
G01 X42.1517 Y15.5075
G01 X42.0899 Y15.4238
G01 X42.0336 Y15.3303
G01 X42.0264 Y15.3163
G01 X41.9864 Y15.2318
G01 X41.9822 Y15.2222
G01 X41.9784 Y15.2125
G01 X41.9436 Y15.1145
G01 X41.9169 Y15.0086
G01 X41.9140 Y14.9932
G01 X41.9003 Y14.9007
G01 X41.8986 Y14.8851
G01 X41.8935 Y14.7812
G01 X41.8934 Y14.6810
G01 X41.8937 Y14.6705
G01 X41.8990 Y14.5667
G01 X41.9140 Y14.4638
G01 X41.9158 Y14.4535
G01 X41.9181 Y14.4433
G01 X41.9436 Y14.3425
G01 X41.9784 Y14.2445
G01 X41.9822 Y14.2348
G01 X41.9864 Y14.2252
G01 X42.0311 Y14.1313
G01 X42.0843 Y14.0420
G01 X42.0899 Y14.0332
G01 X42.0960 Y14.0246
G01 X42.1517 Y13.9495
G01 X42.1581 Y13.9412
G01 X42.1649 Y13.9333
G01 X42.2349 Y13.8564
G01 X42.3157 Y13.7830
G01 X42.3280 Y13.7732
G01 X42.4031 Y13.7175
G01 X42.4117 Y13.7114
G01 X42.4205 Y13.7058
G01 X42.5098 Y13.6526
G01 X42.5919 Y13.6135
G01 X42.5919 Y13.5237
G01 X42.5466 Y13.5398
G01 X42.3671 Y13.6389
G01 X42.2540 Y13.7281
G01 X42.2443 Y13.7349
G01 X42.2178 Y13.7521
G01 X42.2087 Y13.7572
G01 X42.1945 Y13.7641
G01 X42.1848 Y13.7681
G01 X42.1748 Y13.7716
G01 X42.1597 Y13.7759
G01 X42.0852 Y13.7923
G01 X42.0748 Y13.7943
G01 X42.0643 Y13.7958
G01 X42.0537 Y13.7968
G01 X42.0431 Y13.7972
G01 X42.0325 Y13.7971
G01 X42.0219 Y13.7965
G01 X42.0114 Y13.7954
G01 X42.0009 Y13.7937
G01 X41.9905 Y13.7916
G01 X41.9803 Y13.7889
G01 X41.9652 Y13.7839
G01 X41.8986 Y13.7592
G01 X41.8839 Y13.7531
G01 X41.8697 Y13.7459
G01 X41.8561 Y13.7377
G01 X41.8431 Y13.7286
G01 X41.8308 Y13.7184
G01 X41.8193 Y13.7074
G01 X41.8122 Y13.6996
G01 X41.8054 Y13.6914
G01 X41.7595 Y13.6305
G01 X41.7502 Y13.6171
G01 X41.7446 Y13.6078
G01 X41.7395 Y13.5982
G01 X41.7339 Y13.5861
G01 X41.6827 Y13.5178
G01 X41.6151 Y13.4671
G01 X41.5325 Y13.4362
G01 X41.5086 Y13.4336
G01 X41.4823 Y13.4333
G01 X41.4621 Y13.4314
G01 X41.4471 Y13.4287
G01 X41.3948 Y13.4173
G01 X41.3793 Y13.4133
G01 X41.3691 Y13.4100
G01 X41.3591 Y13.4062
G01 X41.3494 Y13.4019
G01 X41.3398 Y13.3972
G01 X41.3305 Y13.3919
G01 X41.3215 Y13.3862
G01 X41.3128 Y13.3801
G01 X41.3044 Y13.3735
G01 X41.2466 Y13.3235
G01 X41.2350 Y13.3127
G01 X41.2242 Y13.3010
G01 X41.2175 Y13.2928
G01 X41.2083 Y13.2798
G01 X41.2026 Y13.2708
G01 X41.1975 Y13.2616
G01 X41.1906 Y13.2472
G01 X41.1866 Y13.2374
G01 X41.1831 Y13.2274
G01 X41.1602 Y13.1493
G01 X41.1568 Y13.1344
G01 X41.1544 Y13.1194
G01 X41.1532 Y13.1042
G01 X41.1529 Y13.0940
G01 X41.1529 Y9.6897
G01 X41.1538 Y9.6702
G01 X41.1556 Y9.6557
G01 X41.1620 Y9.6160
G01 X41.1652 Y9.6005
G01 X41.1679 Y9.5902
G01 X41.1711 Y9.5802
G01 X41.1748 Y9.5703
G01 X41.1790 Y9.5606
G01 X41.1862 Y9.5464
G01 X41.1915 Y9.5373
G01 X41.1973 Y9.5284
G01 X41.2408 Y9.4658
G01 X41.2473 Y9.4574
G01 X41.2577 Y9.4454
G01 X41.2652 Y9.4378
G01 X41.2730 Y9.4307
G01 X41.2812 Y9.4239
G01 X41.2897 Y9.4175
G01 X41.2985 Y9.4116
G01 X41.3076 Y9.4061
G01 X41.3169 Y9.4011
G01 X41.3265 Y9.3966
G01 X41.4064 Y9.3635
G01 X41.4259 Y9.3576
G01 X41.4417 Y9.3541
G01 X41.5261 Y9.3225
G01 X41.5937 Y9.2718
G01 X41.6444 Y9.2042
G01 X41.6753 Y9.1217
G01 X41.6779 Y9.0977
G01 X41.6779 Y7.4246
G01 X41.6753 Y7.4006
G01 X41.6444 Y7.3181
G01 X41.5937 Y7.2505
G01 X41.5261 Y7.1998
G01 X41.4435 Y7.1688
G01 X41.3995 Y7.1644
G01 X41.3838 Y7.1618
G01 X41.3684 Y7.1581
G01 X41.3050 Y7.1398
G01 X41.2953 Y7.1362
G01 X41.2857 Y7.1322
G01 X41.2718 Y7.1253
G01 X41.2628 Y7.1202
G01 X41.2541 Y7.1147
G01 X41.2416 Y7.1056
G01 X41.2297 Y7.0956
G01 X41.2222 Y7.0884
G01 X41.1720 Y7.0382
G01 X41.1647 Y7.0305
G01 X41.1578 Y7.0225
G01 X41.1513 Y7.0141
G01 X41.1452 Y7.0054
G01 X41.1369 Y6.9919
G01 X41.1296 Y6.9777
G01 X41.1232 Y6.9627
G01 X40.8881 Y6.7275
G01 X40.8768 Y6.7312
G01 X40.8671 Y6.7339
G01 X40.7910 Y6.7530
G01 X40.7807 Y6.7553
G01 X40.7704 Y6.7571
G01 X40.6823 Y6.7699
G01 X40.5935 Y6.7745
G01 X40.5830 Y6.7747
G01 X40.5725 Y6.7745
G01 X40.4837 Y6.7699
G01 X40.3956 Y6.7571
G01 X40.3853 Y6.7553
G01 X40.3750 Y6.7530
G01 X40.2989 Y6.7339
G01 X40.2888 Y6.7311
G01 X40.2779 Y6.7275
G01 X40.0427 Y6.9627
G01 X40.0293 Y6.9880
G01 X40.0240 Y6.9970
G01 X40.0182 Y7.0058
G01 X40.0088 Y7.0184
G01 X40.0020 Y7.0264
G01 X39.9913 Y7.0375
G01 X39.9706 Y7.0641
G01 X39.9600 Y7.0760
G01 X39.9526 Y7.0835
G01 X39.9447 Y7.0907
G01 X39.9323 Y7.1006
G01 X39.9192 Y7.1096
G01 X39.9100 Y7.1150
G01 X39.9007 Y7.1200
G01 X39.8911 Y7.1245
G01 X39.8763 Y7.1304
G01 X39.8045 Y7.1557
G01 X39.7895 Y7.1600
G01 X39.7743 Y7.1632
G01 X39.7589 Y7.1652
G01 X39.7490 Y7.1660
G01 X39.7225 Y7.1688
G01 X39.6399 Y7.1998
G01 X39.5723 Y7.2505
G01 X39.5216 Y7.3181
G01 X39.4907 Y7.4006
G01 X39.4881 Y7.4246
G01 X39.4881 Y9.0977
G01 X39.4907 Y9.1217
G01 X39.5216 Y9.2042
G01 X39.5723 Y9.2718
G01 X39.6399 Y9.3225
G01 X39.7243 Y9.3541
G01 X39.7437 Y9.3585
G01 X39.7825 Y9.3692
G01 X39.7976 Y9.3739
G01 X39.8075 Y9.3777
G01 X39.8171 Y9.3820
G01 X39.8312 Y9.3893
G01 X39.8447 Y9.3977
G01 X39.8533 Y9.4038
G01 X39.8617 Y9.4103
G01 X39.9194 Y9.4602
G01 X39.9272 Y9.4673
G01 X39.9347 Y9.4749
G01 X39.9452 Y9.4868
G01 X39.9517 Y9.4952
G01 X39.9577 Y9.5039
G01 X39.9634 Y9.5129
G01 X39.9685 Y9.5222
G01 X39.9732 Y9.5317
G01 X39.9775 Y9.5414
G01 X39.9812 Y9.5513
G01 X39.9844 Y9.5614
G01 X40.0058 Y9.6344
G01 X40.0092 Y9.6493
G01 X40.0121 Y9.6694
G01 X40.0131 Y9.6897
G01 X40.0128 Y13.1042
G01 X40.0116 Y13.1194
G01 X40.0092 Y13.1344
G01 X39.9943 Y13.2021
G01 X39.9913 Y13.2123
G01 X39.9857 Y13.2274
G01 X39.9814 Y13.2371
G01 X39.9741 Y13.2514
G01 X39.9657 Y13.2650
G01 X39.9596 Y13.2737
G01 X39.9530 Y13.2821
G01 X39.8995 Y13.3438
G01 X39.8884 Y13.3552
G01 X39.8764 Y13.3657
G01 X39.8680 Y13.3722
G01 X39.8549 Y13.3811
G01 X39.8457 Y13.3865
G01 X39.8316 Y13.3937
G01 X39.8218 Y13.3980
G01 X39.8119 Y13.4017
G01 X39.7337 Y13.4249
G01 X39.7239 Y13.4276
G01 X39.7089 Y13.4306
G01 X39.6938 Y13.4326
G01 X39.6786 Y13.4335
G01 X39.5304 Y13.4336
G01 X39.5065 Y13.4362
G01 X39.4239 Y13.4671
G01 X39.3563 Y13.5178
G01 X39.3056 Y13.5854
G01 X39.2747 Y13.6680
G01 X39.2721 Y13.6919
G01 X39.2721 Y13.8190
G01 X39.2715 Y13.8342
G01 X39.2706 Y13.8444
G01 X39.2672 Y13.8644
G01 X39.2546 Y13.9219
G01 X39.2518 Y13.9322
G01 X39.2485 Y13.9424
G01 X39.2426 Y13.9573
G01 X39.2381 Y13.9669
G01 X39.2331 Y13.9764
G01 X39.2247 Y13.9900
G01 X39.2186 Y13.9987
G01 X39.2085 Y14.0112
G01 X39.1585 Y14.0688
G01 X39.1512 Y14.0765
G01 X39.1435 Y14.0838
G01 X39.1313 Y14.0940
G01 X39.1227 Y14.1003
G01 X39.1139 Y14.1061
G01 X39.1001 Y14.1140
G01 X39.0857 Y14.1209
G01 X39.0759 Y14.1249
G01 X39.0659 Y14.1284
G01 X38.9878 Y14.1513
G01 X38.9729 Y14.1547
G01 X38.9629 Y14.1564
G01 X38.9477 Y14.1580
G01 X38.9325 Y14.1586
G01 X34.3844 Y14.1586
G01 X34.3728 Y14.1583
G01 X34.2306 Y14.1588
G01 X34.2079 Y14.1639
G01 X34.1901 Y14.1672
G01 X34.1616 Y14.1711
G01 X34.1414 Y14.1780
G01 X34.1204 Y14.1841
G01 X34.1060 Y14.1875
G01 X34.0850 Y14.1976
G01 X34.0683 Y14.2047
G01 X34.0415 Y14.2148
G01 X34.0233 Y14.2260
G01 X34.0055 Y14.2360
G01 X33.9909 Y14.2432
G01 X33.9683 Y14.2609
G01 X33.9535 Y14.2714
G01 X33.9340 Y14.2840
G01 X33.8878 Y14.3312
G01 X33.7743 Y14.4446
G01 X33.7614 Y14.4559
G01 X33.7363 Y14.4760
G01 X33.7278 Y14.4822
G01 X33.7146 Y14.4907
G01 X33.7054 Y14.4958
G01 X33.6912 Y14.5025
G01 X33.6766 Y14.5082
G01 X33.5984 Y14.5314
G01 X33.5886 Y14.5341
G01 X33.5737 Y14.5371
G01 X33.5586 Y14.5391
G01 X33.5383 Y14.5401
G01 X31.9534 Y14.5401
G01 X31.9295 Y14.5427
G01 X31.8469 Y14.5736
G01 X31.7793 Y14.6243
G01 X31.7286 Y14.6919
G01 X31.6977 Y14.7745
G01 X31.6951 Y14.7984
G01 X31.6951 Y15.0255
G01 X31.6941 Y15.0458
G01 X31.6929 Y15.0559
G01 X31.6902 Y15.0709
G01 X31.6788 Y15.1232
G01 X31.6748 Y15.1387
G01 X31.6697 Y15.1539
G01 X31.6656 Y15.1638
G01 X31.6611 Y15.1734
G01 X31.6534 Y15.1875
G01 X31.6447 Y15.2009
G01 X31.6350 Y15.2136
G01 X31.5815 Y15.2753
G01 X31.5742 Y15.2830
G01 X31.5625 Y15.2938
G01 X31.5500 Y15.3037
G01 X31.5369 Y15.3126
G01 X31.5277 Y15.3180
G01 X31.5136 Y15.3252
G01 X31.4989 Y15.3314
G01 X31.4889 Y15.3349
G01 X31.4108 Y15.3578
G01 X31.3959 Y15.3612
G01 X31.3758 Y15.3641
G01 X31.3555 Y15.3651
G01 X28.1614 Y15.3651
G01 X28.1498 Y15.3648
G01 X28.0594 Y15.3651
G01 X26.4182 Y15.3651
G01 X26.4011 Y15.3644
G01 X26.3634 Y15.3604
G01 X26.3479 Y15.3577
G01 X26.3326 Y15.3540
G01 X26.3226 Y15.3508
G01 X26.3128 Y15.3472
G01 X26.3031 Y15.3431
G01 X26.2937 Y15.3385
G01 X26.2223 Y15.2996
G01 X26.2094 Y15.2915
G01 X26.1971 Y15.2825
G01 X26.1855 Y15.2726
G01 X26.1781 Y15.2656
G01 X26.0124 Y15.0999
G01 X26.0007 Y15.0873
G01 X25.9770 Y15.0578
G01 X25.9679 Y15.0450
G01 X25.9623 Y15.0361
G01 X25.9572 Y15.0269
G01 X25.9526 Y15.0175
G01 X25.9484 Y15.0079
G01 X25.9448 Y14.9981
G01 X25.9416 Y14.9881
G01 X25.9189 Y14.9101
G01 X25.9151 Y14.8902
G01 X25.9139 Y14.8801
G01 X25.9130 Y14.8649
G01 X25.9129 Y3.6404
G01 X25.9132 Y3.6288
G01 X25.9127 Y3.4866
G01 X25.9076 Y3.4639
G01 X25.9043 Y3.4461
G01 X25.9004 Y3.4176
G01 X25.8955 Y3.4037
G01 X25.8892 Y3.3827
G01 X25.8840 Y3.3620
G01 X25.8739 Y3.3410
G01 X25.8668 Y3.3243
G01 X25.8567 Y3.2975
G01 X25.8455 Y3.2793
G01 X25.8349 Y3.2602
G01 X25.8283 Y3.2469
G01 X25.8106 Y3.2243
G01 X25.8001 Y3.2095
G01 X25.7875 Y3.1900
G01 X25.7396 Y3.1431
G01 X25.4906 Y2.8942
G01 X25.4827 Y2.8858
G01 X25.3817 Y2.7855
G01 X25.3576 Y2.7701
G01 X25.3427 Y2.7597
G01 X25.3243 Y2.7455
G01 X25.3109 Y2.7391
G01 X25.2916 Y2.7287
G01 X25.2733 Y2.7178
G01 X25.2463 Y2.7081
G01 X25.2296 Y2.7012
G01 X25.2084 Y2.6914
G01 X25.1877 Y2.6865
G01 X25.1666 Y2.6805
G01 X25.1526 Y2.6757
G01 X25.1241 Y2.6723
G01 X25.1062 Y2.6693
G01 X25.0835 Y2.6644
G01 X25.0165 Y2.6651
G01 X5.8094 Y2.6651
G01 X5.7978 Y2.6648
G01 X5.6556 Y2.6653
G01 X5.6276 Y2.6715
G01 X5.6097 Y2.6746
G01 X5.5866 Y2.6776
G01 X5.5727 Y2.6825
G01 X5.5517 Y2.6888
G01 X5.5310 Y2.6940
G01 X5.5100 Y2.7041
G01 X5.4933 Y2.7112
G01 X5.4665 Y2.7213
G01 X5.4483 Y2.7325
G01 X5.4305 Y2.7425
G01 X5.4159 Y2.7497
G01 X5.3933 Y2.7674
G01 X5.3785 Y2.7779
G01 X5.3590 Y2.7905
G01 X5.3122 Y2.8384
G01 X3.9837 Y4.1669
G01 X3.9753 Y4.1748
G01 X3.8750 Y4.2758
G01 X3.8596 Y4.2999
G01 X3.8492 Y4.3148
G01 X3.8350 Y4.3332
G01 X3.8286 Y4.3466
G01 X3.8182 Y4.3659
G01 X3.8073 Y4.3842
G01 X3.7976 Y4.4112
G01 X3.7907 Y4.4279
G01 X3.7809 Y4.4491
G01 X3.7760 Y4.4698
G01 X3.7700 Y4.4909
G01 X3.7652 Y4.5049
G01 X3.7618 Y4.5334
G01 X3.7588 Y4.5513
G01 X3.7539 Y4.5740
G01 X3.7546 Y4.6410
G01 X3.7546 Y68.5521
G01 X3.7543 Y68.5637
G01 X3.7548 Y68.7059
G01 X3.7610 Y68.7339
G01 X3.7641 Y68.7518
G01 X3.7671 Y68.7749
G01 X3.7720 Y68.7888
G01 X3.7783 Y68.8098
G01 X3.7835 Y68.8305
G01 X3.7936 Y68.8515
G01 X3.8007 Y68.8682
G01 X3.8108 Y68.8950
G01 X3.8220 Y68.9132
G01 X3.8326 Y68.9323
G01 X3.8392 Y68.9456
G01 X3.8569 Y68.9682
G01 X3.8673 Y68.9829
G01 X3.8800 Y69.0025
G01 X3.9279 Y69.0494
G01 X10.3364 Y75.4578
G01 X10.3443 Y75.4662
G01 X10.4453 Y75.5665
G01 X10.4694 Y75.5819
G01 X10.4843 Y75.5923
G01 X10.5027 Y75.6065
G01 X10.5161 Y75.6129
G01 X10.5354 Y75.6233
G01 X10.5537 Y75.6342
G01 X10.5807 Y75.6439
G01 X10.5974 Y75.6508
G01 X10.6186 Y75.6606
G01 X10.6393 Y75.6655
G01 X10.6604 Y75.6715
G01 X10.6744 Y75.6763
G01 X10.7029 Y75.6797
G01 X10.7208 Y75.6827
G01 X10.7435 Y75.6876
G01 X10.8105 Y75.6869
G01 X29.4906 Y75.6869
G01 X29.5055 Y75.6874
G01 X29.5203 Y75.6890
G01 X29.5655 Y75.6964
G01 X29.5812 Y75.6995
G01 X29.5965 Y75.7039
G01 X29.6115 Y75.7093
G01 X29.6261 Y75.7159
G01 X29.6401 Y75.7236
G01 X29.6535 Y75.7322
G01 X29.7158 Y75.7759
G01 X29.7277 Y75.7854
G01 X29.7389 Y75.7957
G01 X29.7494 Y75.8068
G01 X29.7616 Y75.8218
G01 X29.7753 Y75.8408
G01 X29.7880 Y75.8605
G01 X29.8359 Y75.9074
G01 X31.5316 Y77.6031
G01 X31.5395 Y77.6114
G01 X31.5469 Y77.6201
G01 X31.5670 Y77.6452
G01 X31.5761 Y77.6580
G01 X31.5843 Y77.6715
G01 X31.5914 Y77.6855
G01 X31.5956 Y77.6951
G01 X31.6009 Y77.7099
G01 X31.6251 Y77.7929
G01 X31.6289 Y77.8128
G01 X31.6308 Y77.8331
G01 X31.6311 Y79.4106
G01 X31.6308 Y79.4222
G01 X31.6313 Y79.5644
G01 X31.6375 Y79.5924
G01 X31.6406 Y79.6103
G01 X31.6436 Y79.6334
G01 X31.6485 Y79.6473
G01 X31.6548 Y79.6683
G01 X31.6600 Y79.6890
G01 X31.6701 Y79.7100
G01 X31.6772 Y79.7267
G01 X31.6873 Y79.7535
G01 X31.6985 Y79.7717
G01 X31.7091 Y79.7908
G01 X31.7157 Y79.8041
G01 X31.7334 Y79.8267
G01 X31.7438 Y79.8414
G01 X31.7565 Y79.8610
G01 X31.8044 Y79.9079
G01 X32.4979 Y80.6013
G01 X32.5058 Y80.6097
G01 X32.6068 Y80.7100
G01 X32.6309 Y80.7254
G01 X32.6458 Y80.7358
G01 X32.6642 Y80.7500
G01 X32.6834 Y80.7594
G01 X32.7026 Y80.7700
G01 X32.7152 Y80.7777
G01 X32.7371 Y80.7854
G01 X32.7540 Y80.7922
G01 X32.7801 Y80.8041
G01 X32.8008 Y80.8090
G01 X32.8219 Y80.8150
G01 X32.8359 Y80.8198
G01 X32.8644 Y80.8232
G01 X32.8823 Y80.8262
G01 X32.9050 Y80.8311
G01 X32.9720 Y80.8304
G01 X35.9231 Y80.8304
G01 X35.9347 Y80.8307
G01 X36.0769 Y80.8302
G01 X36.1049 Y80.8240
G01 X36.1228 Y80.8209
G01 X36.1459 Y80.8179
G01 X36.1598 Y80.8130
G01 X36.1808 Y80.8067
G01 X36.2015 Y80.8015
G01 X36.2225 Y80.7914
G01 X36.2392 Y80.7843
G01 X36.2660 Y80.7742
G01 X36.2842 Y80.7630
G01 X36.3033 Y80.7524
G01 X36.3166 Y80.7458
G01 X36.3392 Y80.7281
G01 X36.3539 Y80.7177
G01 X36.3735 Y80.7050
G01 X36.4204 Y80.6571
G01 X37.3503 Y79.7271
G01 X37.3587 Y79.7192
G01 X37.4590 Y79.6182
G01 X37.4744 Y79.5941
G01 X37.4848 Y79.5792
G01 X37.4990 Y79.5608
G01 X37.5054 Y79.5474
G01 X37.5158 Y79.5281
G01 X37.5267 Y79.5098
G01 X37.5364 Y79.4828
G01 X37.5433 Y79.4661
G01 X37.5531 Y79.4449
G01 X37.5580 Y79.4242
G01 X37.5640 Y79.4031
G01 X37.5688 Y79.3891
G01 X37.5722 Y79.3606
G01 X37.5752 Y79.3427
G01 X37.5801 Y79.3200
G01 X37.5794 Y79.2530
G01 X37.5795 Y78.5662
G01 X37.5804 Y78.5506
G01 X37.5825 Y78.5352
G01 X37.5928 Y78.4823
G01 X37.5965 Y78.4667
G01 X37.5996 Y78.4564
G01 X37.6033 Y78.4463
G01 X37.6074 Y78.4364
G01 X37.6120 Y78.4268
G01 X37.6198 Y78.4127
G01 X37.6256 Y78.4037
G01 X37.6352 Y78.3907
G01 X37.6838 Y78.3298
G01 X37.6994 Y78.3135
G01 X37.7145 Y78.3004
G01 X37.8515 Y78.1635
G01 X37.8879 Y78.1120
G01 X37.9153 Y78.0800
G01 X37.9261 Y78.0689
G01 X37.9377 Y78.0586
G01 X37.9501 Y78.0493
G01 X37.9631 Y78.0408
G01 X37.9766 Y78.0333
G01 X38.0499 Y77.9965
G01 X38.0646 Y77.9906
G01 X38.0747 Y77.9873
G01 X38.0849 Y77.9845
G01 X38.0953 Y77.9821
G01 X38.1057 Y77.9804
G01 X38.1215 Y77.9786
G01 X38.1321 Y77.9782
G01 X38.1428 Y77.9782
G01 X38.1586 Y77.9792
G01 X38.2398 Y77.9879
G01 X38.2502 Y77.9898
G01 X38.2605 Y77.9922
G01 X38.2707 Y77.9951
G01 X38.2808 Y77.9985
G01 X38.2955 Y78.0045
G01 X38.3051 Y78.0091
G01 X38.3144 Y78.0142
G01 X38.3234 Y78.0198
G01 X38.3322 Y78.0257
G01 X38.3406 Y78.0322
G01 X38.3961 Y78.0765
G01 X38.4076 Y78.0864
G01 X38.4149 Y78.0935
G01 X38.4252 Y78.1047
G01 X38.4347 Y78.1167
G01 X38.4675 Y78.1635
G01 X38.6030 Y78.2990
G01 X38.7600 Y78.4088
G01 X38.9336 Y78.4898
G01 X39.1186 Y78.5394
G01 X39.3095 Y78.5561
G01 X39.5004 Y78.5394
G01 X39.6854 Y78.4898
G01 X39.8590 Y78.4088
G01 X40.0160 Y78.2990
G01 X40.1529 Y78.1620
G01 X40.1618 Y78.1514
G01 X40.1689 Y78.1439
G01 X40.2115 Y78.1030
G01 X40.2272 Y78.0899
G01 X40.2398 Y78.0811
G01 X40.2530 Y78.0732
G01 X40.2621 Y78.0685
G01 X40.2762 Y78.0623
G01 X40.2956 Y78.0556
G01 X40.3686 Y78.0342
G01 X40.3834 Y78.0308
G01 X40.3985 Y78.0284
G01 X40.4137 Y78.0272
G01 X40.4239 Y78.0269
G01 X41.1013 Y78.0269
G01 X41.1113 Y78.0271
G01 X41.1262 Y78.0284
G01 X41.1764 Y78.0364
G01 X41.1869 Y78.0384
G01 X41.1972 Y78.0409
G01 X41.2074 Y78.0439
G01 X41.2175 Y78.0474
G01 X41.2273 Y78.0515
G01 X41.2370 Y78.0560
G01 X41.2464 Y78.0610
G01 X41.2555 Y78.0664
G01 X41.3225 Y78.1131
G01 X41.3352 Y78.1227
G01 X41.3432 Y78.1296
G01 X41.3509 Y78.1370
G01 X41.3617 Y78.1486
G01 X41.3685 Y78.1568
G01 X41.3748 Y78.1654
G01 X41.3806 Y78.1742
G01 X41.3861 Y78.1833
G01 X41.3933 Y78.1975
G01 X41.4244 Y78.2729
G01 X41.4297 Y78.2872
G01 X41.4351 Y78.3068
G01 X41.4379 Y78.3218
G01 X41.4453 Y78.3918
G01 X41.4858 Y78.5139
G01 X41.5525 Y78.6220
G01 X41.6422 Y78.7120
G01 X41.7503 Y78.7788
G01 X41.8722 Y78.8195
G01 X41.9437 Y78.8269
G01 X42.6475 Y78.8269
G01 X42.7178 Y78.8197
G01 X42.8399 Y78.7792
G01 X42.9480 Y78.7126
G01 X43.0380 Y78.6228
G01 X43.1048 Y78.5147
G01 X43.1455 Y78.3928
G01 X43.1529 Y78.3214
G01 X43.1529 Y76.9925
G01 X43.1457 Y76.9222
G01 X43.1052 Y76.8001
G01 X43.0385 Y76.6920
G01 X42.9488 Y76.6020
G01 X42.8407 Y76.5352
G01 X42.7188 Y76.4945
G01 X42.6473 Y76.4871
G01 X41.9435 Y76.4871
G01 X41.8732 Y76.4943
G01 X41.7511 Y76.5348
G01 X41.6430 Y76.6015
G01 X41.5530 Y76.6912
G01 X41.5286 Y76.7307
G01 X41.5194 Y76.7436
G01 X41.5128 Y76.7518
G01 X41.5021 Y76.7635
G01 X41.4631 Y76.8032
G01 X41.4556 Y76.8104
G01 X41.4439 Y76.8205
G01 X41.4314 Y76.8297
G01 X41.4183 Y76.8380
G01 X41.4046 Y76.8454
G01 X41.3905 Y76.8517
G01 X41.3808 Y76.8553
G01 X41.3709 Y76.8584
G01 X41.2979 Y76.8798
G01 X41.2831 Y76.8832
G01 X41.2680 Y76.8856
G01 X41.2528 Y76.8868
G01 X41.2426 Y76.8871
G01 X40.4239 Y76.8871
G01 X40.4135 Y76.8868
G01 X40.3980 Y76.8855
G01 X40.3826 Y76.8831
G01 X40.3296 Y76.8726
G01 X40.3192 Y76.8700
G01 X40.3039 Y76.8651
G01 X40.2889 Y76.8591
G01 X40.2793 Y76.8545
G01 X40.2698 Y76.8494
G01 X40.2562 Y76.8409
G01 X40.2432 Y76.8313
G01 X40.1895 Y76.7887
G01 X40.1788 Y76.7795
G01 X40.1660 Y76.7671
G01 X40.1529 Y76.7520
G01 X40.1301 Y76.7291
G01 X40.1197 Y76.7180
G01 X40.1132 Y76.7101
G01 X40.1042 Y76.6978
G01 X40.0725 Y76.6485
G01 X40.0643 Y76.6347
G01 X40.0572 Y76.6204
G01 X40.0512 Y76.6055
G01 X40.0464 Y76.5903
G01 X40.0427 Y76.5747
G01 X40.0401 Y76.5589
G01 X40.0391 Y76.5483
G01 X40.0335 Y76.4669
G01 X40.0336 Y76.4563
G01 X40.0341 Y76.4457
G01 X40.0360 Y76.4299
G01 X40.0390 Y76.4142
G01 X40.0431 Y76.3989
G01 X40.0484 Y76.3839
G01 X40.0548 Y76.3693
G01 X40.0961 Y76.2931
G01 X40.1042 Y76.2802
G01 X40.1132 Y76.2679
G01 X40.1197 Y76.2601
G01 X40.1301 Y76.2489
G01 X42.6246 Y73.7544
G01 X42.6329 Y73.7465
G01 X42.6416 Y73.7391
G01 X42.6667 Y73.7190
G01 X42.6752 Y73.7128
G01 X42.6884 Y73.7043
G01 X42.6976 Y73.6992
G01 X42.7070 Y73.6946
G01 X42.7215 Y73.6885
G01 X42.7364 Y73.6836
G01 X42.8144 Y73.6609
G01 X42.8243 Y73.6588
G01 X42.8394 Y73.6564
G01 X42.8546 Y73.6552
G01 X42.8647 Y73.6549
G01 X46.7208 Y73.6550
G01 X46.7413 Y73.6559
G01 X46.7616 Y73.6588
G01 X46.8246 Y73.6724
G01 X46.8401 Y73.6768
G01 X46.8502 Y73.6803
G01 X46.8650 Y73.6866
G01 X46.8792 Y73.6940
G01 X46.8929 Y73.7024
G01 X46.9059 Y73.7118
G01 X46.9718 Y73.7686
G01 X46.9795 Y73.7759
G01 X46.9868 Y73.7836
G01 X46.9970 Y73.7959
G01 X47.0062 Y73.8088
G01 X47.0145 Y73.8224
G01 X47.0217 Y73.8366
G01 X47.0279 Y73.8512
G01 X47.0329 Y73.8663
G01 X47.0529 Y73.9344
G01 X47.0567 Y73.9492
G01 X47.0601 Y73.9693
G01 X47.0613 Y73.9845
G01 X47.0616 Y73.9946
G01 X47.0616 Y74.5846
G01 X47.0613 Y74.5962
G01 X47.0618 Y74.7384
G01 X47.0680 Y74.7664
G01 X47.0711 Y74.7843
G01 X47.0741 Y74.8074
G01 X47.0790 Y74.8213
G01 X47.0853 Y74.8423
G01 X47.0905 Y74.8630
G01 X47.1006 Y74.8840
G01 X47.1077 Y74.9007
G01 X47.1178 Y74.9275
G01 X47.1290 Y74.9457
G01 X47.1390 Y74.9635
G01 X47.1462 Y74.9781
G01 X47.1639 Y75.0007
G01 X47.1744 Y75.0155
G01 X47.1870 Y75.0350
G01 X47.2349 Y75.0819
G01 X48.1735 Y76.0205
G01 X48.1802 Y76.0275
G01 X48.1896 Y76.0385
G01 X48.2133 Y76.0696
G01 X48.2224 Y76.0825
G01 X48.2279 Y76.0916
G01 X48.2354 Y76.1056
G01 X48.2418 Y76.1201
G01 X48.2471 Y76.1351
G01 X48.2512 Y76.1504
G01 X48.2673 Y76.2196
G01 X48.2709 Y76.2396
G01 X48.2726 Y76.2599
G01 X48.2727 Y76.2751
G01 X48.2610 Y76.4786
G01 X48.2810 Y76.6658
G01 X48.3313 Y76.8472
G01 X48.4106 Y77.0180
G01 X48.5167 Y77.1735
G01 X48.6468 Y77.3096
G01 X48.7973 Y77.4226
G01 X48.9643 Y77.5096
G01 X49.1433 Y77.5681
G01 X49.3294 Y77.5965
G01 X49.5176 Y77.5942
G01 X49.7030 Y77.5612
G01 X49.8804 Y77.4984
G01 X50.0453 Y77.4074
G01 X50.1930 Y77.2907
G01 X50.2387 Y77.2406
G01 X50.2495 Y77.2300
G01 X50.2572 Y77.2234
G01 X50.3023 Y77.1881
G01 X50.3112 Y77.1821
G01 X50.3251 Y77.1740
G01 X50.3395 Y77.1670
G01 X50.3494 Y77.1629
G01 X50.3595 Y77.1593
G01 X50.3697 Y77.1563
G01 X50.3801 Y77.1537
G01 X50.4599 Y77.1365
G01 X50.4704 Y77.1350
G01 X50.4809 Y77.1340
G01 X50.4915 Y77.1336
G01 X50.5022 Y77.1337
G01 X50.5127 Y77.1343
G01 X50.5233 Y77.1354
G01 X50.5390 Y77.1381
G01 X50.5544 Y77.1419
G01 X50.5695 Y77.1469
G01 X50.6361 Y77.1716
G01 X50.6459 Y77.1755
G01 X50.6556 Y77.1799
G01 X50.6650 Y77.1848
G01 X50.6741 Y77.1902
G01 X50.6874 Y77.1991
G01 X50.6958 Y77.2055
G01 X50.7039 Y77.2124
G01 X50.7116 Y77.2196
G01 X50.7190 Y77.2272
G01 X50.7260 Y77.2352
G01 X50.7325 Y77.2435
G01 X50.7752 Y77.3003
G01 X50.7815 Y77.3091
G01 X50.7873 Y77.3183
G01 X50.7952 Y77.3326
G01 X50.8020 Y77.3474
G01 X50.8381 Y77.4436
G01 X50.8888 Y77.5112
G01 X50.9564 Y77.5619
G01 X51.0390 Y77.5928
G01 X51.0796 Y77.5973
G01 X51.0900 Y77.5989
G01 X51.1002 Y77.6011
G01 X51.1185 Y77.6062
G01 X51.1485 Y77.6137
G01 X51.1587 Y77.6167
G01 X51.1736 Y77.6223
G01 X51.1881 Y77.6289
G01 X51.1975 Y77.6339
G01 X51.2066 Y77.6393
G01 X51.2155 Y77.6452
G01 X51.2240 Y77.6516
G01 X51.2898 Y77.7084
G01 X51.2975 Y77.7157
G01 X51.3048 Y77.7234
G01 X51.3150 Y77.7356
G01 X51.3213 Y77.7442
G01 X51.3271 Y77.7530
G01 X51.3325 Y77.7622
G01 X51.3374 Y77.7715
G01 X51.3440 Y77.7861
G01 X51.3494 Y77.8010
G01 X51.3723 Y77.8791
G01 X51.3747 Y77.8890
G01 X51.3774 Y77.9040
G01 X51.3790 Y77.9191
G01 X51.3795 Y77.9293
G01 X51.3796 Y78.3598
G01 X51.3793 Y78.3712
G01 X51.3784 Y78.3826
G01 X51.3749 Y78.4146
G01 X51.3722 Y78.4301
G01 X51.3685 Y78.4454
G01 X51.3653 Y78.4554
G01 X51.3617 Y78.4652
G01 X51.3576 Y78.4749
G01 X51.3506 Y78.4889
G01 X51.3141 Y78.5557
G01 X51.3031 Y78.5728
G01 X51.2905 Y78.5887
G01 X51.2801 Y78.5999
G01 X49.7772 Y80.1029
G01 X49.7688 Y80.1108
G01 X49.6685 Y80.2118
G01 X49.6531 Y80.2359
G01 X49.6427 Y80.2508
G01 X49.6285 Y80.2692
G01 X49.6221 Y80.2826
G01 X49.6117 Y80.3019
G01 X49.6008 Y80.3202
G01 X49.5911 Y80.3472
G01 X49.5842 Y80.3639
G01 X49.5744 Y80.3851
G01 X49.5695 Y80.4058
G01 X49.5635 Y80.4269
G01 X49.5587 Y80.4409
G01 X49.5553 Y80.4694
G01 X49.5523 Y80.4873
G01 X49.5474 Y80.5100
G01 X49.5481 Y80.5770
G01 X49.5481 Y81.3499
G01 X49.5474 Y81.3671
G01 X49.5434 Y81.4048
G01 X49.5407 Y81.4203
G01 X49.5383 Y81.4305
G01 X49.5355 Y81.4406
G01 X49.5302 Y81.4554
G01 X49.5261 Y81.4650
G01 X49.5215 Y81.4745
G01 X49.4826 Y81.5458
G01 X49.4716 Y81.5629
G01 X49.4623 Y81.5750
G01 X49.4522 Y81.5864
G01 X49.3376 Y81.7011
G01 X49.2357 Y81.8466
G01 X49.1607 Y82.0076
G01 X49.1147 Y82.1791
G01 X49.0992 Y82.3560
G01 X49.1147 Y82.5329
G01 X49.1607 Y82.7044
G01 X49.2357 Y82.8654
G01 X49.3376 Y83.0109
G01 X49.4631 Y83.1364
G01 X49.6086 Y83.2383
G01 X49.7696 Y83.3133
G01 X49.9411 Y83.3593
G01 X50.1180 Y83.3748
G01 X50.2949 Y83.3593
G01 X50.4664 Y83.3133
G01 X50.6274 Y83.2383
G01 X50.7729 Y83.1364
G01 X50.8984 Y83.0109
G01 X51.0003 Y82.8654
G01 X51.0802 Y82.6940
G01 X51.0876 Y82.6796
G01 X51.0961 Y82.6658
G01 X51.1023 Y82.6570
G01 X51.1089 Y82.6485
G01 X51.1647 Y82.5844
G01 X51.1759 Y82.5735
G01 X51.1879 Y82.5634
G01 X51.2007 Y82.5543
G01 X51.2095 Y82.5487
G01 X51.2186 Y82.5435
G01 X51.2280 Y82.5388
G01 X51.2375 Y82.5346
G01 X51.2473 Y82.5309
G01 X51.3303 Y82.5056
G01 X51.3458 Y82.5019
G01 X51.3615 Y82.4994
G01 X51.3721 Y82.4984
G01 X51.3827 Y82.4980
G01 X51.3986 Y82.4982
G01 X51.4091 Y82.4991
G01 X51.4197 Y82.5004
G01 X51.4301 Y82.5023
G01 X51.4404 Y82.5047
G01 X51.5138 Y82.5256
G01 X51.5290 Y82.5305
G01 X51.5388 Y82.5344
G01 X51.5485 Y82.5388
G01 X51.5625 Y82.5462
G01 X51.5760 Y82.5547
G01 X51.5846 Y82.5609
G01 X51.5929 Y82.5676
G01 X51.6046 Y82.5783
G01 X51.6156 Y82.5898
G01 X51.6659 Y82.6470
G01 X51.6754 Y82.6593
G01 X51.6813 Y82.6679
G01 X51.6867 Y82.6767
G01 X51.6941 Y82.6904
G01 X51.7757 Y82.8654
G01 X51.8776 Y83.0109
G01 X51.9886 Y83.1219
G01 X51.9965 Y83.1302
G01 X52.0039 Y83.1389
G01 X52.0272 Y83.1682
G01 X52.0331 Y83.1769
G01 X52.0387 Y83.1858
G01 X52.0438 Y83.1949
G01 X52.0484 Y83.2043
G01 X52.0545 Y83.2188
G01 X52.0579 Y83.2287
G01 X52.0821 Y83.3117
G01 X52.0859 Y83.3317
G01 X52.0875 Y83.3468
G01 X52.0880 Y83.3570
G01 X52.0881 Y84.0561
G01 X52.0878 Y84.0677
G01 X52.0883 Y84.2099
G01 X52.0945 Y84.2379
G01 X52.0976 Y84.2558
G01 X52.1006 Y84.2789
G01 X52.1055 Y84.2928
G01 X52.1118 Y84.3138
G01 X52.1170 Y84.3345
G01 X52.1271 Y84.3555
G01 X52.1342 Y84.3722
G01 X52.1443 Y84.3990
G01 X52.1555 Y84.4172
G01 X52.1661 Y84.4363
G01 X52.1727 Y84.4496
G01 X52.1904 Y84.4722
G01 X52.2008 Y84.4869
G01 X52.2135 Y84.5065
G01 X52.2614 Y84.5534
G01 X56.5009 Y88.7928
G01 X56.5088 Y88.8012
G01 X56.6240 Y88.9158
G01 X56.6375 Y88.9307
G01 X56.6474 Y88.9434
G01 X56.6563 Y88.9567
G01 X56.6642 Y88.9708
G01 X56.6981 Y89.0443
G01 X56.7023 Y89.0541
G01 X56.7076 Y89.0691
G01 X56.7105 Y89.0793
G01 X56.7129 Y89.0896
G01 X56.7156 Y89.1053
G01 X56.7171 Y89.1211
G01 X56.7174 Y89.1317
G01 X56.7169 Y89.1476
G01 X56.7152 Y89.1635
G01 X56.7051 Y89.2337
G01 X56.7023 Y89.2494
G01 X56.6997 Y89.2597
G01 X56.6950 Y89.2749
G01 X56.6912 Y89.2848
G01 X56.6869 Y89.2945
G01 X56.6821 Y89.3040
G01 X56.6769 Y89.3132
G01 X56.6712 Y89.3221
G01 X56.6651 Y89.3308
G01 X56.6551 Y89.3432
G01 X56.6051 Y89.4008
G01 X56.5978 Y89.4085
G01 X56.5901 Y89.4158
G01 X56.5820 Y89.4227
G01 X56.5736 Y89.4292
G01 X56.5605 Y89.4381
G01 X56.5513 Y89.4435
G01 X56.5419 Y89.4484
G01 X56.5274 Y89.4550
G01 X56.5125 Y89.4604
G01 X56.4393 Y89.4819
G01 X56.4245 Y89.4857
G01 X56.4145 Y89.4876
G01 X56.3994 Y89.4896
G01 X56.3791 Y89.4906
G01 X1.4030 Y89.4906
G01 X1.3878 Y89.4900
G01 X1.3676 Y89.4876
G01 X1.3053 Y89.4743
G01 X1.2898 Y89.4703
G01 X1.2796 Y89.4670
G01 X1.2696 Y89.4632
G01 X1.2599 Y89.4589
G01 X1.2503 Y89.4542
G01 X1.2410 Y89.4489
G01 X1.2276 Y89.4402
G01 X1.2190 Y89.4338
G01 X1.2108 Y89.4270
G01 X1.1493 Y89.3734
G01 X1.1418 Y89.3659
G01 X1.1313 Y89.3539
G01 X1.1248 Y89.3455
G01 X1.1188 Y89.3368
G01 X1.1131 Y89.3278
G01 X1.1056 Y89.3138
G01 X1.1011 Y89.3042
G01 X1.0971 Y89.2944
G01 X1.0921 Y89.2793
G01 X1.0694 Y89.2014
G01 X1.0664 Y89.1864
G01 X1.0649 Y89.1764
G01 X1.0637 Y89.1612
G01 X1.0634 Y89.1510
G01 X1.0634 Y1.0120
G01 X1.0644 Y0.9917
G01 X1.0673 Y0.9716
G01 X1.0809 Y0.9091
G01 X1.0852 Y0.8937
G01 X1.0888 Y0.8836
G01 X1.0929 Y0.8737
G01 X1.0974 Y0.8641
G01 X1.1024 Y0.8546
G01 X1.1079 Y0.8455
G01 X1.1138 Y0.8366
G01 X1.1202 Y0.8280
G01 X1.1270 Y0.8198
G00 Z2.0000
G00 X1.2263 Y0.9059
G01 F60.00
G01 Z-0.1200
G01 F120.00
G01 X1.2755 Y0.8492
G01 X1.2846 Y0.8410
G01 X1.2931 Y0.8353
G01 X1.3003 Y0.8315
G01 X1.3098 Y0.8278
G01 X1.3799 Y0.8072
G01 X1.3913 Y0.8047
G01 X1.4030 Y0.8039
G01 X92.1455 Y0.8039
G01 X92.1533 Y0.8042
G01 X92.1610 Y0.8053
G01 X92.2153 Y0.8171
G01 X92.2252 Y0.8199
G01 X92.2346 Y0.8239
G01 X92.2435 Y0.8291
G01 X92.2501 Y0.8340
G01 X92.3083 Y0.8845
G01 X92.3139 Y0.8905
G01 X92.3201 Y0.8986
G01 X92.3251 Y0.9074
G01 X92.3291 Y0.9168
G01 X92.3509 Y0.9907
G01 X92.3528 Y1.0003
G01 X92.3536 Y1.0120
G01 X92.3536 Y89.1510
G01 X92.3533 Y89.1588
G01 X92.3522 Y89.1665
G01 X92.3404 Y89.2208
G01 X92.3376 Y89.2307
G01 X92.3336 Y89.2401
G01 X92.3295 Y89.2473
G01 X92.3235 Y89.2556
G01 X92.2730 Y89.3138
G01 X92.2655 Y89.3207
G01 X92.2589 Y89.3256
G01 X92.2501 Y89.3306
G01 X92.2407 Y89.3346
G01 X92.1668 Y89.3564
G01 X92.1572 Y89.3583
G01 X92.1455 Y89.3591
G01 X85.4285 Y89.3591
G01 X85.4129 Y89.3582
G01 X85.4050 Y89.3568
G01 X85.3992 Y89.3553
G01 X85.3268 Y89.3292
G01 X85.3175 Y89.3249
G01 X85.3105 Y89.3207
G01 X85.3025 Y89.3145
G01 X85.2952 Y89.3073
G01 X85.2470 Y89.2445
G01 X85.2415 Y89.2359
G01 X85.2371 Y89.2267
G01 X85.2340 Y89.2170
G01 X85.2317 Y89.2050
G01 X85.2255 Y89.1282
G01 X85.2257 Y89.1200
G01 X85.2266 Y89.1119
G01 X85.2289 Y89.1020
G01 X85.2316 Y89.0943
G01 X85.2351 Y89.0869
G01 X85.2714 Y89.0192
G01 X85.2759 Y89.0127
G01 X85.2809 Y89.0068
G01 X85.3436 Y88.9427
G01 X90.8643 Y83.4221
G01 X90.8701 Y83.4168
G01 X90.9836 Y83.3024
G01 X91.0032 Y83.2713
G01 X91.0117 Y83.2591
G01 X91.0329 Y83.2317
G01 X91.0438 Y83.2086
G01 X91.0523 Y83.1928
G01 X91.0670 Y83.1690
G01 X91.0792 Y83.1343
G01 X91.0848 Y83.1206
G01 X91.0994 Y83.0891
G01 X91.1055 Y83.0617
G01 X91.1104 Y83.0445
G01 X91.1188 Y83.0204
G01 X91.1230 Y82.9838
G01 X91.1254 Y82.9692
G01 X91.1327 Y82.9353
G01 X91.1319 Y82.8550
G01 X91.1319 Y33.5489
G01 X91.1322 Y33.5410
G01 X91.1316 Y33.3799
G01 X91.1234 Y33.3440
G01 X91.1209 Y33.3294
G01 X91.1165 Y33.2950
G01 X91.1078 Y33.2710
G01 X91.1027 Y33.2539
G01 X91.0962 Y33.2266
G01 X91.0811 Y33.1953
G01 X91.0754 Y33.1817
G01 X91.0627 Y33.1472
G01 X91.0489 Y33.1257
G01 X91.0401 Y33.1101
G01 X91.0277 Y33.0849
G01 X91.0061 Y33.0578
G01 X90.9975 Y33.0458
G01 X90.9775 Y33.0149
G01 X90.9201 Y32.9587
G01 X87.4326 Y29.4712
G01 X87.4272 Y29.4654
G01 X87.3129 Y29.3519
G01 X87.2835 Y29.3335
G01 X87.2713 Y29.3250
G01 X87.2422 Y29.3026
G01 X87.2191 Y29.2917
G01 X87.2033 Y29.2832
G01 X87.1795 Y29.2685
G01 X87.1448 Y29.2563
G01 X87.1311 Y29.2507
G01 X87.0996 Y29.2361
G01 X87.0722 Y29.2300
G01 X87.0550 Y29.2251
G01 X87.0309 Y29.2167
G01 X86.9943 Y29.2125
G01 X86.9797 Y29.2101
G01 X86.9458 Y29.2028
G01 X86.8655 Y29.2036
G01 X59.8479 Y29.2036
G01 X59.8400 Y29.2033
G01 X59.6789 Y29.2039
G01 X59.6430 Y29.2121
G01 X59.6284 Y29.2146
G01 X59.5940 Y29.2190
G01 X59.5700 Y29.2277
G01 X59.5529 Y29.2328
G01 X59.5256 Y29.2393
G01 X59.4943 Y29.2543
G01 X59.4807 Y29.2601
G01 X59.4462 Y29.2728
G01 X59.4225 Y29.2879
G01 X59.4057 Y29.2972
G01 X59.3839 Y29.3078
G01 X59.3551 Y29.3306
G01 X59.3431 Y29.3392
G01 X59.3139 Y29.3580
G01 X59.2577 Y29.4155
G01 X53.7520 Y34.9212
G01 X53.7454 Y34.9271
G01 X53.7229 Y34.9452
G01 X53.7162 Y34.9498
G01 X53.7074 Y34.9546
G01 X53.6960 Y34.9588
G01 X53.6222 Y34.9803
G01 X53.6126 Y34.9818
G01 X53.6048 Y34.9821
G01 X33.0222 Y34.9821
G01 X33.0134 Y34.9817
G01 X32.9827 Y34.9783
G01 X32.9709 Y34.9755
G01 X32.9615 Y34.9719
G01 X32.8921 Y34.9342
G01 X32.8855 Y34.9300
G01 X32.8779 Y34.9239
G01 X32.5808 Y34.6269
G01 X32.5571 Y34.5977
G01 X32.5527 Y34.5910
G01 X32.5481 Y34.5820
G01 X32.5447 Y34.5725
G01 X32.5247 Y34.5044
G01 X32.5228 Y34.4968
G01 X32.5217 Y34.4891
G01 X32.5214 Y34.4813
G01 X32.5214 Y32.8057
G01 X32.5222 Y32.7960
G01 X32.5297 Y32.7511
G01 X32.5316 Y32.7431
G01 X32.5352 Y32.7335
G01 X32.5389 Y32.7261
G01 X32.5433 Y32.7192
G01 X32.5844 Y32.6613
G01 X32.5905 Y32.6536
G01 X32.5946 Y32.6494
G01 X32.6005 Y32.6443
G01 X32.7277 Y32.5439
G01 X32.8745 Y32.3825
G01 X32.9178 Y32.3157
G01 X32.9424 Y32.2863
G01 X32.9493 Y32.2791
G01 X32.9570 Y32.2727
G01 X32.9672 Y32.2665
G01 X33.0327 Y32.2343
G01 X33.0421 Y32.2304
G01 X33.0500 Y32.2281
G01 X33.0560 Y32.2269
G01 X33.0641 Y32.2260
G01 X33.0722 Y32.2260
G01 X33.1509 Y32.2349
G01 X33.1609 Y32.2369
G01 X33.1724 Y32.2410
G01 X33.1815 Y32.2457
G01 X33.1899 Y32.2514
G01 X33.2464 Y32.2977
G01 X33.2549 Y32.3057
G01 X33.2622 Y32.3149
G01 X33.3257 Y32.4081
G01 X33.4764 Y32.5657
G01 X33.6508 Y32.6967
G01 X33.8443 Y32.7974
G01 X34.0516 Y32.8652
G01 X34.2672 Y32.8982
G01 X34.4853 Y32.8955
G01 X34.7000 Y32.8572
G01 X34.9056 Y32.7844
G01 X35.0965 Y32.6790
G01 X35.2677 Y32.5439
G01 X35.4145 Y32.3825
G01 X35.4578 Y32.3157
G01 X35.4824 Y32.2863
G01 X35.4893 Y32.2791
G01 X35.4970 Y32.2727
G01 X35.5072 Y32.2665
G01 X35.5746 Y32.2334
G01 X35.5821 Y32.2304
G01 X35.5900 Y32.2281
G01 X35.6000 Y32.2264
G01 X35.6081 Y32.2259
G01 X35.6183 Y32.2265
G01 X35.6889 Y32.2346
G01 X35.6969 Y32.2360
G01 X35.7067 Y32.2388
G01 X35.7161 Y32.2427
G01 X35.7232 Y32.2467
G01 X35.7315 Y32.2527
G01 X35.7864 Y32.2977
G01 X35.7949 Y32.3057
G01 X35.8022 Y32.3149
G01 X35.8657 Y32.4081
G01 X36.0164 Y32.5657
G01 X36.1908 Y32.6967
G01 X36.3843 Y32.7974
G01 X36.5916 Y32.8652
G01 X36.8072 Y32.8982
G01 X37.0253 Y32.8955
G01 X37.2400 Y32.8572
G01 X37.4456 Y32.7844
G01 X37.6365 Y32.6790
G01 X37.8077 Y32.5439
G01 X37.9545 Y32.3825
G01 X37.9978 Y32.3157
G01 X38.0224 Y32.2863
G01 X38.0293 Y32.2791
G01 X38.0370 Y32.2727
G01 X38.0472 Y32.2665
G01 X38.1146 Y32.2334
G01 X38.1221 Y32.2304
G01 X38.1300 Y32.2281
G01 X38.1400 Y32.2264
G01 X38.1481 Y32.2259
G01 X38.1583 Y32.2265
G01 X38.2289 Y32.2346
G01 X38.2369 Y32.2360
G01 X38.2467 Y32.2388
G01 X38.2561 Y32.2427
G01 X38.2632 Y32.2467
G01 X38.2715 Y32.2527
G01 X38.3264 Y32.2977
G01 X38.3349 Y32.3057
G01 X38.3422 Y32.3149
G01 X38.4057 Y32.4081
G01 X38.5564 Y32.5657
G01 X38.7308 Y32.6967
G01 X38.9243 Y32.7974
G01 X39.1316 Y32.8652
G01 X39.3472 Y32.8982
G01 X39.5653 Y32.8955
G01 X39.7800 Y32.8572
G01 X39.9856 Y32.7844
G01 X40.1765 Y32.6790
G01 X40.3477 Y32.5439
G01 X40.4945 Y32.3825
G01 X40.5378 Y32.3157
G01 X40.5624 Y32.2863
G01 X40.5693 Y32.2791
G01 X40.5770 Y32.2727
G01 X40.5872 Y32.2665
G01 X40.6546 Y32.2334
G01 X40.6621 Y32.2304
G01 X40.6700 Y32.2281
G01 X40.6800 Y32.2264
G01 X40.6881 Y32.2259
G01 X40.6983 Y32.2265
G01 X40.7689 Y32.2346
G01 X40.7769 Y32.2360
G01 X40.7867 Y32.2388
G01 X40.7961 Y32.2427
G01 X40.8032 Y32.2467
G01 X40.8115 Y32.2527
G01 X40.8664 Y32.2977
G01 X40.8749 Y32.3057
G01 X40.8822 Y32.3149
G01 X40.9457 Y32.4081
G01 X41.0964 Y32.5657
G01 X41.2708 Y32.6967
G01 X41.4643 Y32.7974
G01 X41.6716 Y32.8652
G01 X41.8872 Y32.8982
G01 X42.1053 Y32.8955
G01 X42.3200 Y32.8572
G01 X42.5256 Y32.7844
G01 X42.7165 Y32.6790
G01 X42.8877 Y32.5439
G01 X43.0345 Y32.3825
G01 X43.0778 Y32.3157
G01 X43.1024 Y32.2863
G01 X43.1093 Y32.2791
G01 X43.1170 Y32.2727
G01 X43.1272 Y32.2665
G01 X43.1964 Y32.2326
G01 X43.2041 Y32.2297
G01 X43.2139 Y32.2273
G01 X43.2220 Y32.2262
G01 X43.2302 Y32.2259
G01 X43.2383 Y32.2265
G01 X43.3089 Y32.2346
G01 X43.3169 Y32.2360
G01 X43.3248 Y32.2381
G01 X43.3324 Y32.2410
G01 X43.3397 Y32.2446
G01 X43.3483 Y32.2502
G01 X43.4064 Y32.2977
G01 X43.4149 Y32.3057
G01 X43.4222 Y32.3149
G01 X43.4857 Y32.4081
G01 X43.6364 Y32.5657
G01 X43.8108 Y32.6967
G01 X44.0043 Y32.7974
G01 X44.2116 Y32.8652
G01 X44.4272 Y32.8982
G01 X44.6453 Y32.8955
G01 X44.8600 Y32.8572
G01 X45.0656 Y32.7844
G01 X45.2565 Y32.6790
G01 X45.4277 Y32.5439
G01 X45.5745 Y32.3825
G01 X45.6194 Y32.3136
G01 X45.6440 Y32.2843
G01 X45.6496 Y32.2786
G01 X45.6557 Y32.2735
G01 X45.6623 Y32.2689
G01 X45.6675 Y32.2660
G01 X45.7367 Y32.2321
G01 X45.7444 Y32.2293
G01 X45.7503 Y32.2277
G01 X45.7563 Y32.2265
G01 X45.7644 Y32.2256
G01 X45.7725 Y32.2255
G01 X45.7786 Y32.2260
G01 X45.8492 Y32.2342
G01 X45.8592 Y32.2360
G01 X45.8708 Y32.2398
G01 X45.8800 Y32.2442
G01 X45.8886 Y32.2497
G01 X45.8979 Y32.2572
G01 X46.1706 Y31.9845
G01 X46.1519 Y31.9445
G01 X46.1208 Y31.8575
G01 X46.0971 Y31.7641
G01 X46.0826 Y31.6668
G01 X46.0779 Y31.5705
G01 X46.0826 Y31.4742
G01 X46.0971 Y31.3769
G01 X46.1208 Y31.2835
G01 X46.1519 Y31.1965
G01 X46.1706 Y31.1565
G01 X45.8955 Y30.8814
G01 X45.8519 Y30.9040
G01 X45.8445 Y30.9075
G01 X45.8329 Y30.9111
G01 X45.8269 Y30.9123
G01 X45.8187 Y30.9132
G01 X45.8065 Y30.9130
G01 X45.7358 Y30.9066
G01 X45.7277 Y30.9054
G01 X45.7179 Y30.9029
G01 X45.7102 Y30.9000
G01 X45.7029 Y30.8963
G01 X45.6944 Y30.8908
G01 X45.6352 Y30.8447
G01 X45.6267 Y30.8366
G01 X45.6206 Y30.8290
G01 X45.5335 Y30.7079
G01 X45.3790 Y30.5540
G01 X45.2015 Y30.4273
G01 X45.0056 Y30.3314
G01 X44.7967 Y30.2687
G01 X44.6670 Y30.2521
G01 X44.6553 Y30.2497
G01 X44.6441 Y30.2457
G01 X44.5720 Y30.2117
G01 X44.5648 Y30.2078
G01 X44.5563 Y30.2020
G01 X44.5473 Y30.1937
G01 X44.5420 Y30.1875
G01 X44.5384 Y30.1824
G01 X44.4983 Y30.1141
G01 X44.4942 Y30.1048
G01 X44.4912 Y30.0951
G01 X44.4895 Y30.0850
G01 X44.4890 Y30.0748
G01 X44.4922 Y29.9978
G01 X44.4943 Y29.9857
G01 X44.4973 Y29.9760
G01 X44.5015 Y29.9667
G01 X44.5068 Y29.9580
G01 X44.5488 Y29.8983
G01 X44.5540 Y29.8919
G01 X44.5613 Y29.8848
G01 X44.5694 Y29.8787
G01 X44.5800 Y29.8727
G01 X44.6550 Y29.8422
G01 X44.6626 Y29.8401
G01 X44.6703 Y29.8388
G01 X44.7360 Y29.8320
G01 X44.8863 Y29.7822
G01 X45.0205 Y29.6994
G01 X45.1322 Y29.5880
G01 X45.2152 Y29.4539
G01 X45.2242 Y29.4304
G01 X45.2278 Y29.4233
G01 X45.2321 Y29.4166
G01 X45.2370 Y29.4104
G01 X45.2862 Y29.3537
G01 X45.2922 Y29.3481
G01 X45.2986 Y29.3431
G01 X45.3055 Y29.3388
G01 X45.3110 Y29.3360
G01 X45.3224 Y29.3317
G01 X45.3924 Y29.3111
G01 X45.4020 Y29.3092
G01 X45.4098 Y29.3084
G01 X45.7059 Y29.3084
G01 X45.7171 Y29.3094
G01 X45.7568 Y29.3158
G01 X45.7647 Y29.3175
G01 X45.7763 Y29.3215
G01 X45.7871 Y29.3271
G01 X45.8488 Y29.3698
G01 X45.8537 Y29.3735
G01 X45.8598 Y29.3789
G01 X45.8640 Y29.3834
G01 X45.8690 Y29.3898
G01 X45.8734 Y29.3967
G01 X45.8771 Y29.4039
G01 X45.9072 Y29.4769
G01 X45.9093 Y29.4844
G01 X45.9107 Y29.4921
G01 X45.9158 Y29.5387
G01 X45.9592 Y29.6544
G01 X46.0324 Y29.7521
G01 X46.1301 Y29.8253
G01 X46.2458 Y29.8687
G01 X46.2933 Y29.8739
G01 X46.6815 Y29.8739
G01 X46.6998 Y29.8747
G01 X46.7101 Y29.8763
G01 X46.7219 Y29.8799
G01 X46.7900 Y29.9063
G01 X46.7992 Y29.9108
G01 X46.8077 Y29.9164
G01 X46.8154 Y29.9231
G01 X46.8236 Y29.9322
G01 X46.8689 Y29.9946
G01 X46.8730 Y30.0016
G01 X46.8772 Y30.0109
G01 X46.8801 Y30.0207
G01 X46.8816 Y30.0287
G01 X46.8864 Y30.1077
G01 X46.8861 Y30.1179
G01 X46.8849 Y30.1260
G01 X46.8824 Y30.1359
G01 X46.8777 Y30.1472
G01 X46.8410 Y30.2126
G01 X46.8342 Y30.2228
G01 X46.8289 Y30.2290
G01 X46.8245 Y30.2332
G01 X46.8182 Y30.2384
G01 X46.8096 Y30.2439
G01 X46.7450 Y30.2781
G01 X46.7379 Y30.2814
G01 X46.7267 Y30.2851
G01 X46.6906 Y30.2926
G01 X46.6872 Y30.2936
G01 X46.4868 Y30.3701
G01 X46.4836 Y30.3716
G01 X46.3908 Y30.4259
G01 X46.6460 Y30.6811
G01 X46.6860 Y30.6624
G01 X46.7730 Y30.6313
G01 X46.8664 Y30.6076
G01 X46.9637 Y30.5931
G01 X47.0600 Y30.5884
G01 X47.1563 Y30.5931
G01 X47.2536 Y30.6076
G01 X47.3470 Y30.6313
G01 X47.4340 Y30.6624
G01 X47.4740 Y30.6811
G01 X47.7319 Y30.4232
G01 X47.5470 Y30.3326
G01 X47.5437 Y30.3313
G01 X47.3773 Y30.2814
G01 X47.3664 Y30.2773
G01 X47.3563 Y30.2717
G01 X47.2955 Y30.2324
G01 X47.2875 Y30.2261
G01 X47.2790 Y30.2174
G01 X47.2730 Y30.2093
G01 X47.2680 Y30.2005
G01 X47.2360 Y30.1303
G01 X47.2334 Y30.1226
G01 X47.2312 Y30.1126
G01 X47.2302 Y30.1025
G01 X47.2306 Y30.0923
G01 X47.2415 Y30.0160
G01 X47.2438 Y30.0060
G01 X47.2473 Y29.9965
G01 X47.2520 Y29.9874
G01 X47.2591 Y29.9774
G01 X47.3082 Y29.9207
G01 X47.3140 Y29.9149
G01 X47.3220 Y29.9086
G01 X47.3307 Y29.9033
G01 X47.3400 Y29.8991
G01 X47.4158 Y29.8766
G01 X47.4235 Y29.8750
G01 X47.4312 Y29.8741
G01 X48.0807 Y29.8739
G01 X48.1282 Y29.8687
G01 X48.2439 Y29.8253
G01 X48.3416 Y29.7521
G01 X48.4148 Y29.6544
G01 X48.4582 Y29.5387
G01 X48.4634 Y29.4912
G01 X48.4634 Y28.1038
G01 X48.4582 Y28.0563
G01 X48.4148 Y27.9406
G01 X48.3416 Y27.8429
G01 X48.2439 Y27.7697
G01 X48.1282 Y27.7263
G01 X48.0807 Y27.7211
G01 X47.3092 Y27.7211
G01 X47.2953 Y27.7207
G01 X47.2872 Y27.7198
G01 X47.2812 Y27.7186
G01 X47.2734 Y27.7163
G01 X47.2031 Y27.6901
G01 X47.1921 Y27.6847
G01 X47.1853 Y27.6802
G01 X47.1805 Y27.6765
G01 X47.1746 Y27.6709
G01 X47.1692 Y27.6647
G01 X47.1230 Y27.6029
G01 X47.1179 Y27.5941
G01 X47.1146 Y27.5867
G01 X47.1120 Y27.5790
G01 X47.1099 Y27.5690
G01 X47.1040 Y27.4900
G01 X47.1044 Y27.4778
G01 X47.1061 Y27.4678
G01 X47.1090 Y27.4580
G01 X47.1130 Y27.4486
G01 X47.1480 Y27.3845
G01 X47.1532 Y27.3763
G01 X47.1568 Y27.3716
G01 X47.1620 Y27.3658
G01 X47.6208 Y26.9071
G01 X47.6266 Y26.9018
G01 X47.7401 Y26.7874
G01 X47.7597 Y26.7563
G01 X47.7682 Y26.7441
G01 X47.7894 Y26.7167
G01 X47.8003 Y26.6936
G01 X47.8088 Y26.6778
G01 X47.8235 Y26.6540
G01 X47.8357 Y26.6193
G01 X47.8413 Y26.6056
G01 X47.8559 Y26.5741
G01 X47.8614 Y26.5492
G01 X47.8669 Y26.5295
G01 X47.8737 Y26.5100
G01 X47.8789 Y26.4973
G01 X47.8823 Y26.4902
G01 X47.8863 Y26.4836
G01 X47.8910 Y26.4773
G01 X47.9401 Y26.4207
G01 X47.9474 Y26.4136
G01 X47.9556 Y26.4074
G01 X47.9644 Y26.4024
G01 X47.9758 Y26.3978
G01 X48.0458 Y26.3772
G01 X48.0534 Y26.3753
G01 X48.0651 Y26.3739
G01 X48.0807 Y26.3739
G01 X48.1282 Y26.3687
G01 X48.2439 Y26.3253
G01 X48.3416 Y26.2521
G01 X48.4148 Y26.1544
G01 X48.4582 Y26.0387
G01 X48.4634 Y25.9912
G01 X48.4634 Y24.6038
G01 X48.4582 Y24.5563
G01 X48.4148 Y24.4406
G01 X48.3415 Y24.3427
G01 X48.3350 Y24.3369
G01 X48.3258 Y24.3274
G01 X48.3063 Y24.3032
G01 X48.3007 Y24.2948
G01 X48.2961 Y24.2858
G01 X48.2933 Y24.2783
G01 X48.2712 Y24.2025
G01 X48.2697 Y24.1929
G01 X48.2694 Y24.1851
G01 X48.2694 Y23.7699
G01 X48.2697 Y23.7620
G01 X48.2691 Y23.6009
G01 X48.2609 Y23.5650
G01 X48.2584 Y23.5504
G01 X48.2540 Y23.5160
G01 X48.2453 Y23.4920
G01 X48.2402 Y23.4749
G01 X48.2337 Y23.4476
G01 X48.2186 Y23.4163
G01 X48.2129 Y23.4027
G01 X48.2002 Y23.3682
G01 X48.1864 Y23.3467
G01 X48.1776 Y23.3311
G01 X48.1652 Y23.3059
G01 X48.1436 Y23.2788
G01 X48.1350 Y23.2668
G01 X48.1150 Y23.2359
G01 X48.0576 Y23.1797
G01 X46.3603 Y21.4824
G01 X46.3366 Y21.4532
G01 X46.3322 Y21.4465
G01 X46.3284 Y21.4394
G01 X46.3242 Y21.4280
G01 X46.3032 Y21.3561
G01 X46.3014 Y21.3465
G01 X46.3009 Y21.3368
G01 X46.3009 Y16.0801
G01 X46.3012 Y16.0723
G01 X46.3096 Y16.0215
G01 X46.3118 Y16.0136
G01 X46.3156 Y16.0040
G01 X46.3184 Y15.9985
G01 X46.3228 Y15.9916
G01 X46.3639 Y15.9337
G01 X46.3687 Y15.9275
G01 X46.3741 Y15.9218
G01 X46.3800 Y15.9167
G01 X46.5431 Y15.7879
G01 X46.6957 Y15.6202
G01 X46.8189 Y15.4298
G01 X46.9093 Y15.2219
G01 X46.9645 Y15.0020
G01 X46.9784 Y14.8335
G01 X46.9784 Y14.6068
G01 X46.9630 Y14.4623
G01 X46.9630 Y14.4529
G01 X46.9654 Y14.4087
G01 X46.9663 Y14.4026
G01 X46.9681 Y14.3947
G01 X46.9707 Y14.3870
G01 X46.9732 Y14.3814
G01 X47.0091 Y14.3155
G01 X47.0154 Y14.3056
G01 X47.0231 Y14.2968
G01 X49.6528 Y11.6671
G01 X49.6586 Y11.6618
G01 X49.7721 Y11.5474
G01 X49.7917 Y11.5163
G01 X49.8002 Y11.5041
G01 X49.8214 Y11.4767
G01 X49.8323 Y11.4536
G01 X49.8408 Y11.4378
G01 X49.8555 Y11.4140
G01 X49.8677 Y11.3793
G01 X49.8733 Y11.3656
G01 X49.8879 Y11.3341
G01 X49.8940 Y11.3067
G01 X49.8989 Y11.2895
G01 X49.9073 Y11.2654
G01 X49.9115 Y11.2288
G01 X49.9139 Y11.2142
G01 X49.9212 Y11.1803
G01 X49.9204 Y11.1000
G01 X49.9204 Y9.4357
G01 X49.9211 Y9.4245
G01 X49.9290 Y9.3770
G01 X49.9313 Y9.3692
G01 X49.9335 Y9.3635
G01 X49.9391 Y9.3527
G01 X49.9818 Y9.2909
G01 X49.9868 Y9.2845
G01 X49.9924 Y9.2785
G01 X49.9985 Y9.2732
G01 X50.0035 Y9.2696
G01 X50.0104 Y9.2653
G01 X50.0159 Y9.2626
G01 X50.0852 Y9.2339
G01 X50.0964 Y9.2304
G01 X50.1102 Y9.2283
G01 X50.2259 Y9.1850
G01 X50.3236 Y9.1117
G01 X50.3968 Y9.0140
G01 X50.4402 Y8.8983
G01 X50.4454 Y8.8508
G01 X50.4454 Y7.1635
G01 X50.4402 Y7.1160
G01 X50.3968 Y7.0003
G01 X50.3236 Y6.9026
G01 X50.2259 Y6.8293
G01 X50.1102 Y6.7860
G01 X50.0625 Y6.7808
G01 X50.0543 Y6.7803
G01 X50.0423 Y6.7782
G01 X49.9811 Y6.7606
G01 X49.9702 Y6.7557
G01 X49.9602 Y6.7493
G01 X49.9512 Y6.7415
G01 X49.9010 Y6.6913
G01 X49.8942 Y6.6836
G01 X49.8895 Y6.6770
G01 X49.8855 Y6.6698
G01 X49.8816 Y6.6605
G01 X49.8791 Y6.6523
G01 X49.8676 Y6.6312
G01 X49.5580 Y6.3215
G01 X49.4749 Y6.3514
G01 X49.3911 Y6.3724
G01 X49.3055 Y6.3851
G01 X49.2190 Y6.3893
G01 X49.1325 Y6.3851
G01 X49.0469 Y6.3724
G01 X48.9629 Y6.3513
G01 X48.8800 Y6.3215
G01 X48.5716 Y6.6299
G01 X48.5505 Y6.6700
G01 X48.5451 Y6.6785
G01 X48.5386 Y6.6862
G01 X48.5305 Y6.6938
G01 X48.5034 Y6.7285
G01 X48.4993 Y6.7330
G01 X48.4932 Y6.7385
G01 X48.4832 Y6.7455
G01 X48.4723 Y6.7510
G01 X48.3997 Y6.7767
G01 X48.3920 Y6.7788
G01 X48.3841 Y6.7802
G01 X48.3755 Y6.7808
G01 X48.3278 Y6.7860
G01 X48.2121 Y6.8293
G01 X48.1144 Y6.9026
G01 X48.0412 Y7.0003
G01 X47.9978 Y7.1160
G01 X47.9926 Y7.1635
G01 X47.9926 Y8.8508
G01 X47.9978 Y8.8983
G01 X48.0412 Y9.0140
G01 X48.1144 Y9.1117
G01 X48.2121 Y9.1850
G01 X48.3278 Y9.2283
G01 X48.3357 Y9.2293
G01 X48.3431 Y9.2308
G01 X48.3894 Y9.2437
G01 X48.4006 Y9.2487
G01 X48.4109 Y9.2552
G01 X48.4708 Y9.3069
G01 X48.4779 Y9.3142
G01 X48.4841 Y9.3223
G01 X48.4891 Y9.3312
G01 X48.4937 Y9.3425
G01 X48.5149 Y9.4145
G01 X48.5168 Y9.4240
G01 X48.5176 Y9.4357
G01 X48.5176 Y10.7323
G01 X48.5172 Y10.7411
G01 X48.5141 Y10.7698
G01 X48.5126 Y10.7778
G01 X48.5110 Y10.7836
G01 X48.5090 Y10.7893
G01 X48.5057 Y10.7966
G01 X48.4697 Y10.8624
G01 X48.4644 Y10.8706
G01 X48.4567 Y10.8795
G01 X46.0617 Y13.2743
G01 X46.0533 Y13.2809
G01 X46.0138 Y13.3080
G01 X46.0050 Y13.3130
G01 X45.9956 Y13.3169
G01 X45.9898 Y13.3187
G01 X45.9819 Y13.3203
G01 X45.9095 Y13.3301
G01 X45.9017 Y13.3308
G01 X45.8939 Y13.3307
G01 X45.8862 Y13.3299
G01 X45.6960 Y13.3008
G01 X45.4693 Y13.3036
G01 X45.2461 Y13.3433
G01 X45.0323 Y13.4190
G01 X44.8338 Y13.5286
G01 X44.6559 Y13.6691
G01 X44.5033 Y13.8368
G01 X44.4977 Y13.8447
G01 X44.4757 Y13.8708
G01 X44.4716 Y13.8752
G01 X44.4658 Y13.8807
G01 X44.4594 Y13.8855
G01 X44.4509 Y13.8906
G01 X44.3816 Y13.9245
G01 X44.3759 Y13.9267
G01 X44.3681 Y13.9290
G01 X44.3601 Y13.9305
G01 X44.3519 Y13.9311
G01 X44.3397 Y13.9306
G01 X44.2631 Y13.9215
G01 X44.2552 Y13.9196
G01 X44.2456 Y13.9161
G01 X44.2383 Y13.9124
G01 X44.2298 Y13.9069
G01 X44.1717 Y13.8594
G01 X44.1645 Y13.8528
G01 X44.1570 Y13.8438
G01 X44.1354 Y13.8121
G01 X44.1331 Y13.8093
G01 X43.9790 Y13.6480
G01 X43.9763 Y13.6457
G01 X43.7979 Y13.5117
G01 X43.7949 Y13.5098
G01 X43.5971 Y13.4068
G01 X43.5938 Y13.4054
G01 X43.3956 Y13.3407
G01 X43.3956 Y13.7036
G01 X43.4573 Y13.7259
G01 X43.5490 Y13.7695
G01 X43.6343 Y13.8207
G01 X43.7143 Y13.8799
G01 X43.7882 Y13.9466
G01 X43.7939 Y13.9523
G01 X43.8593 Y14.0246
G01 X43.9198 Y14.1062
G01 X43.9720 Y14.1933
G01 X44.0138 Y14.2814
G01 X44.0168 Y14.2888
G01 X44.0483 Y14.3768
G01 X44.0507 Y14.3845
G01 X44.0743 Y14.4791
G01 X44.0889 Y14.5776
G01 X44.0941 Y14.6790
G01 X44.0941 Y14.7760
G01 X44.0892 Y14.8774
G01 X44.0750 Y14.9739
G01 X44.0734 Y14.9818
G01 X44.0496 Y15.0763
G01 X44.0154 Y15.1719
G01 X43.9738 Y15.2601
G01 X43.9700 Y15.2672
G01 X43.9188 Y15.3523
G01 X43.8592 Y15.4325
G01 X43.7939 Y15.5047
G01 X43.7882 Y15.5104
G01 X43.7143 Y15.5771
G01 X43.6343 Y15.6363
G01 X43.5490 Y15.6875
G01 X43.4573 Y15.7311
G01 X43.3956 Y15.7534
G01 X43.3956 Y16.1162
G01 X43.4145 Y16.1126
G01 X43.6248 Y16.0381
G01 X43.6280 Y16.0367
G01 X43.8233 Y15.9289
G01 X43.8263 Y15.9269
G01 X44.0014 Y15.7886
G01 X44.0040 Y15.7862
G01 X44.1541 Y15.6212
G01 X44.1607 Y15.6123
G01 X44.1827 Y15.5862
G01 X44.1882 Y15.5804
G01 X44.1926 Y15.5763
G01 X44.1990 Y15.5715
G01 X44.2075 Y15.5664
G01 X44.2768 Y15.5325
G01 X44.2844 Y15.5297
G01 X44.2923 Y15.5276
G01 X44.2983 Y15.5266
G01 X44.3065 Y15.5259
G01 X44.3187 Y15.5264
G01 X44.3912 Y15.5348
G01 X44.4012 Y15.5369
G01 X44.4109 Y15.5401
G01 X44.4218 Y15.5456
G01 X44.4302 Y15.5513
G01 X44.4897 Y15.6002
G01 X44.4952 Y15.6057
G01 X44.5002 Y15.6117
G01 X44.5243 Y15.6467
G01 X44.6809 Y15.8106
G01 X44.8183 Y15.9139
G01 X44.8258 Y15.9211
G01 X44.8575 Y15.9552
G01 X44.8625 Y15.9614
G01 X44.8669 Y15.9681
G01 X44.8697 Y15.9734
G01 X44.8729 Y15.9808
G01 X44.8948 Y16.0546
G01 X44.8970 Y16.0641
G01 X44.8978 Y16.0699
G01 X44.8981 Y16.0778
G01 X44.8981 Y21.6256
G01 X44.8978 Y21.6335
G01 X44.8984 Y21.7946
G01 X44.9066 Y21.8305
G01 X44.9091 Y21.8451
G01 X44.9135 Y21.8795
G01 X44.9222 Y21.9035
G01 X44.9273 Y21.9206
G01 X44.9338 Y21.9479
G01 X44.9488 Y21.9792
G01 X44.9546 Y21.9928
G01 X44.9673 Y22.0273
G01 X44.9824 Y22.0510
G01 X44.9911 Y22.0666
G01 X45.0023 Y22.0896
G01 X45.0251 Y22.1184
G01 X45.0337 Y22.1304
G01 X45.0525 Y22.1596
G01 X45.1100 Y22.2158
G01 X46.7600 Y23.8658
G01 X46.7695 Y23.8760
G01 X46.7734 Y23.8808
G01 X46.7769 Y23.8858
G01 X46.7811 Y23.8929
G01 X46.8130 Y23.9628
G01 X46.8159 Y23.9705
G01 X46.8179 Y23.9784
G01 X46.8195 Y23.9905
G01 X46.8196 Y23.9966
G01 X46.8191 Y24.0047
G01 X46.8084 Y24.0790
G01 X46.8061 Y24.0890
G01 X46.8025 Y24.0985
G01 X46.7978 Y24.1076
G01 X46.7921 Y24.1160
G01 X46.7430 Y24.1728
G01 X46.7343 Y24.1814
G01 X46.7244 Y24.1887
G01 X46.7136 Y24.1943
G01 X46.7040 Y24.1978
G01 X46.6340 Y24.2184
G01 X46.6264 Y24.2200
G01 X46.6186 Y24.2209
G01 X46.2933 Y24.2211
G01 X46.2458 Y24.2263
G01 X46.1301 Y24.2697
G01 X46.0324 Y24.3429
G01 X45.9592 Y24.4406
G01 X45.9158 Y24.5563
G01 X45.9106 Y24.6038
G01 X45.9106 Y25.9912
G01 X45.9158 Y26.0387
G01 X45.9592 Y26.1544
G01 X46.0378 Y26.2594
G01 X46.0418 Y26.2660
G01 X46.0600 Y26.2993
G01 X46.0648 Y26.3108
G01 X46.0670 Y26.3187
G01 X46.0687 Y26.3290
G01 X46.0741 Y26.4080
G01 X46.0735 Y26.4181
G01 X46.0715 Y26.4281
G01 X46.0684 Y26.4378
G01 X46.0641 Y26.4471
G01 X46.0291 Y26.5111
G01 X46.0237 Y26.5192
G01 X46.0187 Y26.5253
G01 X45.7478 Y26.7962
G01 X45.7186 Y26.8196
G01 X45.7100 Y26.8248
G01 X45.7027 Y26.8282
G01 X45.6950 Y26.8308
G01 X45.6250 Y26.8514
G01 X45.6155 Y26.8533
G01 X45.6057 Y26.8541
G01 X45.3672 Y26.8540
G01 X45.3567 Y26.8528
G01 X45.3023 Y26.8415
G01 X45.2926 Y26.8386
G01 X45.2852 Y26.8354
G01 X45.2764 Y26.8305
G01 X45.2698 Y26.8258
G01 X45.2108 Y26.7762
G01 X45.2051 Y26.7704
G01 X45.2012 Y26.7657
G01 X45.1977 Y26.7607
G01 X45.1936 Y26.7536
G01 X45.1888 Y26.7423
G01 X45.1659 Y26.6687
G01 X45.1642 Y26.6607
G01 X45.1634 Y26.6526
G01 X45.1633 Y26.6445
G01 X45.1641 Y26.6363
G01 X45.1662 Y26.6264
G01 X45.1868 Y26.5523
G01 X45.1889 Y26.5469
G01 X45.1924 Y26.5398
G01 X45.2134 Y26.5058
G01 X45.2155 Y26.5013
G01 X45.2640 Y26.3559
G01 X45.2650 Y26.3513
G01 X45.2742 Y26.2622
G01 X45.2743 Y26.2261
G01 X44.9302 Y26.2261
G01 X44.9291 Y26.2476
G01 X44.9243 Y26.2798
G01 X44.9163 Y26.3114
G01 X44.9061 Y26.3402
G01 X44.8932 Y26.3680
G01 X44.8894 Y26.3751
G01 X44.8747 Y26.3995
G01 X44.8540 Y26.4273
G01 X44.8334 Y26.4499
G01 X44.8092 Y26.4718
G01 X44.7830 Y26.4912
G01 X44.7586 Y26.5059
G01 X44.7515 Y26.5097
G01 X44.7293 Y26.5202
G01 X44.7218 Y26.5233
G01 X44.6949 Y26.5328
G01 X44.6613 Y26.5411
G01 X44.6311 Y26.5456
G01 X44.5985 Y26.5471
G01 X43.2985 Y26.5471
G01 X43.2659 Y26.5456
G01 X43.2337 Y26.5408
G01 X43.2021 Y26.5328
G01 X43.1714 Y26.5219
G01 X43.1419 Y26.5079
G01 X43.1140 Y26.4912
G01 X43.0878 Y26.4718
G01 X43.0651 Y26.4513
G01 X43.0417 Y26.4257
G01 X43.0223 Y26.3995
G01 X43.0056 Y26.3716
G01 X42.9924 Y26.3440
G01 X42.9807 Y26.3114
G01 X42.9731 Y26.2818
G01 X42.9682 Y26.2496
G01 X42.9668 Y26.2261
G01 X42.6226 Y26.2261
G01 X42.6228 Y26.2623
G01 X42.6318 Y26.3501
G01 X42.6327 Y26.3547
G01 X42.6810 Y26.5002
G01 X42.6831 Y26.5047
G01 X42.7039 Y26.5385
G01 X42.7077 Y26.5457
G01 X42.7276 Y26.6001
G01 X42.7309 Y26.6117
G01 X42.7324 Y26.6237
G01 X42.7322 Y26.6358
G01 X42.7216 Y26.7100
G01 X42.7195 Y26.7200
G01 X42.7163 Y26.7297
G01 X42.7118 Y26.7388
G01 X42.7062 Y26.7474
G01 X42.6545 Y26.8073
G01 X42.6503 Y26.8117
G01 X42.6441 Y26.8170
G01 X42.6391 Y26.8206
G01 X42.6321 Y26.8247
G01 X42.6265 Y26.8273
G01 X42.6189 Y26.8302
G01 X42.5470 Y26.8514
G01 X42.5393 Y26.8530
G01 X42.5316 Y26.8539
G01 X42.2053 Y26.8541
G01 X42.1972 Y26.8535
G01 X42.1585 Y26.8478
G01 X42.1508 Y26.8463
G01 X42.1414 Y26.8433
G01 X42.1341 Y26.8401
G01 X42.1272 Y26.8363
G01 X42.0645 Y26.7951
G01 X42.0565 Y26.7888
G01 X42.0480 Y26.7800
G01 X42.0420 Y26.7718
G01 X42.0371 Y26.7628
G01 X42.0058 Y26.6924
G01 X42.0032 Y26.6846
G01 X42.0014 Y26.6767
G01 X42.0003 Y26.6665
G01 X42.0004 Y26.6584
G01 X42.0012 Y26.6503
G01 X42.0077 Y26.6082
G01 X42.0077 Y26.5959
G01 X42.0084 Y26.5899
G01 X42.0100 Y26.5820
G01 X42.0640 Y26.4194
G01 X42.0650 Y26.4148
G01 X42.0742 Y26.3257
G01 X42.0743 Y26.3021
G01 X41.7296 Y26.3021
G01 X41.7288 Y26.3131
G01 X41.7239 Y26.3453
G01 X41.7163 Y26.3749
G01 X41.7054 Y26.4056
G01 X41.6914 Y26.4351
G01 X41.6768 Y26.4596
G01 X41.6724 Y26.4663
G01 X41.6577 Y26.4860
G01 X41.6526 Y26.4923
G01 X41.6334 Y26.5134
G01 X41.6092 Y26.5353
G01 X41.5830 Y26.5547
G01 X41.5586 Y26.5694
G01 X41.5515 Y26.5732
G01 X41.5293 Y26.5837
G01 X41.5218 Y26.5868
G01 X41.4949 Y26.5963
G01 X41.4672 Y26.6034
G01 X41.4593 Y26.6050
G01 X41.4311 Y26.6091
G01 X41.3985 Y26.6106
G01 X40.1485 Y26.6106
G01 X40.1159 Y26.6091
G01 X40.0857 Y26.6046
G01 X40.0560 Y26.5974
G01 X40.0483 Y26.5951
G01 X40.0214 Y26.5854
G01 X39.9919 Y26.5714
G01 X39.9674 Y26.5568
G01 X39.9607 Y26.5524
G01 X39.9378 Y26.5353
G01 X39.9166 Y26.5161
G01 X39.9109 Y26.5104
G01 X39.8944 Y26.4923
G01 X39.8893 Y26.4860
G01 X39.8723 Y26.4630
G01 X39.8576 Y26.4386
G01 X39.8538 Y26.4315
G01 X39.8416 Y26.4056
G01 X39.8319 Y26.3787
G01 X39.8296 Y26.3710
G01 X39.8227 Y26.3433
G01 X39.8184 Y26.3151
G01 X39.8177 Y26.3070
G01 X39.8164 Y26.2785
G01 X39.8164 Y25.6535
G01 X39.8179 Y25.6209
G01 X39.8231 Y25.5867
G01 X39.8296 Y25.5610
G01 X39.8319 Y25.5533
G01 X39.8416 Y25.5264
G01 X39.8538 Y25.5005
G01 X39.8576 Y25.4934
G01 X39.8723 Y25.4690
G01 X39.8917 Y25.4428
G01 X39.9136 Y25.4186
G01 X39.9347 Y25.3994
G01 X39.9410 Y25.3943
G01 X39.9640 Y25.3773
G01 X39.9884 Y25.3626
G01 X39.9955 Y25.3588
G01 X40.0195 Y25.3474
G01 X40.0521 Y25.3357
G01 X40.0798 Y25.3286
G01 X40.0877 Y25.3270
G01 X40.1184 Y25.3227
G01 X40.1485 Y25.3214
G01 X40.4374 Y25.3214
G01 X40.4374 Y24.9776
G01 X40.1012 Y24.9778
G01 X40.0134 Y24.9868
G01 X40.0088 Y24.9877
G01 X39.8633 Y25.0360
G01 X39.8588 Y25.0381
G01 X39.7289 Y25.1182
G01 X39.7250 Y25.1213
G01 X39.6170 Y25.2291
G01 X39.6139 Y25.2330
G01 X39.5856 Y25.2788
G01 X39.5813 Y25.2850
G01 X39.5500 Y25.3214
G01 X39.5442 Y25.3271
G01 X39.5395 Y25.3310
G01 X39.5311 Y25.3367
G01 X39.5238 Y25.3405
G01 X39.4531 Y25.3712
G01 X39.4453 Y25.3737
G01 X39.4353 Y25.3757
G01 X39.4252 Y25.3764
G01 X39.4170 Y25.3761
G01 X39.3349 Y25.3627
G01 X39.3270 Y25.3604
G01 X39.3213 Y25.3582
G01 X39.3140 Y25.3546
G01 X39.3088 Y25.3514
G01 X39.2991 Y25.3439
G01 X39.2420 Y25.2922
G01 X39.2367 Y25.2861
G01 X39.2320 Y25.2794
G01 X39.2024 Y25.2315
G01 X39.0910 Y25.1198
G01 X38.9569 Y25.0368
G01 X38.8825 Y25.0119
G01 X38.8682 Y25.0063
G01 X38.8628 Y25.0037
G01 X38.8559 Y24.9998
G01 X38.8479 Y24.9939
G01 X38.7912 Y24.9448
G01 X38.7828 Y24.9359
G01 X38.7768 Y24.9276
G01 X38.7720 Y24.9187
G01 X38.7683 Y24.9092
G01 X38.7462 Y24.8334
G01 X38.7447 Y24.8238
G01 X38.7444 Y24.8160
G01 X38.7444 Y20.3122
G01 X38.7446 Y20.3056
G01 X38.7486 Y20.2707
G01 X38.7510 Y20.2609
G01 X38.7538 Y20.2533
G01 X38.7573 Y20.2461
G01 X38.7923 Y20.1821
G01 X38.7976 Y20.1739
G01 X38.8040 Y20.1664
G01 X40.9533 Y18.0171
G01 X40.9591 Y18.0118
G01 X41.0483 Y17.9221
G01 X41.0726 Y17.8974
G01 X41.0922 Y17.8663
G01 X41.1007 Y17.8541
G01 X41.1219 Y17.8267
G01 X41.1328 Y17.8036
G01 X41.1413 Y17.7878
G01 X41.1560 Y17.7640
G01 X41.1682 Y17.7293
G01 X41.1738 Y17.7156
G01 X41.1884 Y17.6841
G01 X41.1945 Y17.6567
G01 X41.1994 Y17.6395
G01 X41.2078 Y17.6154
G01 X41.2120 Y17.5788
G01 X41.2144 Y17.5642
G01 X41.2217 Y17.5303
G01 X41.2209 Y17.4500
G01 X41.2211 Y16.3571
G01 X41.2223 Y16.3475
G01 X41.2346 Y16.2912
G01 X41.2369 Y16.2833
G01 X41.2409 Y16.2739
G01 X41.2461 Y16.2650
G01 X41.2510 Y16.2584
G01 X41.3015 Y16.2002
G01 X41.3090 Y16.1933
G01 X41.3156 Y16.1884
G01 X41.3226 Y16.1843
G01 X41.3300 Y16.1809
G01 X41.3377 Y16.1782
G01 X41.4096 Y16.1572
G01 X41.4192 Y16.1554
G01 X41.4270 Y16.1549
G01 X41.5157 Y16.1549
G01 X41.5632 Y16.1497
G01 X41.6789 Y16.1063
G01 X41.7766 Y16.0331
G01 X41.8498 Y15.9354
G01 X41.8543 Y15.9237
G01 X41.8634 Y15.9038
G01 X41.8672 Y15.8970
G01 X41.8716 Y15.8905
G01 X41.8792 Y15.8816
G01 X41.9340 Y15.8274
G01 X41.9405 Y15.8224
G01 X41.9492 Y15.8170
G01 X41.9565 Y15.8136
G01 X41.9642 Y15.8109
G01 X42.0396 Y15.7944
G01 X42.0517 Y15.7927
G01 X42.0598 Y15.7926
G01 X42.0680 Y15.7933
G01 X42.0760 Y15.7948
G01 X42.0819 Y15.7964
G01 X42.1522 Y15.8227
G01 X42.1629 Y15.8276
G01 X42.1727 Y15.8339
G01 X42.3211 Y15.9453
G01 X42.3241 Y15.9472
G01 X42.5219 Y16.0502
G01 X42.5252 Y16.0516
G01 X42.7234 Y16.1163
G01 X42.7234 Y15.7534
G01 X42.6617 Y15.7311
G01 X42.5700 Y15.6875
G01 X42.4848 Y15.6364
G01 X42.4047 Y15.5770
G01 X42.3308 Y15.5104
G01 X42.3251 Y15.5047
G01 X42.2597 Y15.4324
G01 X42.1992 Y15.3508
G01 X42.1470 Y15.2637
G01 X42.1052 Y15.1756
G01 X42.1022 Y15.1682
G01 X42.0707 Y15.0802
G01 X42.0683 Y15.0725
G01 X42.0447 Y14.9779
G01 X42.0301 Y14.8794
G01 X42.0249 Y14.7780
G01 X42.0249 Y14.6810
G01 X42.0298 Y14.5796
G01 X42.0440 Y14.4831
G01 X42.0456 Y14.4752
G01 X42.0694 Y14.3807
G01 X42.1036 Y14.2851
G01 X42.1452 Y14.1969
G01 X42.1490 Y14.1898
G01 X42.2004 Y14.1045
G01 X42.2597 Y14.0246
G01 X42.3251 Y13.9523
G01 X42.3308 Y13.9466
G01 X42.4047 Y13.8799
G01 X42.4847 Y13.8207
G01 X42.5700 Y13.7695
G01 X42.6617 Y13.7259
G01 X42.7234 Y13.7036
G01 X42.7234 Y13.3408
G01 X42.7045 Y13.3444
G01 X42.4942 Y13.4189
G01 X42.4910 Y13.4203
G01 X42.2957 Y13.5281
G01 X42.2927 Y13.5301
G01 X42.1754 Y13.6227
G01 X42.1525 Y13.6380
G01 X42.1436 Y13.6429
G01 X42.1361 Y13.6459
G01 X42.1284 Y13.6482
G01 X42.0551 Y13.6643
G01 X42.0490 Y13.6652
G01 X42.0409 Y13.6658
G01 X42.0327 Y13.6655
G01 X42.0266 Y13.6648
G01 X42.0206 Y13.6636
G01 X42.0128 Y13.6614
G01 X41.9424 Y13.6352
G01 X41.9368 Y13.6328
G01 X41.9297 Y13.6288
G01 X41.9230 Y13.6242
G01 X41.9183 Y13.6203
G01 X41.9138 Y13.6160
G01 X41.9085 Y13.6099
G01 X41.8633 Y13.5498
G01 X41.8589 Y13.5428
G01 X41.8560 Y13.5372
G01 X41.8498 Y13.5216
G01 X41.7766 Y13.4239
G01 X41.6789 Y13.3507
G01 X41.5632 Y13.3073
G01 X41.5157 Y13.3021
G01 X41.4886 Y13.3021
G01 X41.4770 Y13.3007
G01 X41.4167 Y13.2874
G01 X41.4090 Y13.2846
G01 X41.4034 Y13.2821
G01 X41.3962 Y13.2780
G01 X41.3912 Y13.2746
G01 X41.3312 Y13.2229
G01 X41.3228 Y13.2140
G01 X41.3168 Y13.2057
G01 X41.3120 Y13.1967
G01 X41.3083 Y13.1872
G01 X41.2871 Y13.1153
G01 X41.2849 Y13.1038
G01 X41.2844 Y13.0940
G01 X41.2844 Y9.6897
G01 X41.2847 Y9.6822
G01 X41.2926 Y9.6330
G01 X41.2953 Y9.6232
G01 X41.2992 Y9.6138
G01 X41.3054 Y9.6033
G01 X41.3470 Y9.5433
G01 X41.3535 Y9.5354
G01 X41.3625 Y9.5272
G01 X41.3709 Y9.5214
G01 X41.3799 Y9.5166
G01 X41.4492 Y9.4879
G01 X41.4604 Y9.4844
G01 X41.4742 Y9.4823
G01 X41.5899 Y9.4390
G01 X41.6876 Y9.3657
G01 X41.7608 Y9.2680
G01 X41.8042 Y9.1523
G01 X41.8094 Y9.1048
G01 X41.8094 Y7.4175
G01 X41.8042 Y7.3700
G01 X41.7608 Y7.2543
G01 X41.6876 Y7.1566
G01 X41.5899 Y7.0833
G01 X41.4742 Y7.0400
G01 X41.4265 Y7.0348
G01 X41.4183 Y7.0343
G01 X41.4063 Y7.0322
G01 X41.3451 Y7.0146
G01 X41.3378 Y7.0115
G01 X41.3325 Y7.0087
G01 X41.3274 Y7.0056
G01 X41.3211 Y7.0008
G01 X41.3152 Y6.9955
G01 X41.2650 Y6.9453
G01 X41.2582 Y6.9376
G01 X41.2535 Y6.9310
G01 X41.2495 Y6.9238
G01 X41.2456 Y6.9145
G01 X41.2431 Y6.9063
G01 X41.2316 Y6.8852
G01 X40.9220 Y6.5755
G01 X40.8389 Y6.6054
G01 X40.7551 Y6.6264
G01 X40.6695 Y6.6391
G01 X40.5830 Y6.6433
G01 X40.4965 Y6.6391
G01 X40.4109 Y6.6264
G01 X40.3269 Y6.6053
G01 X40.2440 Y6.5755
G01 X39.9356 Y6.8839
G01 X39.9145 Y6.9240
G01 X39.9091 Y6.9325
G01 X39.9026 Y6.9402
G01 X39.8945 Y6.9478
G01 X39.8674 Y6.9825
G01 X39.8633 Y6.9870
G01 X39.8572 Y6.9925
G01 X39.8472 Y6.9995
G01 X39.8363 Y7.0050
G01 X39.7637 Y7.0307
G01 X39.7560 Y7.0328
G01 X39.7481 Y7.0342
G01 X39.7395 Y7.0348
G01 X39.6918 Y7.0400
G01 X39.5761 Y7.0833
G01 X39.4784 Y7.1566
G01 X39.4052 Y7.2543
G01 X39.3618 Y7.3700
G01 X39.3566 Y7.4175
G01 X39.3566 Y9.1048
G01 X39.3618 Y9.1523
G01 X39.4052 Y9.2680
G01 X39.4784 Y9.3657
G01 X39.5761 Y9.4390
G01 X39.6918 Y9.4823
G01 X39.6997 Y9.4833
G01 X39.7071 Y9.4848
G01 X39.7534 Y9.4977
G01 X39.7646 Y9.5027
G01 X39.7699 Y9.5057
G01 X39.7765 Y9.5104
G01 X39.8363 Y9.5623
G01 X39.8432 Y9.5698
G01 X39.8502 Y9.5798
G01 X39.8548 Y9.5889
G01 X39.8583 Y9.5985
G01 X39.8789 Y9.6685
G01 X39.8805 Y9.6761
G01 X39.8814 Y9.6839
G01 X39.8816 Y13.0979
G01 X39.8802 Y13.1095
G01 X39.8679 Y13.1658
G01 X39.8641 Y13.1775
G01 X39.8586 Y13.1885
G01 X39.8515 Y13.1986
G01 X39.8010 Y13.2568
G01 X39.7966 Y13.2611
G01 X39.7902 Y13.2662
G01 X39.7799 Y13.2727
G01 X39.7725 Y13.2761
G01 X39.7648 Y13.2788
G01 X39.6948 Y13.2994
G01 X39.6833 Y13.3016
G01 X39.6735 Y13.3021
G01 X39.5233 Y13.3021
G01 X39.4758 Y13.3073
G01 X39.3601 Y13.3507
G01 X39.2624 Y13.4239
G01 X39.1892 Y13.5216
G01 X39.1458 Y13.6373
G01 X39.1406 Y13.6848
G01 X39.1404 Y13.8249
G01 X39.1392 Y13.8345
G01 X39.1274 Y13.8888
G01 X39.1239 Y13.9006
G01 X39.1186 Y13.9117
G01 X39.1118 Y13.9220
G01 X39.0627 Y13.9788
G01 X39.0571 Y13.9847
G01 X39.0525 Y13.9887
G01 X39.0459 Y13.9936
G01 X39.0389 Y13.9977
G01 X39.0333 Y14.0003
G01 X39.0257 Y14.0032
G01 X38.9538 Y14.0244
G01 X38.9442 Y14.0263
G01 X38.9325 Y14.0271
G01 X34.3844 Y14.0271
G01 X34.3765 Y14.0268
G01 X34.2154 Y14.0274
G01 X34.1816 Y14.0352
G01 X34.1670 Y14.0378
G01 X34.1305 Y14.0425
G01 X34.1041 Y14.0520
G01 X34.0870 Y14.0570
G01 X34.0621 Y14.0628
G01 X34.0308 Y14.0778
G01 X34.0172 Y14.0836
G01 X33.9827 Y14.0963
G01 X33.9590 Y14.1114
G01 X33.9422 Y14.1207
G01 X33.9204 Y14.1313
G01 X33.8916 Y14.1541
G01 X33.8796 Y14.1627
G01 X33.8504 Y14.1815
G01 X33.7944 Y14.2387
G01 X33.6855 Y14.3477
G01 X33.6789 Y14.3536
G01 X33.6564 Y14.3717
G01 X33.6462 Y14.3783
G01 X33.6409 Y14.3811
G01 X33.6334 Y14.3841
G01 X33.5614 Y14.4053
G01 X33.5519 Y14.4075
G01 X33.5461 Y14.4083
G01 X33.5383 Y14.4086
G01 X31.9463 Y14.4086
G01 X31.8988 Y14.4138
G01 X31.7831 Y14.4572
G01 X31.6854 Y14.5304
G01 X31.6122 Y14.6281
G01 X31.5688 Y14.7438
G01 X31.5636 Y14.7913
G01 X31.5634 Y15.0314
G01 X31.5622 Y15.0410
G01 X31.5499 Y15.0973
G01 X31.5469 Y15.1071
G01 X31.5426 Y15.1164
G01 X31.5384 Y15.1235
G01 X31.5335 Y15.1301
G01 X31.4857 Y15.1853
G01 X31.4770 Y15.1939
G01 X31.4689 Y15.2001
G01 X31.4582 Y15.2060
G01 X31.4487 Y15.2097
