(G-CODE GENERATED BY FLATCAM v8.992 - www.flatcam.org - Version Date: 2020/05/03)

(Name: NPN Tracer V2a-F_Cu.gbr_iso_cnc)
(Type: G-code from Geometry)
(Units: MM)

(Created on Friday, 14 April 2023 at 13:08)

(This preprocessor is the default preprocessor used by FlatCAM.)
(It is made to work with MACH3 compatible motion controllers.)

(TOOL DIAMETER: 0.2423 mm)
(Feedrate_XY: 60.0 mm/min)
(Feedrate_Z: 40.0 mm/min)
(Feedrate rapids 1500.0 mm/min)

(Z_Cut: -0.12 mm)
(Z_Move: 2.0 mm)
(Z Start: None mm)
(Z End: 10.0 mm)
(Steps per circle: 64)
(Preprocessor Geometry: default)

(X range:    0.4600 ...   88.7690  mm)
(Y range:    0.7715 ...   62.6010  mm)

(Spindle Speed: None RPM)
G21
G90
G94



G01 F60.00
G00 Z2.0000

M03
G00 X13.6513 Y7.2865
G01 F40.00
G01 Z-0.1200
G01 F60.00
G01 X13.6513 Y7.3622
G01 X13.6195 Y7.3776
G01 X13.5804 Y7.4007
G01 X13.6201 Y7.3448
G01 X13.6275 Y7.3337
G01 X13.6344 Y7.3222
G01 X13.6407 Y7.3104
G01 X13.6464 Y7.2984
G01 X13.6513 Y7.2865
G00 Z2.0000
G00 X14.7949 Y7.3943
G01 F40.00
G01 Z-0.1200
G01 F60.00
G01 X14.7665 Y7.3776
G01 X14.7352 Y7.3625
G01 X14.7351 Y7.2759
G01 X14.7447 Y7.3075
G01 X14.7518 Y7.3256
G01 X14.7572 Y7.3374
G01 X14.7665 Y7.3546
G01 X14.7733 Y7.3657
G01 X14.7846 Y7.3816
G01 X14.7949 Y7.3943
G00 Z2.0000
G00 X14.7348 Y6.6942
G01 F40.00
G01 Z-0.1200
G01 F60.00
G01 X14.7347 Y6.6743
G01 X14.7558 Y6.6532
G01 X14.7424 Y6.6780
G01 X14.7348 Y6.6942
G00 Z2.0000
G00 X16.1862 Y5.2228
G01 F40.00
G01 Z-0.1200
G01 F60.00
G01 X16.2004 Y5.2087
G01 X16.2303 Y5.2087
G01 X16.2033 Y5.2167
G01 X16.1862 Y5.2228
G00 Z2.0000
G00 X19.2789 Y7.3795
G01 F40.00
G01 Z-0.1200
G01 F60.00
G01 X19.3721 Y7.3841
G01 X19.3839 Y7.3852
G01 X19.4820 Y7.3999
G01 X19.5782 Y7.4239
G01 X19.5896 Y7.4273
G01 X19.6829 Y7.4609
G01 X19.7779 Y7.5058
G01 X19.8631 Y7.5567
G01 X19.8730 Y7.5633
G01 X19.9525 Y7.6225
G01 X20.0261 Y7.6890
G01 X20.0345 Y7.6974
G01 X20.1010 Y7.7710
G01 X20.1602 Y7.8505
G01 X20.1653 Y7.8579
G01 X20.2177 Y7.9456
G01 X20.2602 Y8.0352
G01 X20.2648 Y8.0461
G01 X20.2980 Y8.1396
G01 X20.3223 Y8.2357
G01 X20.3246 Y8.2474
G01 X20.3383 Y8.3396
G01 X20.3394 Y8.3514
G01 X20.3441 Y8.4505
G01 X20.3441 Y9.1042
G01 X21.8314 Y9.1044
G01 X21.8643 Y9.1061
G01 X21.8970 Y9.1108
G01 X21.9086 Y9.1131
G01 X21.9405 Y9.1213
G01 X21.9716 Y9.1322
G01 X21.9826 Y9.1368
G01 X22.0123 Y9.1510
G01 X22.0432 Y9.1694
G01 X22.0505 Y9.1744
G01 X22.0769 Y9.1942
G01 X22.1057 Y9.2203
G01 X24.7017 Y11.8163
G01 X24.7240 Y11.8406
G01 X24.7297 Y11.8474
G01 X24.7510 Y11.8763
G01 X24.7681 Y11.9045
G01 X24.7737 Y11.9150
G01 X24.7865 Y11.9421
G01 X24.7898 Y11.9504
G01 X24.8007 Y11.9815
G01 X24.8102 Y12.0192
G01 X24.8159 Y12.0577
G01 X24.8178 Y12.0935
G01 X24.8178 Y15.2564
G01 X25.4774 Y15.2565
G01 X25.5765 Y15.2615
G01 X25.6746 Y15.2759
G01 X25.6863 Y15.2782
G01 X25.7796 Y15.3016
G01 X25.7881 Y15.3043
G01 X25.8814 Y15.3379
G01 X25.9711 Y15.3802
G01 X25.9816 Y15.3858
G01 X26.0616 Y15.4337
G01 X26.0715 Y15.4403
G01 X26.1510 Y15.4995
G01 X26.2246 Y15.5660
G01 X26.2330 Y15.5744
G01 X26.2995 Y15.6480
G01 X26.3621 Y15.7324
G01 X26.4162 Y15.8226
G01 X26.4587 Y15.9122
G01 X26.4622 Y15.9203
G01 X26.4661 Y15.9312
G01 X27.1920 Y15.9312
G01 X27.2249 Y15.9327
G01 X27.2367 Y15.9338
G01 X27.2693 Y15.9388
G01 X27.3070 Y15.9483
G01 X27.3437 Y15.9614
G01 X27.3788 Y15.9780
G01 X27.4122 Y15.9980
G01 X27.4387 Y16.0175
G01 X27.4479 Y16.0250
G01 X27.4722 Y16.0473
G01 X28.7063 Y17.2816
G01 X28.7283 Y17.3061
G01 X28.7515 Y17.3373
G01 X28.7715 Y17.3707
G01 X28.7881 Y17.4058
G01 X28.8012 Y17.4425
G01 X28.8107 Y17.4802
G01 X28.8164 Y17.5187
G01 X28.8181 Y17.5516
G01 X28.8183 Y19.6377
G01 X29.3694 Y19.6377
G01 X29.3694 Y19.5935
G01 X29.3711 Y19.5601
G01 X29.3765 Y19.5241
G01 X29.3853 Y19.4888
G01 X29.3976 Y19.4545
G01 X29.4132 Y19.4215
G01 X29.4319 Y19.3903
G01 X29.4499 Y19.3657
G01 X29.4555 Y19.3588
G01 X29.4740 Y19.3384
G01 X29.4824 Y19.3300
G01 X29.5074 Y19.3077
G01 X29.5318 Y19.2896
G01 X29.5393 Y19.2847
G01 X29.5655 Y19.2692
G01 X29.5985 Y19.2536
G01 X29.6328 Y19.2413
G01 X29.6623 Y19.2338
G01 X29.6710 Y19.2319
G01 X29.7041 Y19.2271
G01 X29.7405 Y19.2254
G01 X31.0405 Y19.2254
G01 X31.0769 Y19.2271
G01 X31.1129 Y19.2325
G01 X31.1482 Y19.2413
G01 X31.1825 Y19.2536
G01 X31.2155 Y19.2692
G01 X31.2467 Y19.2879
G01 X31.2760 Y19.3096
G01 X31.3029 Y19.3341
G01 X31.3255 Y19.3588
G01 X31.3311 Y19.3657
G01 X31.3491 Y19.3903
G01 X31.3678 Y19.4215
G01 X31.3834 Y19.4545
G01 X31.3948 Y19.4859
G01 X31.3973 Y19.4945
G01 X31.4045 Y19.5241
G01 X31.4095 Y19.5572
G01 X31.4115 Y19.5906
G01 X31.4116 Y19.6127
G01 X33.3500 Y19.6127
G01 X33.3888 Y19.6146
G01 X33.4244 Y19.6198
G01 X33.4331 Y19.6216
G01 X33.4622 Y19.6289
G01 X33.4783 Y19.6344
G01 X35.0965 Y19.6344
G01 X35.1917 Y19.6390
G01 X35.2801 Y19.6520
G01 X35.2889 Y19.6536
G01 X35.3784 Y19.6762
G01 X35.4626 Y19.7061
G01 X35.4736 Y19.7107
G01 X35.5543 Y19.7490
G01 X35.6310 Y19.7948
G01 X35.6409 Y19.8014
G01 X35.7126 Y19.8548
G01 X35.7789 Y19.9147
G01 X35.7873 Y19.9231
G01 X35.8472 Y19.9894
G01 X35.9006 Y20.0611
G01 X35.9072 Y20.0710
G01 X35.9530 Y20.1477
G01 X35.9913 Y20.2284
G01 X35.9959 Y20.2394
G01 X36.0258 Y20.3236
G01 X36.0490 Y20.4160
G01 X36.0630 Y20.5103
G01 X36.0676 Y20.6055
G01 X36.0634 Y20.6948
G01 X36.0622 Y20.7066
G01 X36.0490 Y20.7950
G01 X36.0274 Y20.8817
G01 X36.0240 Y20.8931
G01 X35.9959 Y20.9716
G01 X35.9913 Y20.9826
G01 X35.9530 Y21.0633
G01 X35.9040 Y21.1450
G01 X35.8472 Y21.2216
G01 X35.7832 Y21.2922
G01 X35.7126 Y21.3562
G01 X35.6409 Y21.4096
G01 X35.6310 Y21.4162
G01 X35.5543 Y21.4620
G01 X35.4736 Y21.5003
G01 X35.4626 Y21.5049
G01 X35.3841 Y21.5330
G01 X35.3727 Y21.5364
G01 X35.2860 Y21.5580
G01 X35.1917 Y21.5720
G01 X35.0965 Y21.5766
G01 X32.7935 Y21.5766
G01 X32.7013 Y21.5720
G01 X32.6129 Y21.5590
G01 X32.6012 Y21.5567
G01 X32.5203 Y21.5364
G01 X32.5089 Y21.5330
G01 X32.4249 Y21.5027
G01 X32.3387 Y21.4620
G01 X32.2570 Y21.4130
G01 X32.1804 Y21.3562
G01 X32.1098 Y21.2922
G01 X32.0458 Y21.2216
G01 X31.9890 Y21.1450
G01 X31.9430 Y21.0685
G01 X31.9373 Y21.0580
G01 X31.8993 Y20.9771
G01 X31.8672 Y20.8874
G01 X31.8440 Y20.7950
G01 X31.8308 Y20.7066
G01 X31.8296 Y20.6948
G01 X31.8254 Y20.6055
G01 X31.8296 Y20.5162
G01 X31.8308 Y20.5044
G01 X31.8430 Y20.4219
G01 X31.8466 Y20.4053
G01 X31.4116 Y20.4053
G01 X31.4116 Y20.4245
G01 X31.4101 Y20.4549
G01 X31.4055 Y20.4880
G01 X31.4039 Y20.4968
G01 X31.3965 Y20.5264
G01 X31.3938 Y20.5349
G01 X31.3834 Y20.5635
G01 X31.3692 Y20.5938
G01 X31.3649 Y20.6016
G01 X31.3491 Y20.6277
G01 X31.3311 Y20.6523
G01 X31.3235 Y20.6615
G01 X31.3029 Y20.6839
G01 X31.2805 Y20.7045
G01 X31.2713 Y20.7121
G01 X31.2442 Y20.7317
G01 X31.2206 Y20.7459
G01 X31.2128 Y20.7502
G01 X31.1853 Y20.7632
G01 X31.1770 Y20.7665
G01 X31.1482 Y20.7767
G01 X31.1187 Y20.7842
G01 X31.1100 Y20.7861
G01 X31.0798 Y20.7905
G01 X31.0709 Y20.7913
G01 X31.0405 Y20.7926
G01 X30.7868 Y20.7926
G01 X30.7868 Y53.8424
G01 X33.7296 Y56.7852
G01 X70.7394 Y56.7852
G01 X71.7022 Y55.8224
G01 X71.7022 Y52.7801
G01 X71.6926 Y52.7800
G01 X71.6621 Y52.7784
G01 X71.6261 Y52.7730
G01 X71.5908 Y52.7642
G01 X71.5565 Y52.7519
G01 X71.5235 Y52.7363
G01 X71.4923 Y52.7176
G01 X71.4630 Y52.6959
G01 X71.4361 Y52.6714
G01 X71.4116 Y52.6445
G01 X71.3899 Y52.6152
G01 X71.3712 Y52.5840
G01 X71.3556 Y52.5510
G01 X71.3433 Y52.5167
G01 X71.3345 Y52.4814
G01 X71.3291 Y52.4454
G01 X71.3274 Y52.4090
G01 X71.3274 Y51.1590
G01 X71.3291 Y51.1226
G01 X71.3335 Y51.0925
G01 X71.3351 Y51.0837
G01 X71.3433 Y51.0513
G01 X71.3556 Y51.0170
G01 X71.3712 Y50.9840
G01 X71.3867 Y50.9578
G01 X71.3916 Y50.9503
G01 X71.4079 Y50.9282
G01 X71.4155 Y50.9190
G01 X71.4361 Y50.8966
G01 X71.4630 Y50.8721
G01 X71.4923 Y50.8504
G01 X71.5184 Y50.8346
G01 X71.5262 Y50.8303
G01 X71.5510 Y50.8185
G01 X71.5620 Y50.8140
G01 X71.5908 Y50.8038
G01 X71.6261 Y50.7950
G01 X71.6621 Y50.7896
G01 X71.6955 Y50.7879
G01 X72.5015 Y50.7879
G01 X72.5319 Y50.7894
G01 X72.5408 Y50.7904
G01 X72.5709 Y50.7950
G01 X72.6034 Y50.8030
G01 X72.6350 Y50.8140
G01 X72.6460 Y50.8185
G01 X72.6735 Y50.8317
G01 X72.7047 Y50.8504
G01 X72.7340 Y50.8721
G01 X72.7566 Y50.8925
G01 X72.7650 Y50.9009
G01 X72.7854 Y50.9235
G01 X72.8071 Y50.9528
G01 X72.8229 Y50.9789
G01 X72.8285 Y50.9894
G01 X72.8414 Y51.0170
G01 X72.8518 Y51.0456
G01 X72.8553 Y51.0570
G01 X72.8625 Y51.0866
G01 X72.8675 Y51.1197
G01 X72.8683 Y51.1286
G01 X72.8696 Y51.1590
G01 X72.8696 Y52.4090
G01 X72.8679 Y52.4454
G01 X72.8635 Y52.4755
G01 X72.8619 Y52.4843
G01 X72.8537 Y52.5167
G01 X72.8414 Y52.5510
G01 X72.8258 Y52.5840
G01 X72.8103 Y52.6102
G01 X72.8054 Y52.6177
G01 X72.7891 Y52.6398
G01 X72.7815 Y52.6490
G01 X72.7609 Y52.6714
G01 X72.7340 Y52.6959
G01 X72.7047 Y52.7176
G01 X72.6735 Y52.7363
G01 X72.6405 Y52.7519
G01 X72.6119 Y52.7623
G01 X72.6005 Y52.7658
G01 X72.5738 Y52.7724
G01 X72.5650 Y52.7740
G01 X72.5349 Y52.7784
G01 X72.5044 Y52.7800
G01 X72.4948 Y52.7801
G01 X72.4948 Y55.9895
G01 X72.4929 Y56.0253
G01 X72.4872 Y56.0638
G01 X72.4777 Y56.1015
G01 X72.4646 Y56.1382
G01 X72.4480 Y56.1733
G01 X72.4280 Y56.2067
G01 X72.4048 Y56.2379
G01 X72.3828 Y56.2624
G01 X71.1837 Y57.4617
G01 X71.1594 Y57.4840
G01 X71.1526 Y57.4897
G01 X71.1261 Y57.5093
G01 X71.0955 Y57.5281
G01 X71.0850 Y57.5337
G01 X71.0579 Y57.5465
G01 X71.0496 Y57.5498
G01 X71.0185 Y57.5607
G01 X70.9808 Y57.5702
G01 X70.9423 Y57.5759
G01 X70.9065 Y57.5778
G01 X33.5655 Y57.5778
G01 X33.5267 Y57.5759
G01 X33.4882 Y57.5702
G01 X33.4505 Y57.5607
G01 X33.4138 Y57.5476
G01 X33.3787 Y57.5310
G01 X33.3453 Y57.5110
G01 X33.3141 Y57.4878
G01 X33.2896 Y57.4658
G01 X30.1082 Y54.2846
G01 X30.0842 Y54.2579
G01 X30.0610 Y54.2267
G01 X30.0410 Y54.1933
G01 X30.0268 Y54.1636
G01 X30.0233 Y54.1554
G01 X30.0131 Y54.1272
G01 X30.0097 Y54.1158
G01 X30.0018 Y54.0838
G01 X29.9961 Y54.0453
G01 X29.9942 Y54.0065
G01 X29.9942 Y20.7926
G01 X29.7405 Y20.7926
G01 X29.7041 Y20.7909
G01 X29.6681 Y20.7855
G01 X29.6328 Y20.7767
G01 X29.5985 Y20.7644
G01 X29.5709 Y20.7515
G01 X29.5629 Y20.7474
G01 X29.5368 Y20.7317
G01 X29.5294 Y20.7267
G01 X29.5050 Y20.7084
G01 X29.4802 Y20.6860
G01 X29.4740 Y20.6796
G01 X29.4536 Y20.6570
G01 X29.4353 Y20.6326
G01 X29.4287 Y20.6227
G01 X29.4132 Y20.5965
G01 X29.4000 Y20.5690
G01 X29.3955 Y20.5580
G01 X29.3853 Y20.5292
G01 X29.3778 Y20.4997
G01 X29.3755 Y20.4880
G01 X29.3711 Y20.4579
G01 X29.3696 Y20.4303
G01 X28.4220 Y20.4303
G01 X28.3891 Y20.4288
G01 X28.3802 Y20.4281
G01 X28.3447 Y20.4227
G01 X28.3070 Y20.4132
G01 X28.2703 Y20.4001
G01 X28.2405 Y20.3862
G01 X28.2300 Y20.3806
G01 X28.2043 Y20.3651
G01 X28.1970 Y20.3601
G01 X28.1706 Y20.3403
G01 X28.1461 Y20.3183
G01 X28.1397 Y20.3121
G01 X28.1176 Y20.2877
G01 X28.0959 Y20.2590
G01 X28.0909 Y20.2517
G01 X28.0754 Y20.2260
G01 X28.0698 Y20.2155
G01 X28.0559 Y20.1857
G01 X28.0428 Y20.1490
G01 X28.0346 Y20.1171
G01 X28.0323 Y20.1055
G01 X28.0276 Y20.0728
G01 X28.0257 Y20.0370
G01 X28.0257 Y17.7216
G01 X27.0279 Y16.7238
G01 X26.4659 Y16.7243
G01 X26.4622 Y16.7347
G01 X26.4587 Y16.7428
G01 X26.4162 Y16.8324
G01 X26.3653 Y16.9176
G01 X26.3587 Y16.9275
G01 X26.2995 Y17.0070
G01 X26.2330 Y17.0806
G01 X26.2246 Y17.0890
G01 X26.1555 Y17.1516
G01 X26.1463 Y17.1592
G01 X26.0666 Y17.2181
G01 X25.9816 Y17.2692
G01 X25.9711 Y17.2748
G01 X25.8814 Y17.3171
G01 X25.7824 Y17.3525
G01 X25.6863 Y17.3768
G01 X25.6746 Y17.3791
G01 X25.5824 Y17.3928
G01 X25.5735 Y17.3937
G01 X25.4715 Y17.3986
G01 X23.3715 Y17.3986
G01 X23.2724 Y17.3939
G01 X23.2636 Y17.3932
G01 X23.1625 Y17.3781
G01 X23.0606 Y17.3525
G01 X22.9616 Y17.3171
G01 X22.8666 Y17.2722
G01 X22.7764 Y17.2181
G01 X22.6920 Y17.1555
G01 X22.6141 Y17.0849
G01 X22.5474 Y17.0115
G01 X22.5416 Y17.0047
G01 X22.4809 Y16.9226
G01 X22.4268 Y16.8324
G01 X22.3819 Y16.7374
G01 X22.3483 Y16.6441
G01 X22.3449 Y16.6327
G01 X22.3222 Y16.5423
G01 X22.3199 Y16.5306
G01 X22.3055 Y16.4325
G01 X22.3004 Y16.3275
G01 X22.3055 Y16.2225
G01 X22.3209 Y16.1185
G01 X22.3465 Y16.0166
G01 X22.3797 Y15.9231
G01 X22.3843 Y15.9122
G01 X22.4242 Y15.8279
G01 X22.4298 Y15.8174
G01 X22.4809 Y15.7324
G01 X22.5398 Y15.6527
G01 X22.5454 Y15.6457
G01 X22.6141 Y15.5701
G01 X22.6875 Y15.5034
G01 X22.6967 Y15.4958
G01 X22.7764 Y15.4369
G01 X22.8666 Y15.3828
G01 X22.9562 Y15.3403
G01 X22.9671 Y15.3357
G01 X23.0549 Y15.3043
G01 X23.0663 Y15.3009
G01 X23.1625 Y15.2769
G01 X23.2606 Y15.2622
G01 X23.2724 Y15.2611
G01 X23.3656 Y15.2565
G01 X24.0252 Y15.2564
G01 X24.0252 Y12.2606
G01 X21.6614 Y9.8968
G01 X20.3441 Y9.8968
G01 X20.3441 Y10.5505
G01 X20.3392 Y10.6525
G01 X20.3383 Y10.6614
G01 X20.3246 Y10.7536
G01 X20.3223 Y10.7653
G01 X20.2980 Y10.8614
G01 X20.2626 Y10.9604
G01 X20.2177 Y11.0554
G01 X20.1636 Y11.1456
G01 X20.1010 Y11.2300
G01 X20.0304 Y11.3079
G01 X19.9525 Y11.3785
G01 X19.8681 Y11.4411
G01 X19.7779 Y11.4952
G01 X19.6856 Y11.5389
G01 X19.6774 Y11.5423
G01 X19.5896 Y11.5737
G01 X19.5782 Y11.5771
G01 X19.4820 Y11.6011
G01 X19.3780 Y11.6165
G01 X19.2730 Y11.6216
G01 X19.1739 Y11.6169
G01 X19.1621 Y11.6158
G01 X19.0640 Y11.6011
G01 X18.9678 Y11.5771
G01 X18.9564 Y11.5737
G01 X18.8631 Y11.5401
G01 X18.7681 Y11.4952
G01 X18.6779 Y11.4411
G01 X18.5982 Y11.3822
G01 X18.5890 Y11.3746
G01 X18.5199 Y11.3120
G01 X18.5135 Y11.3058
G01 X18.4450 Y11.2300
G01 X18.3824 Y11.1456
G01 X18.3283 Y11.0554
G01 X18.2858 Y10.9658
G01 X18.2812 Y10.9549
G01 X18.2498 Y10.8671
G01 X18.2464 Y10.8557
G01 X18.2224 Y10.7595
G01 X18.2070 Y10.6555
G01 X18.2019 Y10.5505
G01 X18.2019 Y8.4505
G01 X18.2070 Y8.3455
G01 X18.2224 Y8.2415
G01 X18.2480 Y8.1396
G01 X18.2834 Y8.0406
G01 X18.3283 Y7.9456
G01 X18.3792 Y7.8604
G01 X18.3858 Y7.8505
G01 X18.4413 Y7.7757
G01 X18.4489 Y7.7665
G01 X18.5156 Y7.6931
G01 X18.5935 Y7.6225
G01 X18.6779 Y7.5599
G01 X18.7681 Y7.5058
G01 X18.8631 Y7.4609
G01 X18.9564 Y7.4273
G01 X18.9678 Y7.4239
G01 X19.0582 Y7.4012
G01 X19.0699 Y7.3989
G01 X19.1680 Y7.3845
G01 X19.2671 Y7.3795
G01 X19.2789 Y7.3795
G00 Z2.0000
G00 X20.4895 Y8.7130
G01 F40.00
G01 Z-0.1200
G01 F60.00
G01 X20.4977 Y8.7405
G01 X20.5021 Y8.7530
G01 X20.5097 Y8.7713
G01 X20.5156 Y8.7832
G01 X20.5255 Y8.8004
G01 X20.5367 Y8.8169
G01 X20.5448 Y8.8273
G01 X20.5578 Y8.8422
G01 X20.5720 Y8.8562
G01 X20.6306 Y8.9070
G01 X20.6409 Y8.9155
G01 X20.6516 Y8.9235
G01 X20.6683 Y8.9343
G01 X20.6859 Y8.9440
G01 X20.7040 Y8.9522
G01 X20.7220 Y8.9588
G01 X20.4895 Y8.9588
G01 X20.4895 Y8.7130
G00 Z2.0000
G00 X20.7351 Y10.0422
G01 F40.00
G01 Z-0.1200
G01 F60.00
G01 X20.7080 Y10.0502
G01 X20.6955 Y10.0546
G01 X20.6772 Y10.0622
G01 X20.6653 Y10.0681
G01 X20.6481 Y10.0780
G01 X20.6316 Y10.0892
G01 X20.6212 Y10.0973
G01 X20.6063 Y10.1103
G01 X20.5923 Y10.1245
G01 X20.5415 Y10.1831
G01 X20.5330 Y10.1934
G01 X20.5250 Y10.2041
G01 X20.5142 Y10.2208
G01 X20.5045 Y10.2384
G01 X20.4963 Y10.2565
G01 X20.4895 Y10.2749
G01 X20.4895 Y10.0422
G01 X20.7351 Y10.0422
G00 Z2.0000
G00 X21.6223 Y10.0633
G01 F40.00
G01 Z-0.1200
G01 F60.00
G01 X21.5975 Y10.0499
G01 X21.5811 Y10.0422
G01 X21.6011 Y10.0422
G01 X21.6223 Y10.0633
G00 Z2.0000
G00 X23.8798 Y12.3508
G01 F40.00
G01 Z-0.1200
G01 F60.00
G01 X23.8718 Y12.3238
G01 X23.8657 Y12.3067
G01 X23.8798 Y12.3209
G01 X23.8798 Y12.3508
G00 Z2.0000
G00 X24.9632 Y14.8654
G01 F40.00
G01 Z-0.1200
G01 F60.00
G01 X24.9712 Y14.8925
G01 X24.9756 Y14.9050
G01 X24.9832 Y14.9233
G01 X24.9891 Y14.9352
G01 X24.9990 Y14.9524
G01 X25.0102 Y14.9689
G01 X25.0225 Y14.9844
G01 X25.0313 Y14.9942
G01 X25.0455 Y15.0082
G01 X25.1041 Y15.0590
G01 X25.1144 Y15.0675
G01 X25.1251 Y15.0755
G01 X25.1418 Y15.0863
G01 X25.1594 Y15.0960
G01 X25.1775 Y15.1042
G01 X25.1959 Y15.1110
G01 X24.9632 Y15.1110
G01 X24.9632 Y14.8654
G00 Z2.0000
G00 X23.6340 Y15.1110
G01 F40.00
G01 Z-0.1200
G01 F60.00
G01 X23.6615 Y15.1028
G01 X23.6740 Y15.0984
G01 X23.6863 Y15.0935
G01 X23.7042 Y15.0849
G01 X23.7214 Y15.0750
G01 X23.7325 Y15.0677
G01 X23.7483 Y15.0557
G01 X23.7632 Y15.0427
G01 X23.7772 Y15.0285
G01 X23.8280 Y14.9699
G01 X23.8365 Y14.9596
G01 X23.8445 Y14.9489
G01 X23.8553 Y14.9322
G01 X23.8650 Y14.9146
G01 X23.8732 Y14.8965
G01 X23.8798 Y14.8785
G01 X23.8798 Y15.1110
G01 X23.6340 Y15.1110
G00 Z2.0000
G00 X26.5213 Y15.7149
G01 F40.00
G01 Z-0.1200
G01 F60.00
G01 X26.5772 Y15.7546
G01 X26.5883 Y15.7620
G01 X26.5998 Y15.7689
G01 X26.6116 Y15.7752
G01 X26.6236 Y15.7809
G01 X26.6355 Y15.7858
G01 X26.5598 Y15.7858
G01 X26.5444 Y15.7540
G01 X26.5213 Y15.7149
G00 Z2.0000
G00 X26.6464 Y16.8696
G01 F40.00
G01 Z-0.1200
G01 F60.00
G01 X26.6145 Y16.8792
G01 X26.6024 Y16.8838
G01 X26.5846 Y16.8917
G01 X26.5730 Y16.8978
G01 X26.5563 Y16.9078
G01 X26.5404 Y16.9191
G01 X26.5277 Y16.9294
G01 X26.5444 Y16.9010
G01 X26.5596 Y16.8696
G01 X26.6464 Y16.8696
G00 Z2.0000
G00 X26.9888 Y16.8903
G01 F40.00
G01 Z-0.1200
G01 F60.00
G01 X26.9640 Y16.8769
G01 X26.9479 Y16.8693
G01 X26.9677 Y16.8693
G01 X26.9888 Y16.8903
G00 Z2.0000
G00 X26.1437 Y17.3414
G01 F40.00
G01 Z-0.1200
G01 F60.00
G01 X26.1210 Y17.3696
G01 X26.1134 Y17.3805
G01 X26.1063 Y17.3916
G01 X26.0998 Y17.4032
G01 X26.0912 Y17.4211
G01 X26.0862 Y17.4333
G01 X26.0818 Y17.4458
G01 X26.0780 Y17.4585
G01 X26.0748 Y17.4713
G01 X26.0713 Y17.4909
G01 X26.0623 Y17.5680
G01 X26.0611 Y17.5812
G01 X26.0606 Y17.5944
G01 X26.0607 Y17.6076
G01 X26.0615 Y17.6208
G01 X26.0639 Y17.6405
G01 X26.0677 Y17.6600
G01 X26.0711 Y17.6728
G01 X26.0751 Y17.6854
G01 X26.0797 Y17.6978
G01 X26.0849 Y17.7100
G01 X26.1190 Y17.7797
G01 X26.1253 Y17.7918
G01 X26.1354 Y17.8084
G01 X26.0564 Y17.7611
G01 X26.0450 Y17.7546
G01 X26.0333 Y17.7487
G01 X25.9490 Y17.7089
G01 X25.9370 Y17.7036
G01 X25.9248 Y17.6989
G01 X25.8371 Y17.6675
G01 X25.8246 Y17.6634
G01 X25.8120 Y17.6599
G01 X25.7216 Y17.6372
G01 X25.7088 Y17.6343
G01 X25.6959 Y17.6321
G01 X25.6037 Y17.6184
G01 X25.5842 Y17.6163
G01 X25.4846 Y17.6113
G01 X25.4715 Y17.6110
G01 X23.3715 Y17.6110
G01 X23.3584 Y17.6113
G01 X23.2653 Y17.6159
G01 X23.2523 Y17.6168
G01 X23.2393 Y17.6184
G01 X23.1471 Y17.6321
G01 X23.1342 Y17.6343
G01 X23.1214 Y17.6372
G01 X23.0310 Y17.6599
G01 X23.0184 Y17.6634
G01 X23.0059 Y17.6675
G01 X22.9182 Y17.6989
G01 X22.9060 Y17.7036
G01 X22.8940 Y17.7089
G01 X22.8097 Y17.7487
G01 X22.7980 Y17.7546
G01 X22.7866 Y17.7611
G01 X22.7004 Y17.8129
G01 X22.7220 Y17.7860
G01 X22.7296 Y17.7752
G01 X22.7366 Y17.7640
G01 X22.7431 Y17.7524
G01 X22.7518 Y17.7346
G01 X22.7568 Y17.7223
G01 X22.7612 Y17.7098
G01 X22.7650 Y17.6971
G01 X22.7681 Y17.6843
G01 X22.7716 Y17.6647
G01 X22.7806 Y17.5877
G01 X22.7818 Y17.5745
G01 X22.7824 Y17.5612
G01 X22.7819 Y17.5414
G01 X22.7808 Y17.5282
G01 X22.7791 Y17.5151
G01 X22.7752 Y17.4956
G01 X22.7719 Y17.4828
G01 X22.7679 Y17.4702
G01 X22.7633 Y17.4578
G01 X22.7580 Y17.4456
G01 X22.7239 Y17.3759
G01 X22.7143 Y17.3580
G01 X22.7069 Y17.3461
G01 X22.7866 Y17.3939
G01 X22.7980 Y17.4004
G01 X22.8097 Y17.4063
G01 X22.8940 Y17.4461
G01 X22.9060 Y17.4514
G01 X22.9182 Y17.4561
G01 X23.0059 Y17.4875
G01 X23.0184 Y17.4916
G01 X23.0310 Y17.4951
G01 X23.1214 Y17.5178
G01 X23.1342 Y17.5207
G01 X23.1471 Y17.5229
G01 X23.2393 Y17.5366
G01 X23.2588 Y17.5387
G01 X23.3584 Y17.5437
G01 X23.3715 Y17.5440
G01 X25.4715 Y17.5440
G01 X25.4846 Y17.5437
G01 X25.5777 Y17.5391
G01 X25.5907 Y17.5382
G01 X25.6037 Y17.5366
G01 X25.6959 Y17.5229
G01 X25.7088 Y17.5207
G01 X25.7216 Y17.5178
G01 X25.8120 Y17.4951
G01 X25.8246 Y17.4916
G01 X25.8371 Y17.4875
G01 X25.9248 Y17.4561
G01 X25.9370 Y17.4514
G01 X25.9490 Y17.4461
G01 X26.0333 Y17.4063
G01 X26.0450 Y17.4004
G01 X26.0564 Y17.3939
G01 X26.1437 Y17.3414
G00 Z2.0000
G00 X27.8803 Y17.8118
G01 F40.00
G01 Z-0.1200
G01 F60.00
G01 X27.8723 Y17.7848
G01 X27.8662 Y17.7677
G01 X27.8803 Y17.7819
G01 X27.8803 Y17.8118
G00 Z2.0000
G00 X28.6830 Y17.0524
G01 F40.00
G01 Z-0.1200
G01 F60.00
G01 X28.7078 Y17.0659
G01 X28.7197 Y17.0717
G01 X28.7319 Y17.0768
G01 X28.7507 Y17.0834
G01 X28.7698 Y17.0886
G01 X28.7828 Y17.0913
G01 X28.7959 Y17.0933
G01 X28.8157 Y17.0951
G01 X28.8289 Y17.0954
G01 X28.8421 Y17.0951
G01 X28.9195 Y17.0897
G01 X28.9327 Y17.0884
G01 X28.9523 Y17.0853
G01 X28.9652 Y17.0824
G01 X28.9843 Y17.0769
G01 X29.0029 Y17.0699
G01 X29.0150 Y17.0645
G01 X29.0268 Y17.0585
G01 X29.0383 Y17.0520
G01 X29.0549 Y17.0411
G01 X29.1223 Y16.9906
G01 X29.1375 Y16.9778
G01 X29.1516 Y16.9638
G01 X29.1646 Y16.9488
G01 X29.1765 Y16.9330
G01 X29.1838 Y16.9219
G01 X29.1936 Y16.9046
G01 X29.1995 Y16.8928
G01 X29.2047 Y16.8806
G01 X29.2240 Y16.8292
G01 X29.2241 Y17.3030
G01 X29.2259 Y17.3406
G01 X29.2272 Y17.3536
G01 X29.2327 Y17.3908
G01 X29.2352 Y17.4037
G01 X29.2462 Y17.4464
G01 X29.2503 Y17.4589
G01 X29.2633 Y17.4942
G01 X29.2686 Y17.5061
G01 X29.2850 Y17.5400
G01 X29.3075 Y17.5780
G01 X29.3147 Y17.5889
G01 X29.3371 Y17.6191
G01 X29.3454 Y17.6292
G01 X29.3707 Y17.6571
G01 X29.3799 Y17.6663
G01 X29.4078 Y17.6916
G01 X29.4179 Y17.6999
G01 X29.4286 Y17.7079
G01 X29.3872 Y17.6968
G01 X29.3742 Y17.6943
G01 X29.3611 Y17.6924
G01 X29.3480 Y17.6911
G01 X29.3347 Y17.6905
G01 X29.3215 Y17.6906
G01 X29.3017 Y17.6919
G01 X29.2886 Y17.6936
G01 X29.2755 Y17.6960
G01 X29.2626 Y17.6990
G01 X29.2499 Y17.7026
G01 X29.1758 Y17.7258
G01 X29.1573 Y17.7329
G01 X29.1393 Y17.7413
G01 X29.1277 Y17.7477
G01 X29.1164 Y17.7546
G01 X29.1055 Y17.7621
G01 X29.0950 Y17.7701
G01 X29.0849 Y17.7787
G01 X29.0752 Y17.7877
G01 X29.0660 Y17.7972
G01 X29.0572 Y17.8071
G01 X29.0075 Y17.8666
G01 X28.9958 Y17.8824
G01 X28.9854 Y17.8990
G01 X28.9762 Y17.9164
G01 X28.9683 Y17.9344
G01 X28.9637 Y17.9468
G01 X28.9637 Y17.5575
G01 X28.9633 Y17.5444
G01 X28.9611 Y17.5044
G01 X28.9555 Y17.4647
G01 X28.9519 Y17.4454
G01 X28.9438 Y17.4129
G01 X28.9403 Y17.4003
G01 X28.9362 Y17.3878
G01 X28.9224 Y17.3502
G01 X28.9171 Y17.3383
G01 X28.9027 Y17.3080
G01 X28.8966 Y17.2964
G01 X28.8794 Y17.2676
G01 X28.8724 Y17.2566
G01 X28.8648 Y17.2459
G01 X28.8407 Y17.2139
G01 X28.8322 Y17.2040
G01 X28.8096 Y17.1792
G01 X28.6830 Y17.0524
G00 Z2.0000
G00 X29.0192 Y17.2183
G01 F40.00
G01 Z-0.1200
G01 F60.00
G01 X29.0300 Y17.2149
G01 X29.0493 Y17.2080
G01 X29.0682 Y17.2001
G01 X29.0786 Y17.1953
G01 X29.0787 Y17.3066
G01 X29.0809 Y17.3513
G01 X29.0826 Y17.3691
G01 X29.0795 Y17.3581
G01 X29.0731 Y17.3389
G01 X29.0640 Y17.3134
G01 X29.0567 Y17.2946
G01 X29.0486 Y17.2761
G01 X29.0326 Y17.2426
G01 X29.0192 Y17.2183
G00 Z2.0000
G00 X29.1046 Y17.4802
G01 F40.00
G01 Z-0.1200
G01 F60.00
G01 X29.1101 Y17.4983
G01 X29.1252 Y17.5404
G01 X29.1330 Y17.5591
G01 X29.1443 Y17.5833
G01 X29.1291 Y17.5882
G01 X29.1090 Y17.5956
G01 X29.1090 Y17.5575
G01 X29.1086 Y17.5373
G01 X29.1066 Y17.5002
G01 X29.1046 Y17.4802
G00 Z2.0000
G00 X28.9637 Y18.9320
G01 F40.00
G01 Z-0.1200
G01 F60.00
G01 X28.9738 Y18.9654
G01 X28.9810 Y18.9838
G01 X28.9866 Y18.9959
G01 X28.9961 Y19.0133
G01 X29.0031 Y19.0245
G01 X29.0107 Y19.0354
G01 X29.0188 Y19.0459
G01 X29.0318 Y19.0608
G01 X29.0460 Y19.0747
G01 X29.1046 Y19.1256
G01 X29.1148 Y19.1340
G01 X29.1255 Y19.1419
G01 X29.1365 Y19.1493
G01 X29.1478 Y19.1561
G01 X29.1654 Y19.1652
G01 X29.1837 Y19.1730
G01 X29.2025 Y19.1794
G01 X29.2152 Y19.1829
G01 X29.2282 Y19.1858
G01 X29.2412 Y19.1880
G01 X29.3180 Y19.1989
G01 X29.3310 Y19.2002
G01 X29.3440 Y19.2007
G01 X29.3571 Y19.2007
G01 X29.3702 Y19.2000
G01 X29.3832 Y19.1986
G01 X29.3961 Y19.1967
G01 X29.4089 Y19.1941
G01 X29.4206 Y19.1911
G01 X29.4078 Y19.2014
G01 X29.3847 Y19.2222
G01 X29.3753 Y19.2313
G01 X29.3662 Y19.2407
G01 X29.3454 Y19.2638
G01 X29.3371 Y19.2739
G01 X29.3147 Y19.3041
G01 X29.3075 Y19.3150
G01 X29.2850 Y19.3530
G01 X29.2791 Y19.3647
G01 X29.2633 Y19.3988
G01 X29.2503 Y19.4341
G01 X29.2462 Y19.4466
G01 X29.2427 Y19.4592
G01 X29.2346 Y19.4923
G01 X28.9637 Y19.4923
G01 X28.9637 Y18.9320
G00 Z2.0000
G00 X29.1090 Y19.2993
G01 F40.00
G01 Z-0.1200
G01 F60.00
G01 X29.1221 Y19.3050
G01 X29.1428 Y19.3128
G01 X29.1330 Y19.3339
G01 X29.1275 Y19.3470
G01 X29.1090 Y19.3470
G01 X29.1090 Y19.2993
G00 Z2.0000
G00 X29.2785 Y20.6520
G01 F40.00
G01 Z-0.1200
G01 F60.00
G01 X29.2462 Y20.6234
G01 X29.2307 Y20.6117
G01 X29.2200 Y20.6045
G01 X29.2032 Y20.5948
G01 X29.1917 Y20.5890
G01 X29.1738 Y20.5813
G01 X29.1577 Y20.5757
G01 X29.2476 Y20.5757
G01 X29.2586 Y20.6070
G01 X29.2633 Y20.6192
G01 X29.2785 Y20.6520
G00 Z2.0000
G00 X29.8488 Y21.1449
G01 F40.00
G01 Z-0.1200
G01 F60.00
G01 X29.8387 Y21.1116
G01 X29.8340 Y21.0992
G01 X29.8288 Y21.0870
G01 X29.8229 Y21.0752
G01 X29.8164 Y21.0636
G01 X29.8057 Y21.0469
G01 X29.7979 Y21.0362
G01 X29.7851 Y21.0210
G01 X29.7760 Y21.0114
G01 X29.7665 Y21.0022
G01 X29.7079 Y20.9513
G01 X29.6979 Y20.9431
G01 X29.6874 Y20.9353
G01 X29.7029 Y20.9365
G01 X29.7340 Y20.9379
G01 X29.8488 Y20.9380
G01 X29.8488 Y21.1449
G00 Z2.0000
G00 X31.1001 Y20.9345
G01 F40.00
G01 Z-0.1200
G01 F60.00
G01 X31.0502 Y20.9691
G01 X31.0343 Y20.9810
G01 X31.0242 Y20.9896
G01 X31.0099 Y21.0034
G01 X31.0010 Y21.0131
G01 X30.9926 Y21.0233
G01 X30.9846 Y21.0339
G01 X30.9772 Y21.0449
G01 X30.9704 Y21.0562
G01 X30.9641 Y21.0679
G01 X30.9558 Y21.0859
G01 X30.9322 Y21.1429
G01 X30.9322 Y20.9380
G01 X31.0470 Y20.9379
G01 X31.0846 Y20.9361
G01 X31.1001 Y20.9345
G00 Z2.0000
G00 X31.7417 Y20.9687
G01 F40.00
G01 Z-0.1200
G01 F60.00
G01 X31.6934 Y20.9176
G01 X31.6789 Y20.9041
G01 X31.6635 Y20.8916
G01 X31.6527 Y20.8840
G01 X31.6415 Y20.8769
G01 X31.6241 Y20.8673
G01 X31.6061 Y20.8590
G01 X31.5875 Y20.8521
G01 X31.5684 Y20.8466
G01 X31.4931 Y20.8280
G01 X31.4738 Y20.8244
G01 X31.4543 Y20.8223
G01 X31.4412 Y20.8217
G01 X31.4281 Y20.8217
G01 X31.4150 Y20.8224
G01 X31.4019 Y20.8237
G01 X31.3890 Y20.8256
G01 X31.3761 Y20.8282
G01 X31.3634 Y20.8314
G01 X31.3482 Y20.8360
G01 X31.3631 Y20.8249
G01 X31.3732 Y20.8166
G01 X31.4011 Y20.7913
G01 X31.4103 Y20.7821
G01 X31.4398 Y20.7492
G01 X31.4624 Y20.7192
G01 X31.4700 Y20.7085
G01 X31.4896 Y20.6764
G01 X31.4960 Y20.6650
G01 X31.5151 Y20.6252
G01 X31.5201 Y20.6131
G01 X31.5328 Y20.5777
G01 X31.5366 Y20.5652
G01 X31.5403 Y20.5507
G01 X31.6823 Y20.5507
G01 X31.6803 Y20.5924
G01 X31.6801 Y20.6120
G01 X31.6844 Y20.7019
G01 X31.6853 Y20.7149
G01 X31.6869 Y20.7279
G01 X31.6992 Y20.8104
G01 X31.7028 Y20.8297
G01 X31.7262 Y20.9233
G01 X31.7300 Y20.9358
G01 X31.7417 Y20.9687
G00 Z2.0000
G00 X32.7965 Y21.8836
G01 F40.00
G01 Z-0.1200
G01 F60.00
G01 X32.7763 Y21.8841
G01 X32.6930 Y21.8882
G01 X32.6728 Y21.8897
G01 X32.6527 Y21.8921
G01 X32.5610 Y21.9059
G01 X32.5619 Y21.8947
G01 X32.5629 Y21.8742
G01 X32.5625 Y21.8454
G01 X32.6527 Y21.8589
G01 X32.6728 Y21.8613
G01 X32.6930 Y21.8628
G01 X32.7763 Y21.8669
G01 X32.7965 Y21.8674
G01 X35.0965 Y21.8674
G01 X35.1167 Y21.8669
G01 X35.2000 Y21.8628
G01 X35.2202 Y21.8613
G01 X35.2403 Y21.8589
G01 X35.3320 Y21.8451
G01 X35.3311 Y21.8563
G01 X35.3301 Y21.8768
G01 X35.3305 Y21.9056
G01 X35.2403 Y21.8921
G01 X35.2202 Y21.8897
G01 X35.2000 Y21.8882
G01 X35.1167 Y21.8841
G01 X35.0965 Y21.8836
G01 X32.7965 Y21.8836
G00 Z2.0000
G00 X32.7965 Y22.0290
G01 F40.00
G01 Z-0.1200
G01 F60.00
G01 X32.7834 Y22.0293
G01 X32.7001 Y22.0334
G01 X32.6871 Y22.0343
G01 X32.6741 Y22.0359
G01 X32.5916 Y22.0482
G01 X32.5723 Y22.0518
G01 X32.4850 Y22.0736
G01 X32.4724 Y22.0770
G01 X32.4600 Y22.0812
G01 X32.3814 Y22.1093
G01 X32.3692 Y22.1140
G01 X32.3573 Y22.1193
G01 X32.3060 Y22.1435
G01 X32.3380 Y22.1099
G01 X32.3464 Y22.0997
G01 X32.3544 Y22.0891
G01 X32.3618 Y22.0782
G01 X32.3686 Y22.0668
G01 X32.3778 Y22.0492
G01 X32.3832 Y22.0372
G01 X32.3880 Y22.0248
G01 X32.3922 Y22.0122
G01 X32.3957 Y21.9995
G01 X32.3986 Y21.9866
G01 X32.4137 Y21.9104
G01 X32.4164 Y21.8908
G01 X32.4176 Y21.8710
G01 X32.4173 Y21.8511
G01 X32.4163 Y21.8379
G01 X32.4135 Y21.8182
G01 X32.4093 Y21.7988
G01 X32.4057 Y21.7861
G01 X32.4015 Y21.7736
G01 X32.3732 Y21.7013
G01 X32.3680 Y21.6892
G01 X32.3623 Y21.6773
G01 X32.3560 Y21.6657
G01 X32.3492 Y21.6545
G01 X32.3418 Y21.6436
G01 X32.3339 Y21.6331
G01 X32.3254 Y21.6230
G01 X32.3149 Y21.6117
G01 X32.3573 Y21.6317
G01 X32.3753 Y21.6395
G01 X32.4662 Y21.6720
G01 X32.4850 Y21.6774
G01 X32.5723 Y21.6992
G01 X32.5916 Y21.7028
G01 X32.6741 Y21.7151
G01 X32.6871 Y21.7167
G01 X32.7001 Y21.7176
G01 X32.7834 Y21.7217
G01 X32.7965 Y21.7220
G01 X35.0965 Y21.7220
G01 X35.1096 Y21.7217
G01 X35.1929 Y21.7176
G01 X35.2059 Y21.7167
G01 X35.2189 Y21.7151
G01 X35.3014 Y21.7028
G01 X35.3207 Y21.6992
G01 X35.4080 Y21.6774
G01 X35.4206 Y21.6740
G01 X35.4330 Y21.6698
G01 X35.5116 Y21.6417
G01 X35.5238 Y21.6370
G01 X35.5357 Y21.6317
G01 X35.5870 Y21.6075
G01 X35.5550 Y21.6411
G01 X35.5466 Y21.6513
G01 X35.5386 Y21.6619
G01 X35.5312 Y21.6728
G01 X35.5212 Y21.6900
G01 X35.5152 Y21.7018
G01 X35.5098 Y21.7138
G01 X35.5050 Y21.7262
G01 X35.5008 Y21.7388
G01 X35.4973 Y21.7515
G01 X35.4944 Y21.7644
G01 X35.4793 Y21.8406
G01 X35.4766 Y21.8602
G01 X35.4754 Y21.8800
G01 X35.4757 Y21.8999
G01 X35.4767 Y21.9131
G01 X35.4795 Y21.9328
G01 X35.4837 Y21.9522
G01 X35.4873 Y21.9649
G01 X35.4915 Y21.9774
G01 X35.5198 Y22.0497
G01 X35.5250 Y22.0618
G01 X35.5307 Y22.0737
G01 X35.5370 Y22.0853
G01 X35.5438 Y22.0965
G01 X35.5512 Y22.1074
G01 X35.5591 Y22.1179
G01 X35.5676 Y22.1280
G01 X35.5781 Y22.1393
G01 X35.5357 Y22.1193
G01 X35.5177 Y22.1115
G01 X35.4268 Y22.0790
G01 X35.4080 Y22.0736
G01 X35.3207 Y22.0518
G01 X35.3014 Y22.0482
G01 X35.2189 Y22.0359
G01 X35.2059 Y22.0343
G01 X35.1929 Y22.0334
G01 X35.1096 Y22.0293
G01 X35.0965 Y22.0290
G01 X32.7965 Y22.0290
G00 Z2.0000
G00 X32.7965 Y22.1744
G01 F40.00
G01 Z-0.1200
G01 F60.00
G01 X35.0995 Y22.1744
G01 X35.1917 Y22.1790
G01 X35.2860 Y22.1930
G01 X35.3784 Y22.2162
G01 X35.4681 Y22.2483
G01 X35.5543 Y22.2890
G01 X35.6360 Y22.3380
G01 X35.7126 Y22.3948
G01 X35.7832 Y22.4588
G01 X35.8472 Y22.5294
G01 X35.9040 Y22.6060
G01 X35.9530 Y22.6877
G01 X35.9937 Y22.7739
G01 X36.0258 Y22.8636
G01 X36.0490 Y22.9560
G01 X36.0630 Y23.0503
G01 X36.0676 Y23.1455
G01 X36.0630 Y23.2407
G01 X36.0490 Y23.3350
G01 X36.0258 Y23.4274
G01 X35.9937 Y23.5171
G01 X35.9557 Y23.5980
G01 X35.9500 Y23.6085
G01 X35.9040 Y23.6850
G01 X35.8509 Y23.7569
G01 X35.8433 Y23.7661
G01 X35.7832 Y23.8322
G01 X35.7171 Y23.8923
G01 X35.7079 Y23.8999
G01 X35.6360 Y23.9530
G01 X35.5595 Y23.9990
G01 X35.5490 Y24.0047
G01 X35.4681 Y24.0427
G01 X35.3841 Y24.0730
G01 X35.3727 Y24.0764
G01 X35.2860 Y24.0980
G01 X35.1976 Y24.1112
G01 X35.1858 Y24.1124
G01 X35.0965 Y24.1166
G01 X32.7935 Y24.1166
G01 X32.7013 Y24.1120
G01 X32.6070 Y24.0980
G01 X32.5146 Y24.0748
G01 X32.4249 Y24.0427
G01 X32.3387 Y24.0020
G01 X32.2570 Y23.9530
G01 X32.1804 Y23.8962
G01 X32.1141 Y23.8363
G01 X32.1057 Y23.8279
G01 X32.0497 Y23.7661
G01 X32.0421 Y23.7569
G01 X31.9890 Y23.6850
G01 X31.9400 Y23.6033
G01 X31.8993 Y23.5171
G01 X31.8672 Y23.4274
G01 X31.8440 Y23.3350
G01 X31.8308 Y23.2466
G01 X31.8296 Y23.2348
G01 X31.8255 Y23.1514
G01 X31.8255 Y23.1396
G01 X31.8300 Y23.0503
G01 X31.8440 Y22.9560
G01 X31.8672 Y22.8636
G01 X31.8971 Y22.7794
G01 X31.9017 Y22.7684
G01 X31.9373 Y22.6930
G01 X31.9430 Y22.6825
G01 X31.9890 Y22.6060
G01 X32.0458 Y22.5294
G01 X32.1098 Y22.4588
G01 X32.1804 Y22.3948
G01 X32.2570 Y22.3380
G01 X32.3387 Y22.2890
G01 X32.4249 Y22.2483
G01 X32.5089 Y22.2180
G01 X32.5203 Y22.2146
G01 X32.6012 Y22.1943
G01 X32.6129 Y22.1920
G01 X32.7013 Y22.1790
G01 X32.7965 Y22.1744
G00 Z2.0000
G00 X32.7965 Y24.4236
G01 F40.00
G01 Z-0.1200
G01 F60.00
G01 X32.7763 Y24.4241
G01 X32.6930 Y24.4282
G01 X32.6728 Y24.4297
G01 X32.6527 Y24.4321
G01 X32.5610 Y24.4459
G01 X32.5619 Y24.4347
G01 X32.5629 Y24.4142
G01 X32.5625 Y24.3854
G01 X32.6527 Y24.3989
G01 X32.6728 Y24.4013
G01 X32.6930 Y24.4028
G01 X32.7763 Y24.4069
G01 X32.7965 Y24.4074
G01 X35.0965 Y24.4074
G01 X35.1167 Y24.4069
G01 X35.2000 Y24.4028
G01 X35.2202 Y24.4013
G01 X35.2403 Y24.3989
G01 X35.3320 Y24.3851
G01 X35.3311 Y24.3963
G01 X35.3301 Y24.4168
G01 X35.3305 Y24.4456
G01 X35.2403 Y24.4321
G01 X35.2202 Y24.4297
G01 X35.2000 Y24.4282
G01 X35.1167 Y24.4241
G01 X35.0965 Y24.4236
G01 X32.7965 Y24.4236
G00 Z2.0000
G00 X32.7965 Y24.5690
G01 F40.00
G01 Z-0.1200
G01 F60.00
G01 X32.7834 Y24.5693
G01 X32.7001 Y24.5734
G01 X32.6871 Y24.5743
G01 X32.6741 Y24.5759
G01 X32.5916 Y24.5882
G01 X32.5723 Y24.5918
G01 X32.4850 Y24.6136
G01 X32.4724 Y24.6170
G01 X32.4600 Y24.6212
G01 X32.3814 Y24.6493
G01 X32.3692 Y24.6540
G01 X32.3573 Y24.6593
G01 X32.3060 Y24.6835
G01 X32.3380 Y24.6499
G01 X32.3464 Y24.6397
G01 X32.3544 Y24.6291
G01 X32.3618 Y24.6182
G01 X32.3686 Y24.6068
G01 X32.3778 Y24.5892
G01 X32.3832 Y24.5772
G01 X32.3880 Y24.5648
G01 X32.3922 Y24.5522
G01 X32.3957 Y24.5395
G01 X32.3986 Y24.5266
G01 X32.4137 Y24.4504
G01 X32.4164 Y24.4308
G01 X32.4176 Y24.4110
G01 X32.4173 Y24.3911
G01 X32.4155 Y24.3713
G01 X32.4135 Y24.3582
G01 X32.4093 Y24.3388
G01 X32.4057 Y24.3261
G01 X32.4015 Y24.3136
G01 X32.3732 Y24.2413
G01 X32.3680 Y24.2292
G01 X32.3623 Y24.2173
G01 X32.3560 Y24.2057
G01 X32.3492 Y24.1945
G01 X32.3418 Y24.1836
G01 X32.3339 Y24.1731
G01 X32.3254 Y24.1630
G01 X32.3149 Y24.1517
G01 X32.3573 Y24.1717
G01 X32.3753 Y24.1795
G01 X32.4662 Y24.2120
G01 X32.4850 Y24.2174
G01 X32.5723 Y24.2392
G01 X32.5916 Y24.2428
G01 X32.6741 Y24.2551
G01 X32.6871 Y24.2567
G01 X32.7001 Y24.2576
G01 X32.7834 Y24.2617
G01 X32.7965 Y24.2620
G01 X35.0965 Y24.2620
G01 X35.1096 Y24.2617
G01 X35.1929 Y24.2576
G01 X35.2059 Y24.2567
G01 X35.2189 Y24.2551
G01 X35.3014 Y24.2428
G01 X35.3207 Y24.2392
G01 X35.4080 Y24.2174
G01 X35.4206 Y24.2140
G01 X35.4330 Y24.2098
G01 X35.5116 Y24.1817
G01 X35.5238 Y24.1770
G01 X35.5357 Y24.1717
G01 X35.5870 Y24.1475
G01 X35.5550 Y24.1811
G01 X35.5466 Y24.1913
G01 X35.5386 Y24.2019
G01 X35.5312 Y24.2128
G01 X35.5212 Y24.2300
G01 X35.5152 Y24.2418
G01 X35.5098 Y24.2538
G01 X35.5050 Y24.2662
G01 X35.5008 Y24.2788
G01 X35.4973 Y24.2915
G01 X35.4944 Y24.3044
G01 X35.4793 Y24.3806
G01 X35.4766 Y24.4002
G01 X35.4754 Y24.4200
G01 X35.4757 Y24.4399
G01 X35.4775 Y24.4597
G01 X35.4807 Y24.4793
G01 X35.4837 Y24.4922
G01 X35.4873 Y24.5049
G01 X35.4915 Y24.5174
G01 X35.5198 Y24.5897
G01 X35.5250 Y24.6018
G01 X35.5307 Y24.6137
G01 X35.5370 Y24.6253
G01 X35.5438 Y24.6365
G01 X35.5512 Y24.6474
G01 X35.5591 Y24.6579
G01 X35.5676 Y24.6680
G01 X35.5781 Y24.6793
G01 X35.5357 Y24.6593
G01 X35.5177 Y24.6515
G01 X35.4268 Y24.6190
G01 X35.4080 Y24.6136
G01 X35.3207 Y24.5918
G01 X35.3014 Y24.5882
G01 X35.2189 Y24.5759
G01 X35.2059 Y24.5743
G01 X35.1929 Y24.5734
G01 X35.1096 Y24.5693
G01 X35.0965 Y24.5690
G01 X32.7965 Y24.5690
G00 Z2.0000
G00 X32.7965 Y24.7144
G01 F40.00
G01 Z-0.1200
G01 F60.00
G01 X35.0995 Y24.7144
G01 X35.1917 Y24.7190
G01 X35.2860 Y24.7330
G01 X35.3784 Y24.7562
G01 X35.4681 Y24.7883
G01 X35.5543 Y24.8290
G01 X35.6360 Y24.8780
G01 X35.7126 Y24.9348
G01 X35.7832 Y24.9988
G01 X35.8472 Y25.0694
G01 X35.9040 Y25.1460
G01 X35.9530 Y25.2277
G01 X35.9937 Y25.3139
G01 X36.0258 Y25.4036
G01 X36.0490 Y25.4960
G01 X36.0630 Y25.5903
G01 X36.0676 Y25.6855
G01 X36.0630 Y25.7807
G01 X36.0490 Y25.8750
G01 X36.0258 Y25.9674
G01 X35.9937 Y26.0571
G01 X35.9557 Y26.1380
G01 X35.9500 Y26.1485
G01 X35.9040 Y26.2250
G01 X35.8509 Y26.2969
G01 X35.8433 Y26.3061
G01 X35.7832 Y26.3722
G01 X35.7171 Y26.4323
G01 X35.7079 Y26.4399
G01 X35.6360 Y26.4930
G01 X35.5595 Y26.5390
G01 X35.5490 Y26.5447
G01 X35.4681 Y26.5827
G01 X35.3841 Y26.6130
G01 X35.3727 Y26.6164
G01 X35.2860 Y26.6380
G01 X35.1976 Y26.6512
G01 X35.1858 Y26.6524
G01 X35.0965 Y26.6566
G01 X32.7935 Y26.6566
G01 X32.7013 Y26.6520
G01 X32.6070 Y26.6380
G01 X32.5146 Y26.6148
G01 X32.4249 Y26.5827
G01 X32.3387 Y26.5420
G01 X32.2570 Y26.4930
G01 X32.1804 Y26.4362
G01 X32.1141 Y26.3763
G01 X32.1057 Y26.3679
G01 X32.0497 Y26.3061
G01 X32.0421 Y26.2969
G01 X31.9890 Y26.2250
G01 X31.9400 Y26.1433
G01 X31.8993 Y26.0571
G01 X31.8672 Y25.9674
G01 X31.8440 Y25.8750
G01 X31.8308 Y25.7866
G01 X31.8296 Y25.7748
G01 X31.8255 Y25.6914
G01 X31.8255 Y25.6796
G01 X31.8300 Y25.5903
G01 X31.8440 Y25.4960
G01 X31.8672 Y25.4036
G01 X31.8971 Y25.3194
G01 X31.9017 Y25.3084
G01 X31.9373 Y25.2330
G01 X31.9430 Y25.2225
G01 X31.9890 Y25.1460
G01 X32.0458 Y25.0694
G01 X32.1098 Y24.9988
G01 X32.1804 Y24.9348
G01 X32.2570 Y24.8780
G01 X32.3387 Y24.8290
G01 X32.4249 Y24.7883
G01 X32.5089 Y24.7580
G01 X32.5203 Y24.7546
G01 X32.6012 Y24.7343
G01 X32.6129 Y24.7320
G01 X32.7013 Y24.7190
G01 X32.7965 Y24.7144
G00 Z2.0000
G00 X32.3149 Y26.6917
G01 F40.00
G01 Z-0.1200
G01 F60.00
G01 X32.3573 Y26.7117
G01 X32.3753 Y26.7195
G01 X32.4662 Y26.7520
G01 X32.4850 Y26.7574
G01 X32.5723 Y26.7792
G01 X32.5916 Y26.7828
G01 X32.6741 Y26.7951
G01 X32.6871 Y26.7967
G01 X32.7001 Y26.7976
G01 X32.7834 Y26.8017
G01 X32.7965 Y26.8020
G01 X35.0965 Y26.8020
G01 X35.1096 Y26.8017
G01 X35.1929 Y26.7976
G01 X35.2059 Y26.7967
G01 X35.2189 Y26.7951
G01 X35.3014 Y26.7828
G01 X35.3207 Y26.7792
G01 X35.4080 Y26.7574
G01 X35.4206 Y26.7540
G01 X35.4330 Y26.7498
G01 X35.5116 Y26.7217
G01 X35.5238 Y26.7170
G01 X35.5357 Y26.7117
G01 X35.5870 Y26.6875
G01 X35.5550 Y26.7211
G01 X35.5466 Y26.7313
G01 X35.5386 Y26.7419
G01 X35.5312 Y26.7528
G01 X35.5212 Y26.7700
G01 X35.5152 Y26.7818
G01 X35.5098 Y26.7938
G01 X35.5050 Y26.8062
G01 X35.5008 Y26.8188
G01 X35.4973 Y26.8315
G01 X35.4944 Y26.8444
G01 X35.4793 Y26.9206
G01 X35.4766 Y26.9402
G01 X35.4754 Y26.9600
G01 X35.4757 Y26.9799
G01 X35.4775 Y26.9997
G01 X35.4807 Y27.0193
G01 X35.4837 Y27.0322
G01 X35.4873 Y27.0449
G01 X35.4915 Y27.0574
G01 X35.5198 Y27.1297
G01 X35.5250 Y27.1418
G01 X35.5307 Y27.1537
G01 X35.5370 Y27.1653
G01 X35.5438 Y27.1765
G01 X35.5512 Y27.1874
G01 X35.5591 Y27.1979
G01 X35.5676 Y27.2080
G01 X35.5781 Y27.2193
G01 X35.5357 Y27.1993
G01 X35.5177 Y27.1915
G01 X35.4268 Y27.1590
G01 X35.4080 Y27.1536
G01 X35.3207 Y27.1318
G01 X35.3014 Y27.1282
G01 X35.2189 Y27.1159
G01 X35.2059 Y27.1143
G01 X35.1929 Y27.1134
G01 X35.1096 Y27.1093
G01 X35.0965 Y27.1090
G01 X32.7965 Y27.1090
G01 X32.7834 Y27.1093
G01 X32.7001 Y27.1134
G01 X32.6871 Y27.1143
G01 X32.6741 Y27.1159
G01 X32.5916 Y27.1282
G01 X32.5723 Y27.1318
G01 X32.4850 Y27.1536
G01 X32.4724 Y27.1570
G01 X32.4600 Y27.1612
G01 X32.3814 Y27.1893
G01 X32.3692 Y27.1940
G01 X32.3573 Y27.1993
G01 X32.3060 Y27.2235
G01 X32.3380 Y27.1899
G01 X32.3464 Y27.1797
G01 X32.3544 Y27.1691
G01 X32.3618 Y27.1582
G01 X32.3686 Y27.1468
G01 X32.3778 Y27.1292
G01 X32.3832 Y27.1172
G01 X32.3880 Y27.1048
G01 X32.3922 Y27.0922
G01 X32.3957 Y27.0795
G01 X32.3986 Y27.0666
G01 X32.4137 Y26.9904
G01 X32.4164 Y26.9708
G01 X32.4176 Y26.9510
G01 X32.4173 Y26.9311
G01 X32.4155 Y26.9113
G01 X32.4135 Y26.8982
G01 X32.4093 Y26.8788
G01 X32.4057 Y26.8661
G01 X32.4015 Y26.8536
G01 X32.3732 Y26.7813
G01 X32.3680 Y26.7692
G01 X32.3623 Y26.7573
G01 X32.3560 Y26.7457
G01 X32.3492 Y26.7345
G01 X32.3418 Y26.7236
G01 X32.3339 Y26.7131
G01 X32.3254 Y26.7030
G01 X32.3149 Y26.6917
G00 Z2.0000
G00 X32.5625 Y26.9254
G01 F40.00
G01 Z-0.1200
G01 F60.00
G01 X32.6527 Y26.9389
G01 X32.6728 Y26.9413
G01 X32.6930 Y26.9428
G01 X32.7763 Y26.9469
G01 X32.7965 Y26.9474
G01 X35.0965 Y26.9474
G01 X35.1167 Y26.9469
G01 X35.2000 Y26.9428
G01 X35.2202 Y26.9413
G01 X35.2403 Y26.9389
G01 X35.3320 Y26.9251
G01 X35.3311 Y26.9363
G01 X35.3301 Y26.9568
G01 X35.3305 Y26.9856
G01 X35.2403 Y26.9721
G01 X35.2202 Y26.9697
G01 X35.2000 Y26.9682
G01 X35.1167 Y26.9641
G01 X35.0965 Y26.9636
G01 X32.7965 Y26.9636
G01 X32.7763 Y26.9641
G01 X32.6930 Y26.9682
G01 X32.6728 Y26.9697
G01 X32.6527 Y26.9721
G01 X32.5610 Y26.9859
G01 X32.5619 Y26.9747
G01 X32.5629 Y26.9542
G01 X32.5625 Y26.9254
G00 Z2.0000
G00 X32.7965 Y27.2544
G01 F40.00
G01 Z-0.1200
G01 F60.00
G01 X35.0995 Y27.2544
G01 X35.1917 Y27.2590
G01 X35.2860 Y27.2730
G01 X35.3784 Y27.2962
G01 X35.4681 Y27.3283
G01 X35.5543 Y27.3690
G01 X35.6360 Y27.4180
G01 X35.7126 Y27.4748
G01 X35.7832 Y27.5388
G01 X35.8472 Y27.6094
G01 X35.9040 Y27.6860
G01 X35.9530 Y27.7677
G01 X35.9937 Y27.8539
G01 X36.0258 Y27.9436
G01 X36.0490 Y28.0360
G01 X36.0630 Y28.1303
G01 X36.0676 Y28.2255
G01 X36.0630 Y28.3207
G01 X36.0490 Y28.4150
G01 X36.0258 Y28.5074
G01 X35.9937 Y28.5971
G01 X35.9557 Y28.6780
G01 X35.9500 Y28.6885
G01 X35.9040 Y28.7650
G01 X35.8509 Y28.8369
G01 X35.8433 Y28.8461
G01 X35.7832 Y28.9122
G01 X35.7171 Y28.9723
G01 X35.7079 Y28.9799
G01 X35.6360 Y29.0330
G01 X35.5595 Y29.0790
G01 X35.5490 Y29.0847
G01 X35.4681 Y29.1227
G01 X35.3841 Y29.1530
G01 X35.3727 Y29.1564
G01 X35.2860 Y29.1780
G01 X35.1976 Y29.1912
G01 X35.1858 Y29.1924
G01 X35.0965 Y29.1966
G01 X32.7935 Y29.1966
G01 X32.7013 Y29.1920
G01 X32.6070 Y29.1780
G01 X32.5146 Y29.1548
G01 X32.4249 Y29.1227
G01 X32.3387 Y29.0820
G01 X32.2570 Y29.0330
G01 X32.1804 Y28.9762
G01 X32.1141 Y28.9163
G01 X32.1057 Y28.9079
G01 X32.0497 Y28.8461
G01 X32.0421 Y28.8369
G01 X31.9890 Y28.7650
G01 X31.9400 Y28.6833
G01 X31.8993 Y28.5971
G01 X31.8672 Y28.5074
G01 X31.8440 Y28.4150
G01 X31.8308 Y28.3266
G01 X31.8296 Y28.3148
G01 X31.8255 Y28.2314
G01 X31.8255 Y28.2196
G01 X31.8300 Y28.1303
G01 X31.8440 Y28.0360
G01 X31.8672 Y27.9436
G01 X31.8971 Y27.8594
G01 X31.9017 Y27.8484
G01 X31.9373 Y27.7730
G01 X31.9430 Y27.7625
G01 X31.9890 Y27.6860
G01 X32.0458 Y27.6094
G01 X32.1098 Y27.5388
G01 X32.1804 Y27.4748
G01 X32.2570 Y27.4180
G01 X32.3387 Y27.3690
G01 X32.4249 Y27.3283
G01 X32.5089 Y27.2980
G01 X32.5203 Y27.2946
G01 X32.6012 Y27.2743
G01 X32.6129 Y27.2720
G01 X32.7013 Y27.2590
G01 X32.7965 Y27.2544
G00 Z2.0000
G00 X32.3149 Y29.2317
G01 F40.00
G01 Z-0.1200
G01 F60.00
G01 X32.3573 Y29.2517
G01 X32.3753 Y29.2595
G01 X32.4662 Y29.2920
G01 X32.4850 Y29.2974
G01 X32.5723 Y29.3192
G01 X32.5916 Y29.3228
G01 X32.6741 Y29.3351
G01 X32.6871 Y29.3367
G01 X32.7001 Y29.3376
G01 X32.7834 Y29.3417
G01 X32.7965 Y29.3420
G01 X35.0965 Y29.3420
G01 X35.1096 Y29.3417
G01 X35.1929 Y29.3376
G01 X35.2059 Y29.3367
G01 X35.2189 Y29.3351
G01 X35.3014 Y29.3228
G01 X35.3207 Y29.3192
G01 X35.4080 Y29.2974
G01 X35.4206 Y29.2940
G01 X35.4330 Y29.2898
G01 X35.5116 Y29.2617
G01 X35.5238 Y29.2570
G01 X35.5357 Y29.2517
G01 X35.5870 Y29.2275
G01 X35.5550 Y29.2611
G01 X35.5466 Y29.2713
G01 X35.5386 Y29.2819
G01 X35.5312 Y29.2928
G01 X35.5212 Y29.3100
G01 X35.5152 Y29.3218
G01 X35.5098 Y29.3338
G01 X35.5050 Y29.3462
G01 X35.5008 Y29.3588
G01 X35.4973 Y29.3715
G01 X35.4944 Y29.3844
G01 X35.4793 Y29.4606
G01 X35.4766 Y29.4802
G01 X35.4754 Y29.5000
G01 X35.4757 Y29.5199
G01 X35.4767 Y29.5331
G01 X35.4795 Y29.5528
G01 X35.4837 Y29.5722
G01 X35.4873 Y29.5849
G01 X35.4915 Y29.5974
G01 X35.5198 Y29.6697
G01 X35.5250 Y29.6818
G01 X35.5307 Y29.6937
G01 X35.5370 Y29.7053
G01 X35.5438 Y29.7165
G01 X35.5512 Y29.7274
G01 X35.5591 Y29.7379
G01 X35.5676 Y29.7480
G01 X35.5781 Y29.7593
G01 X35.5357 Y29.7393
G01 X35.5177 Y29.7315
G01 X35.4268 Y29.6990
G01 X35.4080 Y29.6936
G01 X35.3207 Y29.6718
G01 X35.3014 Y29.6682
G01 X35.2189 Y29.6559
G01 X35.2059 Y29.6543
G01 X35.1929 Y29.6534
G01 X35.1096 Y29.6493
G01 X35.0965 Y29.6490
G01 X32.7965 Y29.6490
G01 X32.7834 Y29.6493
G01 X32.7001 Y29.6534
G01 X32.6871 Y29.6543
G01 X32.6741 Y29.6559
G01 X32.5916 Y29.6682
G01 X32.5723 Y29.6718
G01 X32.4850 Y29.6936
G01 X32.4724 Y29.6970
G01 X32.4600 Y29.7012
G01 X32.3814 Y29.7293
G01 X32.3692 Y29.7340
G01 X32.3573 Y29.7393
G01 X32.3060 Y29.7635
G01 X32.3380 Y29.7299
G01 X32.3464 Y29.7197
G01 X32.3544 Y29.7091
G01 X32.3618 Y29.6982
G01 X32.3686 Y29.6868
G01 X32.3778 Y29.6692
G01 X32.3832 Y29.6572
G01 X32.3880 Y29.6448
G01 X32.3922 Y29.6322
G01 X32.3957 Y29.6195
G01 X32.3986 Y29.6066
G01 X32.4137 Y29.5304
G01 X32.4164 Y29.5108
G01 X32.4176 Y29.4910
G01 X32.4173 Y29.4711
G01 X32.4163 Y29.4579
G01 X32.4135 Y29.4382
G01 X32.4093 Y29.4188
G01 X32.4057 Y29.4061
G01 X32.4015 Y29.3936
G01 X32.3732 Y29.3213
G01 X32.3680 Y29.3092
G01 X32.3623 Y29.2973
G01 X32.3560 Y29.2857
G01 X32.3492 Y29.2745
G01 X32.3418 Y29.2636
G01 X32.3339 Y29.2531
G01 X32.3254 Y29.2430
G01 X32.3149 Y29.2317
G00 Z2.0000
G00 X32.5625 Y29.4654
G01 F40.00
G01 Z-0.1200
G01 F60.00
G01 X32.6527 Y29.4789
G01 X32.6728 Y29.4813
G01 X32.6930 Y29.4828
G01 X32.7763 Y29.4869
G01 X32.7965 Y29.4874
G01 X35.0965 Y29.4874
G01 X35.1167 Y29.4869
G01 X35.2000 Y29.4828
G01 X35.2202 Y29.4813
G01 X35.2403 Y29.4789
G01 X35.3320 Y29.4651
G01 X35.3311 Y29.4763
G01 X35.3301 Y29.4968
G01 X35.3305 Y29.5256
G01 X35.2403 Y29.5121
G01 X35.2202 Y29.5097
G01 X35.2000 Y29.5082
G01 X35.1167 Y29.5041
G01 X35.0965 Y29.5036
G01 X32.7965 Y29.5036
G01 X32.7763 Y29.5041
G01 X32.6930 Y29.5082
G01 X32.6728 Y29.5097
G01 X32.6527 Y29.5121
G01 X32.5610 Y29.5259
G01 X32.5619 Y29.5147
G01 X32.5629 Y29.4942
G01 X32.5625 Y29.4654
G00 Z2.0000
G00 X32.7965 Y29.7944
G01 F40.00
G01 Z-0.1200
G01 F60.00
G01 X35.0995 Y29.7944
G01 X35.1917 Y29.7990
G01 X35.2860 Y29.8130
G01 X35.3784 Y29.8362
G01 X35.4681 Y29.8683
G01 X35.5543 Y29.9090
G01 X35.6360 Y29.9580
G01 X35.7126 Y30.0148
G01 X35.7832 Y30.0788
G01 X35.8472 Y30.1494
G01 X35.9040 Y30.2260
G01 X35.9530 Y30.3077
G01 X35.9937 Y30.3939
G01 X36.0258 Y30.4836
G01 X36.0490 Y30.5760
G01 X36.0630 Y30.6703
G01 X36.0676 Y30.7655
G01 X36.0630 Y30.8607
G01 X36.0490 Y30.9550
G01 X36.0258 Y31.0474
G01 X35.9937 Y31.1371
G01 X35.9557 Y31.2180
G01 X35.9500 Y31.2285
G01 X35.9040 Y31.3050
G01 X35.8509 Y31.3769
G01 X35.8433 Y31.3861
G01 X35.7832 Y31.4522
G01 X35.7171 Y31.5123
G01 X35.7079 Y31.5199
G01 X35.6360 Y31.5730
G01 X35.5595 Y31.6190
G01 X35.5490 Y31.6247
G01 X35.4681 Y31.6627
G01 X35.3841 Y31.6930
G01 X35.3727 Y31.6964
G01 X35.2860 Y31.7180
G01 X35.1976 Y31.7312
G01 X35.1858 Y31.7324
G01 X35.0965 Y31.7366
G01 X32.7935 Y31.7366
G01 X32.7013 Y31.7320
G01 X32.6070 Y31.7180
G01 X32.5146 Y31.6948
G01 X32.4249 Y31.6627
G01 X32.3387 Y31.6220
G01 X32.2570 Y31.5730
G01 X32.1804 Y31.5162
G01 X32.1141 Y31.4563
G01 X32.1057 Y31.4479
G01 X32.0497 Y31.3861
G01 X32.0421 Y31.3769
G01 X31.9890 Y31.3050
G01 X31.9400 Y31.2233
G01 X31.8993 Y31.1371
G01 X31.8672 Y31.0474
G01 X31.8440 Y30.9550
G01 X31.8308 Y30.8666
G01 X31.8296 Y30.8548
G01 X31.8255 Y30.7714
G01 X31.8255 Y30.7596
G01 X31.8300 Y30.6703
G01 X31.8440 Y30.5760
G01 X31.8672 Y30.4836
G01 X31.8971 Y30.3994
G01 X31.9017 Y30.3884
G01 X31.9373 Y30.3130
G01 X31.9430 Y30.3025
G01 X31.9890 Y30.2260
G01 X32.0458 Y30.1494
G01 X32.1098 Y30.0788
G01 X32.1804 Y30.0148
G01 X32.2570 Y29.9580
G01 X32.3387 Y29.9090
G01 X32.4249 Y29.8683
G01 X32.5089 Y29.8380
G01 X32.5203 Y29.8346
G01 X32.6012 Y29.8143
G01 X32.6129 Y29.8120
G01 X32.7013 Y29.7990
G01 X32.7965 Y29.7944
G00 Z2.0000
G00 X32.3149 Y31.7717
G01 F40.00
G01 Z-0.1200
G01 F60.00
G01 X32.3573 Y31.7917
G01 X32.3753 Y31.7995
G01 X32.4662 Y31.8320
G01 X32.4850 Y31.8374
G01 X32.5723 Y31.8592
G01 X32.5916 Y31.8628
G01 X32.6741 Y31.8751
G01 X32.6871 Y31.8767
G01 X32.7001 Y31.8776
G01 X32.7834 Y31.8817
G01 X32.7965 Y31.8820
G01 X35.0965 Y31.8820
G01 X35.1096 Y31.8817
G01 X35.1929 Y31.8776
G01 X35.2059 Y31.8767
G01 X35.2189 Y31.8751
G01 X35.3014 Y31.8628
G01 X35.3207 Y31.8592
G01 X35.4080 Y31.8374
G01 X35.4206 Y31.8340
G01 X35.4330 Y31.8298
G01 X35.5116 Y31.8017
G01 X35.5238 Y31.7970
G01 X35.5357 Y31.7917
G01 X35.5870 Y31.7675
G01 X35.5550 Y31.8011
G01 X35.5466 Y31.8113
G01 X35.5386 Y31.8219
G01 X35.5312 Y31.8328
G01 X35.5212 Y31.8500
G01 X35.5152 Y31.8618
G01 X35.5098 Y31.8738
G01 X35.5050 Y31.8862
G01 X35.5008 Y31.8988
G01 X35.4973 Y31.9115
G01 X35.4944 Y31.9244
G01 X35.4793 Y32.0006
G01 X35.4766 Y32.0202
G01 X35.4754 Y32.0400
G01 X35.4757 Y32.0599
G01 X35.4775 Y32.0797
G01 X35.4807 Y32.0993
G01 X35.4837 Y32.1122
G01 X35.4873 Y32.1249
G01 X35.4915 Y32.1374
G01 X35.5198 Y32.2097
G01 X35.5250 Y32.2218
G01 X35.5307 Y32.2337
G01 X35.5370 Y32.2453
G01 X35.5438 Y32.2565
G01 X35.5512 Y32.2674
G01 X35.5591 Y32.2779
G01 X35.5676 Y32.2880
G01 X35.5781 Y32.2993
G01 X35.5357 Y32.2793
G01 X35.5177 Y32.2715
G01 X35.4268 Y32.2390
G01 X35.4080 Y32.2336
G01 X35.3207 Y32.2118
G01 X35.3014 Y32.2082
G01 X35.2189 Y32.1959
G01 X35.2059 Y32.1943
G01 X35.1929 Y32.1934
G01 X35.1096 Y32.1893
G01 X35.0965 Y32.1890
G01 X32.7965 Y32.1890
G01 X32.7834 Y32.1893
G01 X32.7001 Y32.1934
G01 X32.6871 Y32.1943
G01 X32.6741 Y32.1959
G01 X32.5916 Y32.2082
G01 X32.5723 Y32.2118
G01 X32.4850 Y32.2336
G01 X32.4724 Y32.2370
G01 X32.4600 Y32.2412
G01 X32.3814 Y32.2693
G01 X32.3692 Y32.2740
G01 X32.3573 Y32.2793
G01 X32.3060 Y32.3035
G01 X32.3380 Y32.2699
G01 X32.3464 Y32.2597
G01 X32.3544 Y32.2491
G01 X32.3618 Y32.2382
G01 X32.3686 Y32.2268
G01 X32.3778 Y32.2092
G01 X32.3832 Y32.1972
G01 X32.3880 Y32.1848
G01 X32.3922 Y32.1722
G01 X32.3957 Y32.1595
G01 X32.3986 Y32.1466
G01 X32.4137 Y32.0704
G01 X32.4164 Y32.0508
G01 X32.4176 Y32.0310
G01 X32.4173 Y32.0111
G01 X32.4155 Y31.9913
G01 X32.4135 Y31.9782
G01 X32.4093 Y31.9588
G01 X32.4057 Y31.9461
G01 X32.4015 Y31.9336
G01 X32.3732 Y31.8613
G01 X32.3680 Y31.8492
G01 X32.3623 Y31.8373
G01 X32.3560 Y31.8257
G01 X32.3492 Y31.8145
G01 X32.3418 Y31.8036
G01 X32.3339 Y31.7931
G01 X32.3254 Y31.7830
G01 X32.3149 Y31.7717
G00 Z2.0000
G00 X32.5625 Y32.0054
G01 F40.00
G01 Z-0.1200
G01 F60.00
G01 X32.6527 Y32.0189
G01 X32.6728 Y32.0213
G01 X32.6930 Y32.0228
G01 X32.7763 Y32.0269
G01 X32.7965 Y32.0274
G01 X35.0965 Y32.0274
G01 X35.1167 Y32.0269
G01 X35.2000 Y32.0228
G01 X35.2202 Y32.0213
G01 X35.2403 Y32.0189
G01 X35.3320 Y32.0051
G01 X35.3311 Y32.0163
G01 X35.3301 Y32.0368
G01 X35.3305 Y32.0656
G01 X35.2403 Y32.0521
G01 X35.2202 Y32.0497
G01 X35.2000 Y32.0482
G01 X35.1167 Y32.0441
G01 X35.0965 Y32.0436
G01 X32.7965 Y32.0436
G01 X32.7763 Y32.0441
G01 X32.6930 Y32.0482
G01 X32.6728 Y32.0497
G01 X32.6527 Y32.0521
G01 X32.5610 Y32.0659
G01 X32.5619 Y32.0547
G01 X32.5629 Y32.0342
G01 X32.5625 Y32.0054
G00 Z2.0000
G00 X32.7965 Y32.3344
G01 F40.00
G01 Z-0.1200
G01 F60.00
G01 X35.0995 Y32.3344
G01 X35.1917 Y32.3390
G01 X35.2860 Y32.3530
G01 X35.3784 Y32.3762
G01 X35.4681 Y32.4083
G01 X35.5543 Y32.4490
G01 X35.6360 Y32.4980
G01 X35.7126 Y32.5548
G01 X35.7832 Y32.6188
G01 X35.8472 Y32.6894
G01 X35.9040 Y32.7660
G01 X35.9530 Y32.8477
G01 X35.9937 Y32.9339
G01 X36.0258 Y33.0236
G01 X36.0490 Y33.1160
G01 X36.0630 Y33.2103
G01 X36.0676 Y33.3055
G01 X36.0630 Y33.4007
G01 X36.0490 Y33.4950
G01 X36.0258 Y33.5874
G01 X35.9937 Y33.6771
G01 X35.9557 Y33.7580
G01 X35.9500 Y33.7685
G01 X35.9040 Y33.8450
G01 X35.8509 Y33.9169
G01 X35.8433 Y33.9261
G01 X35.7832 Y33.9922
G01 X35.7171 Y34.0523
G01 X35.7079 Y34.0599
G01 X35.6360 Y34.1130
G01 X35.5595 Y34.1590
G01 X35.5490 Y34.1647
G01 X35.4681 Y34.2027
G01 X35.3841 Y34.2330
G01 X35.3727 Y34.2364
G01 X35.2860 Y34.2580
G01 X35.1976 Y34.2712
G01 X35.1858 Y34.2724
G01 X35.0965 Y34.2766
G01 X32.7935 Y34.2766
G01 X32.7013 Y34.2720
G01 X32.6070 Y34.2580
G01 X32.5146 Y34.2348
G01 X32.4249 Y34.2027
G01 X32.3387 Y34.1620
G01 X32.2570 Y34.1130
G01 X32.1804 Y34.0562
G01 X32.1141 Y33.9963
G01 X32.1057 Y33.9879
G01 X32.0497 Y33.9261
G01 X32.0421 Y33.9169
G01 X31.9890 Y33.8450
G01 X31.9400 Y33.7633
G01 X31.8993 Y33.6771
G01 X31.8672 Y33.5874
G01 X31.8440 Y33.4950
G01 X31.8308 Y33.4066
G01 X31.8296 Y33.3948
G01 X31.8255 Y33.3114
G01 X31.8255 Y33.2996
G01 X31.8300 Y33.2103
G01 X31.8440 Y33.1160
G01 X31.8672 Y33.0236
G01 X31.8971 Y32.9394
G01 X31.9017 Y32.9284
G01 X31.9373 Y32.8530
G01 X31.9430 Y32.8425
G01 X31.9890 Y32.7660
G01 X32.0458 Y32.6894
G01 X32.1098 Y32.6188
G01 X32.1804 Y32.5548
G01 X32.2570 Y32.4980
G01 X32.3387 Y32.4490
G01 X32.4249 Y32.4083
G01 X32.5089 Y32.3780
G01 X32.5203 Y32.3746
G01 X32.6012 Y32.3543
G01 X32.6129 Y32.3520
G01 X32.7013 Y32.3390
G01 X32.7965 Y32.3344
G00 Z2.0000
G00 X32.7965 Y34.8744
G01 F40.00
G01 Z-0.1200
G01 F60.00
G01 X35.0995 Y34.8744
G01 X35.1917 Y34.8790
G01 X35.2860 Y34.8930
G01 X35.3784 Y34.9162
G01 X35.4681 Y34.9483
G01 X35.5543 Y34.9890
G01 X35.6360 Y35.0380
G01 X35.7126 Y35.0948
G01 X35.7832 Y35.1588
G01 X35.8472 Y35.2294
G01 X35.9040 Y35.3060
G01 X35.9530 Y35.3877
G01 X35.9937 Y35.4739
G01 X36.0258 Y35.5636
G01 X36.0490 Y35.6560
G01 X36.0630 Y35.7503
G01 X36.0676 Y35.8455
G01 X36.0630 Y35.9407
G01 X36.0490 Y36.0350
G01 X36.0258 Y36.1274
G01 X35.9937 Y36.2171
G01 X35.9557 Y36.2980
G01 X35.9500 Y36.3085
G01 X35.9040 Y36.3850
G01 X35.8509 Y36.4569
G01 X35.8433 Y36.4661
G01 X35.7832 Y36.5322
G01 X35.7171 Y36.5923
G01 X35.7079 Y36.5999
G01 X35.6360 Y36.6530
G01 X35.5595 Y36.6990
G01 X35.5490 Y36.7047
G01 X35.4681 Y36.7427
G01 X35.3841 Y36.7730
G01 X35.3727 Y36.7764
G01 X35.2860 Y36.7980
G01 X35.1976 Y36.8112
G01 X35.1858 Y36.8124
G01 X35.0965 Y36.8166
G01 X32.7935 Y36.8166
G01 X32.7013 Y36.8120
G01 X32.6070 Y36.7980
G01 X32.5146 Y36.7748
G01 X32.4249 Y36.7427
G01 X32.3387 Y36.7020
G01 X32.2570 Y36.6530
G01 X32.1804 Y36.5962
G01 X32.1141 Y36.5363
G01 X32.1057 Y36.5279
G01 X32.0497 Y36.4661
G01 X32.0421 Y36.4569
G01 X31.9890 Y36.3850
G01 X31.9400 Y36.3033
G01 X31.8993 Y36.2171
G01 X31.8672 Y36.1274
G01 X31.8440 Y36.0350
G01 X31.8308 Y35.9466
G01 X31.8296 Y35.9348
G01 X31.8255 Y35.8514
G01 X31.8255 Y35.8396
G01 X31.8300 Y35.7503
G01 X31.8440 Y35.6560
G01 X31.8672 Y35.5636
G01 X31.8971 Y35.4794
G01 X31.9017 Y35.4684
G01 X31.9373 Y35.3930
G01 X31.9430 Y35.3825
G01 X31.9890 Y35.3060
G01 X32.0458 Y35.2294
G01 X32.1098 Y35.1588
G01 X32.1804 Y35.0948
G01 X32.2570 Y35.0380
G01 X32.3387 Y34.9890
G01 X32.4249 Y34.9483
G01 X32.5089 Y34.9180
G01 X32.5203 Y34.9146
G01 X32.6012 Y34.8943
G01 X32.6129 Y34.8920
G01 X32.7013 Y34.8790
G01 X32.7965 Y34.8744
G00 Z2.0000
G00 X32.7965 Y37.4144
G01 F40.00
G01 Z-0.1200
G01 F60.00
G01 X35.0995 Y37.4144
G01 X35.1917 Y37.4190
G01 X35.2860 Y37.4330
G01 X35.3784 Y37.4562
G01 X35.4681 Y37.4883
G01 X35.5543 Y37.5290
G01 X35.6360 Y37.5780
G01 X35.7126 Y37.6348
G01 X35.7832 Y37.6988
G01 X35.8472 Y37.7694
G01 X35.9040 Y37.8460
G01 X35.9530 Y37.9277
G01 X35.9937 Y38.0139
G01 X36.0258 Y38.1036
G01 X36.0490 Y38.1960
G01 X36.0630 Y38.2903
G01 X36.0676 Y38.3855
G01 X36.0630 Y38.4807
G01 X36.0490 Y38.5750
G01 X36.0258 Y38.6674
G01 X35.9937 Y38.7571
G01 X35.9557 Y38.8380
G01 X35.9500 Y38.8485
G01 X35.9040 Y38.9250
G01 X35.8509 Y38.9969
G01 X35.8433 Y39.0061
G01 X35.7832 Y39.0722
G01 X35.7171 Y39.1323
G01 X35.7079 Y39.1399
G01 X35.6360 Y39.1930
G01 X35.5595 Y39.2390
G01 X35.5490 Y39.2447
G01 X35.4681 Y39.2827
G01 X35.3841 Y39.3130
G01 X35.3727 Y39.3164
G01 X35.2860 Y39.3380
G01 X35.1976 Y39.3512
G01 X35.1858 Y39.3524
G01 X35.0965 Y39.3566
G01 X32.7935 Y39.3566
G01 X32.7013 Y39.3520
G01 X32.6070 Y39.3380
G01 X32.5146 Y39.3148
G01 X32.4249 Y39.2827
G01 X32.3387 Y39.2420
G01 X32.2570 Y39.1930
G01 X32.1804 Y39.1362
G01 X32.1141 Y39.0763
G01 X32.1057 Y39.0679
G01 X32.0497 Y39.0061
G01 X32.0421 Y38.9969
G01 X31.9890 Y38.9250
G01 X31.9400 Y38.8433
G01 X31.8993 Y38.7571
G01 X31.8672 Y38.6674
G01 X31.8440 Y38.5750
G01 X31.8308 Y38.4866
G01 X31.8296 Y38.4748
G01 X31.8255 Y38.3914
G01 X31.8255 Y38.3796
G01 X31.8300 Y38.2903
G01 X31.8440 Y38.1960
G01 X31.8672 Y38.1036
G01 X31.8971 Y38.0194
G01 X31.9017 Y38.0084
G01 X31.9373 Y37.9330
G01 X31.9430 Y37.9225
G01 X31.9890 Y37.8460
G01 X32.0458 Y37.7694
G01 X32.1098 Y37.6988
G01 X32.1804 Y37.6348
G01 X32.2570 Y37.5780
G01 X32.3387 Y37.5290
G01 X32.4249 Y37.4883
G01 X32.5089 Y37.4580
G01 X32.5203 Y37.4546
G01 X32.6012 Y37.4343
G01 X32.6129 Y37.4320
G01 X32.7013 Y37.4190
G01 X32.7965 Y37.4144
G00 Z2.0000
G00 X32.7965 Y39.9544
G01 F40.00
G01 Z-0.1200
G01 F60.00
G01 X35.0995 Y39.9544
G01 X35.1917 Y39.9590
G01 X35.2860 Y39.9730
G01 X35.3784 Y39.9962
G01 X35.4681 Y40.0283
G01 X35.5543 Y40.0690
G01 X35.6360 Y40.1180
G01 X35.7126 Y40.1748
G01 X35.7832 Y40.2388
G01 X35.8472 Y40.3094
G01 X35.9040 Y40.3860
G01 X35.9530 Y40.4677
G01 X35.9937 Y40.5539
G01 X36.0258 Y40.6436
G01 X36.0490 Y40.7360
G01 X36.0630 Y40.8303
G01 X36.0676 Y40.9255
G01 X36.0630 Y41.0207
G01 X36.0490 Y41.1150
G01 X36.0258 Y41.2074
G01 X35.9937 Y41.2971
G01 X35.9557 Y41.3780
G01 X35.9500 Y41.3885
G01 X35.9040 Y41.4650
G01 X35.8509 Y41.5369
G01 X35.8433 Y41.5461
G01 X35.7832 Y41.6122
G01 X35.7171 Y41.6723
G01 X35.7079 Y41.6799
G01 X35.6360 Y41.7330
G01 X35.5595 Y41.7790
G01 X35.5490 Y41.7847
G01 X35.4681 Y41.8227
G01 X35.3841 Y41.8530
G01 X35.3727 Y41.8564
G01 X35.2860 Y41.8780
G01 X35.1976 Y41.8912
G01 X35.1858 Y41.8924
G01 X35.0965 Y41.8966
G01 X32.7935 Y41.8966
G01 X32.7013 Y41.8920
G01 X32.6070 Y41.8780
G01 X32.5146 Y41.8548
G01 X32.4249 Y41.8227
G01 X32.3387 Y41.7820
G01 X32.2570 Y41.7330
G01 X32.1804 Y41.6762
G01 X32.1141 Y41.6163
G01 X32.1057 Y41.6079
G01 X32.0497 Y41.5461
G01 X32.0421 Y41.5369
G01 X31.9890 Y41.4650
G01 X31.9400 Y41.3833
G01 X31.8993 Y41.2971
G01 X31.8672 Y41.2074
G01 X31.8440 Y41.1150
G01 X31.8308 Y41.0266
G01 X31.8296 Y41.0148
G01 X31.8255 Y40.9314
G01 X31.8255 Y40.9196
G01 X31.8300 Y40.8303
G01 X31.8440 Y40.7360
G01 X31.8672 Y40.6436
G01 X31.8971 Y40.5594
G01 X31.9017 Y40.5484
G01 X31.9373 Y40.4730
G01 X31.9430 Y40.4625
G01 X31.9890 Y40.3860
G01 X32.0458 Y40.3094
G01 X32.1098 Y40.2388
G01 X32.1804 Y40.1748
G01 X32.2570 Y40.1180
G01 X32.3387 Y40.0690
G01 X32.4249 Y40.0283
G01 X32.5089 Y39.9980
G01 X32.5203 Y39.9946
G01 X32.6012 Y39.9743
G01 X32.6129 Y39.9720
G01 X32.7013 Y39.9590
G01 X32.7965 Y39.9544
G00 Z2.0000
G00 X32.7965 Y42.4944
G01 F40.00
G01 Z-0.1200
G01 F60.00
G01 X35.0995 Y42.4944
G01 X35.1917 Y42.4990
G01 X35.2860 Y42.5130
G01 X35.3784 Y42.5362
G01 X35.4681 Y42.5683
G01 X35.5543 Y42.6090
G01 X35.6360 Y42.6580
G01 X35.7126 Y42.7148
G01 X35.7832 Y42.7788
G01 X35.8472 Y42.8494
G01 X35.9040 Y42.9260
G01 X35.9530 Y43.0077
G01 X35.9937 Y43.0939
G01 X36.0258 Y43.1836
G01 X36.0490 Y43.2760
G01 X36.0630 Y43.3703
G01 X36.0676 Y43.4655
G01 X36.0630 Y43.5607
G01 X36.0490 Y43.6550
G01 X36.0258 Y43.7474
G01 X35.9937 Y43.8371
G01 X35.9557 Y43.9180
G01 X35.9500 Y43.9285
G01 X35.9040 Y44.0050
G01 X35.8509 Y44.0769
G01 X35.8433 Y44.0861
G01 X35.7832 Y44.1522
G01 X35.7171 Y44.2123
G01 X35.7079 Y44.2199
G01 X35.6360 Y44.2730
G01 X35.5595 Y44.3190
G01 X35.5490 Y44.3247
G01 X35.4681 Y44.3627
G01 X35.3841 Y44.3930
G01 X35.3727 Y44.3964
G01 X35.2860 Y44.4180
G01 X35.1976 Y44.4312
G01 X35.1858 Y44.4324
G01 X35.0965 Y44.4366
G01 X32.7935 Y44.4366
G01 X32.7013 Y44.4320
G01 X32.6070 Y44.4180
G01 X32.5146 Y44.3948
G01 X32.4249 Y44.3627
G01 X32.3387 Y44.3220
G01 X32.2570 Y44.2730
G01 X32.1804 Y44.2162
G01 X32.1141 Y44.1563
G01 X32.1057 Y44.1479
G01 X32.0497 Y44.0861
G01 X32.0421 Y44.0769
G01 X31.9890 Y44.0050
G01 X31.9400 Y43.9233
G01 X31.8993 Y43.8371
G01 X31.8672 Y43.7474
G01 X31.8440 Y43.6550
G01 X31.8308 Y43.5666
G01 X31.8296 Y43.5548
G01 X31.8255 Y43.4714
G01 X31.8255 Y43.4596
G01 X31.8300 Y43.3703
G01 X31.8440 Y43.2760
G01 X31.8672 Y43.1836
G01 X31.8971 Y43.0994
G01 X31.9017 Y43.0884
G01 X31.9373 Y43.0130
G01 X31.9430 Y43.0025
G01 X31.9890 Y42.9260
G01 X32.0458 Y42.8494
G01 X32.1098 Y42.7788
G01 X32.1804 Y42.7148
G01 X32.2570 Y42.6580
G01 X32.3387 Y42.6090
G01 X32.4249 Y42.5683
G01 X32.5089 Y42.5380
G01 X32.5203 Y42.5346
G01 X32.6012 Y42.5143
G01 X32.6129 Y42.5120
G01 X32.7013 Y42.4990
G01 X32.7965 Y42.4944
G00 Z2.0000
G00 X32.7965 Y45.0344
G01 F40.00
G01 Z-0.1200
G01 F60.00
G01 X35.0995 Y45.0344
G01 X35.1917 Y45.0390
G01 X35.2860 Y45.0530
G01 X35.3784 Y45.0762
G01 X35.4681 Y45.1083
G01 X35.5543 Y45.1490
G01 X35.6360 Y45.1980
G01 X35.7126 Y45.2548
G01 X35.7832 Y45.3188
G01 X35.8472 Y45.3894
G01 X35.9040 Y45.4660
G01 X35.9530 Y45.5477
G01 X35.9937 Y45.6339
G01 X36.0258 Y45.7236
G01 X36.0490 Y45.8160
G01 X36.0630 Y45.9103
G01 X36.0676 Y46.0055
G01 X36.0630 Y46.1007
G01 X36.0490 Y46.1950
G01 X36.0258 Y46.2874
G01 X35.9937 Y46.3771
G01 X35.9557 Y46.4580
G01 X35.9500 Y46.4685
G01 X35.9040 Y46.5450
G01 X35.8509 Y46.6169
G01 X35.8433 Y46.6261
G01 X35.7832 Y46.6922
G01 X35.7171 Y46.7523
G01 X35.7079 Y46.7599
G01 X35.6360 Y46.8130
G01 X35.5595 Y46.8590
G01 X35.5490 Y46.8647
G01 X35.4681 Y46.9027
G01 X35.3841 Y46.9330
G01 X35.3727 Y46.9364
G01 X35.2860 Y46.9580
G01 X35.1976 Y46.9712
G01 X35.1858 Y46.9724
G01 X35.0965 Y46.9766
G01 X32.7935 Y46.9766
G01 X32.7013 Y46.9720
G01 X32.6070 Y46.9580
G01 X32.5146 Y46.9348
G01 X32.4249 Y46.9027
G01 X32.3387 Y46.8620
G01 X32.2570 Y46.8130
G01 X32.1804 Y46.7562
G01 X32.1141 Y46.6963
G01 X32.1057 Y46.6879
G01 X32.0497 Y46.6261
G01 X32.0421 Y46.6169
G01 X31.9890 Y46.5450
G01 X31.9400 Y46.4633
G01 X31.8993 Y46.3771
G01 X31.8672 Y46.2874
G01 X31.8440 Y46.1950
G01 X31.8308 Y46.1066
G01 X31.8296 Y46.0948
G01 X31.8255 Y46.0114
G01 X31.8255 Y45.9996
G01 X31.8300 Y45.9103
G01 X31.8440 Y45.8160
G01 X31.8672 Y45.7236
G01 X31.8971 Y45.6394
G01 X31.9017 Y45.6284
G01 X31.9373 Y45.5530
G01 X31.9430 Y45.5425
G01 X31.9890 Y45.4660
G01 X32.0458 Y45.3894
G01 X32.1098 Y45.3188
G01 X32.1804 Y45.2548
G01 X32.2570 Y45.1980
G01 X32.3387 Y45.1490
G01 X32.4249 Y45.1083
G01 X32.5089 Y45.0780
G01 X32.5203 Y45.0746
G01 X32.6012 Y45.0543
G01 X32.6129 Y45.0520
G01 X32.7013 Y45.0390
G01 X32.7965 Y45.0344
G00 Z2.0000
G00 X32.7965 Y47.5744
G01 F40.00
G01 Z-0.1200
G01 F60.00
G01 X35.0965 Y47.5744
G01 X35.1887 Y47.5788
G01 X35.1976 Y47.5798
G01 X35.2801 Y47.5920
G01 X35.2918 Y47.5943
G01 X35.3784 Y47.6162
G01 X35.4681 Y47.6483
G01 X35.5490 Y47.6863
G01 X35.5595 Y47.6920
G01 X35.6360 Y47.7380
G01 X35.7126 Y47.7948
G01 X35.7789 Y47.8547
G01 X35.7873 Y47.8631
G01 X35.8472 Y47.9294
G01 X35.9006 Y48.0011
G01 X35.9072 Y48.0110
G01 X35.9530 Y48.0877
G01 X35.9913 Y48.1684
G01 X35.9959 Y48.1794
G01 X36.0258 Y48.2636
G01 X36.0477 Y48.3502
G01 X36.0500 Y48.3619
G01 X36.0630 Y48.4503
G01 X36.0675 Y48.5396
G01 X36.0675 Y48.5514
G01 X36.0630 Y48.6407
G01 X36.0495 Y48.7320
G01 X36.0477 Y48.7408
G01 X36.0274 Y48.8217
G01 X36.0240 Y48.8331
G01 X35.9937 Y48.9171
G01 X35.9557 Y48.9980
G01 X35.9500 Y49.0085
G01 X35.9040 Y49.0850
G01 X35.8509 Y49.1569
G01 X35.8453 Y49.1639
G01 X35.7873 Y49.2279
G01 X35.7789 Y49.2363
G01 X35.7126 Y49.2962
G01 X35.6385 Y49.3513
G01 X35.6310 Y49.3562
G01 X35.5595 Y49.3990
G01 X35.5517 Y49.4033
G01 X35.4709 Y49.4416
G01 X35.4626 Y49.4449
G01 X35.4211 Y49.4597
G01 X37.2221 Y51.2607
G01 X57.2139 Y51.2607
G01 X57.4797 Y50.9949
G01 X57.4797 Y50.1902
G01 X57.4182 Y50.1610
G01 X57.3415 Y50.1152
G01 X57.3316 Y50.1086
G01 X57.2622 Y50.0571
G01 X57.2554 Y50.0513
G01 X57.1893 Y49.9912
G01 X57.1292 Y49.9251
G01 X57.1234 Y49.9183
G01 X57.0719 Y49.8489
G01 X57.0653 Y49.8390
G01 X57.0195 Y49.7623
G01 X56.9812 Y49.6816
G01 X56.9766 Y49.6706
G01 X56.9467 Y49.5864
G01 X56.9248 Y49.4998
G01 X56.9230 Y49.4910
G01 X56.9095 Y49.3997
G01 X56.9049 Y49.3045
G01 X56.9049 Y47.0045
G01 X56.9095 Y46.9093
G01 X56.9235 Y46.8150
G01 X56.9467 Y46.7226
G01 X56.9788 Y46.6329
G01 X57.0168 Y46.5520
G01 X57.0225 Y46.5415
G01 X57.0653 Y46.4700
G01 X57.0719 Y46.4601
G01 X57.1253 Y46.3884
G01 X57.1893 Y46.3178
G01 X57.2599 Y46.2538
G01 X57.3365 Y46.1970
G01 X57.4182 Y46.1480
G01 X57.4989 Y46.1097
G01 X57.5099 Y46.1051
G01 X57.5884 Y46.0770
G01 X57.5998 Y46.0736
G01 X57.6865 Y46.0520
G01 X57.7808 Y46.0380
G01 X57.8760 Y46.0334
G01 X57.9712 Y46.0380
G01 X58.0655 Y46.0520
G01 X58.1522 Y46.0736
G01 X58.1636 Y46.0770
G01 X58.2421 Y46.1051
G01 X58.2531 Y46.1097
G01 X58.3338 Y46.1480
G01 X58.4155 Y46.1970
G01 X58.4921 Y46.2538
G01 X58.5627 Y46.3178
G01 X58.6267 Y46.3884
G01 X58.6801 Y46.4601
G01 X58.6867 Y46.4700
G01 X58.7295 Y46.5415
G01 X58.7352 Y46.5520
G01 X58.7732 Y46.6329
G01 X58.8053 Y46.7226
G01 X58.8272 Y46.8092
G01 X58.8295 Y46.8209
G01 X58.8425 Y46.9093
G01 X58.8471 Y47.0015
G01 X58.8471 Y49.3045
G01 X58.8427 Y49.3967
G01 X58.8417 Y49.4056
G01 X58.8285 Y49.4940
G01 X58.8069 Y49.5807
G01 X58.8035 Y49.5921
G01 X58.7732 Y49.6761
G01 X58.7352 Y49.7570
G01 X58.7295 Y49.7675
G01 X58.6867 Y49.8390
G01 X58.6818 Y49.8465
G01 X58.6267 Y49.9206
G01 X58.5668 Y49.9869
G01 X58.5584 Y49.9953
G01 X58.4921 Y50.0552
G01 X58.4204 Y50.1086
G01 X58.4105 Y50.1152
G01 X58.3338 Y50.1610
G01 X58.2723 Y50.1902
G01 X58.2721 Y51.1649
G01 X58.2706 Y51.1949
G01 X58.2697 Y51.2037
G01 X58.2647 Y51.2363
G01 X58.2568 Y51.2683
G01 X58.2534 Y51.2797
G01 X58.2421 Y51.3107
G01 X58.2255 Y51.3458
G01 X58.2087 Y51.3741
G01 X58.2021 Y51.3840
G01 X58.1823 Y51.4104
G01 X58.1583 Y51.4371
G01 X57.6582 Y51.9372
G01 X57.6317 Y51.9614
G01 X57.6030 Y51.9831
G01 X57.5931 Y51.9897
G01 X57.5648 Y52.0065
G01 X57.5297 Y52.0231
G01 X57.4987 Y52.0344
G01 X57.4873 Y52.0378
G01 X57.4553 Y52.0457
G01 X57.4198 Y52.0511
G01 X57.4109 Y52.0518
G01 X57.3780 Y52.0533
G01 X37.0580 Y52.0533
G01 X37.0221 Y52.0516
G01 X37.0133 Y52.0507
G01 X36.9807 Y52.0457
G01 X36.9487 Y52.0378
G01 X36.9373 Y52.0344
G01 X36.9091 Y52.0242
G01 X36.9009 Y52.0207
G01 X36.8712 Y52.0065
G01 X36.8378 Y51.9865
G01 X36.8066 Y51.9633
G01 X36.7799 Y51.9393
G01 X34.3572 Y49.5166
G01 X32.7965 Y49.5166
G01 X32.7072 Y49.5124
G01 X32.6984 Y49.5116
G01 X32.6070 Y49.4980
G01 X32.5146 Y49.4748
G01 X32.4249 Y49.4427
G01 X32.3440 Y49.4047
G01 X32.3335 Y49.3990
G01 X32.2620 Y49.3562
G01 X32.2521 Y49.3496
G01 X32.1804 Y49.2962
G01 X32.1141 Y49.2363
G01 X32.1077 Y49.2301
G01 X32.0458 Y49.1616
G01 X31.9924 Y49.0899
G01 X31.9858 Y49.0800
G01 X31.9400 Y49.0033
G01 X31.8993 Y48.9171
G01 X31.8690 Y48.8331
G01 X31.8656 Y48.8217
G01 X31.8440 Y48.7350
G01 X31.8300 Y48.6407
G01 X31.8255 Y48.5514
G01 X31.8255 Y48.5396
G01 X31.8300 Y48.4503
G01 X31.8440 Y48.3560
G01 X31.8656 Y48.2693
G01 X31.8690 Y48.2579
G01 X31.8993 Y48.1739
G01 X31.9373 Y48.0930
G01 X31.9430 Y48.0825
G01 X31.9890 Y48.0060
G01 X32.0458 Y47.9294
G01 X32.1057 Y47.8631
G01 X32.1141 Y47.8547
G01 X32.1804 Y47.7948
G01 X32.2570 Y47.7380
G01 X32.3335 Y47.6920
G01 X32.3440 Y47.6863
G01 X32.4249 Y47.6483
G01 X32.5146 Y47.6162
G01 X32.6070 Y47.5930
G01 X32.6954 Y47.5798
G01 X32.7072 Y47.5786
G01 X32.7965 Y47.5744
G00 Z2.0000
G00 X35.3320 Y47.2451
G01 F40.00
G01 Z-0.1200
G01 F60.00
G01 X35.3311 Y47.2563
G01 X35.3301 Y47.2768
G01 X35.3305 Y47.3056
G01 X35.2403 Y47.2921
G01 X35.2202 Y47.2897
G01 X35.2000 Y47.2882
G01 X35.1167 Y47.2841
G01 X35.0965 Y47.2836
G01 X32.7965 Y47.2836
G01 X32.7763 Y47.2841
G01 X32.6930 Y47.2882
G01 X32.6728 Y47.2897
G01 X32.6527 Y47.2921
G01 X32.5610 Y47.3059
G01 X32.5619 Y47.2947
G01 X32.5629 Y47.2742
G01 X32.5625 Y47.2454
G01 X32.6527 Y47.2589
G01 X32.6728 Y47.2613
G01 X32.6930 Y47.2628
G01 X32.7763 Y47.2669
G01 X32.7965 Y47.2674
G01 X35.0965 Y47.2674
G01 X35.1167 Y47.2669
G01 X35.2000 Y47.2628
G01 X35.2202 Y47.2613
G01 X35.2403 Y47.2589
G01 X35.3320 Y47.2451
G00 Z2.0000
G00 X35.5870 Y47.0075
G01 F40.00
G01 Z-0.1200
G01 F60.00
G01 X35.5550 Y47.0411
G01 X35.5466 Y47.0513
G01 X35.5386 Y47.0619
G01 X35.5312 Y47.0728
G01 X35.5212 Y47.0900
G01 X35.5152 Y47.1018
G01 X35.5098 Y47.1138
G01 X35.5050 Y47.1262
G01 X35.5008 Y47.1388
G01 X35.4973 Y47.1515
G01 X35.4944 Y47.1644
G01 X35.4793 Y47.2406
G01 X35.4766 Y47.2602
G01 X35.4754 Y47.2800
G01 X35.4757 Y47.2999
G01 X35.4775 Y47.3197
G01 X35.4807 Y47.3393
G01 X35.4837 Y47.3522
G01 X35.4873 Y47.3649
G01 X35.4915 Y47.3774
G01 X35.5198 Y47.4497
G01 X35.5250 Y47.4618
G01 X35.5307 Y47.4737
G01 X35.5370 Y47.4853
G01 X35.5438 Y47.4965
G01 X35.5512 Y47.5074
G01 X35.5591 Y47.5179
G01 X35.5676 Y47.5280
G01 X35.5781 Y47.5393
G01 X35.5357 Y47.5193
G01 X35.5177 Y47.5115
G01 X35.4268 Y47.4790
G01 X35.4080 Y47.4736
G01 X35.3207 Y47.4518
G01 X35.3014 Y47.4482
G01 X35.2189 Y47.4359
G01 X35.2059 Y47.4343
G01 X35.1929 Y47.4334
G01 X35.1096 Y47.4293
G01 X35.0965 Y47.4290
G01 X32.7965 Y47.4290
G01 X32.7834 Y47.4293
G01 X32.7001 Y47.4334
G01 X32.6871 Y47.4343
G01 X32.6741 Y47.4359
G01 X32.5916 Y47.4482
G01 X32.5723 Y47.4518
G01 X32.4850 Y47.4736
G01 X32.4724 Y47.4770
G01 X32.4600 Y47.4812
G01 X32.3814 Y47.5093
G01 X32.3692 Y47.5140
G01 X32.3573 Y47.5193
G01 X32.3060 Y47.5435
G01 X32.3380 Y47.5099
G01 X32.3464 Y47.4997
G01 X32.3544 Y47.4891
G01 X32.3618 Y47.4782
G01 X32.3686 Y47.4668
G01 X32.3778 Y47.4492
G01 X32.3832 Y47.4372
G01 X32.3880 Y47.4248
G01 X32.3922 Y47.4122
G01 X32.3957 Y47.3995
G01 X32.3986 Y47.3866
G01 X32.4137 Y47.3104
G01 X32.4164 Y47.2908
G01 X32.4176 Y47.2710
G01 X32.4173 Y47.2511
G01 X32.4155 Y47.2313
G01 X32.4135 Y47.2182
G01 X32.4093 Y47.1988
G01 X32.4057 Y47.1861
G01 X32.4015 Y47.1736
G01 X32.3732 Y47.1013
G01 X32.3680 Y47.0892
G01 X32.3623 Y47.0773
G01 X32.3560 Y47.0657
G01 X32.3492 Y47.0545
G01 X32.3418 Y47.0436
G01 X32.3339 Y47.0331
G01 X32.3254 Y47.0230
G01 X32.3149 Y47.0117
G01 X32.3573 Y47.0317
G01 X32.3753 Y47.0395
G01 X32.4662 Y47.0720
G01 X32.4850 Y47.0774
G01 X32.5723 Y47.0992
G01 X32.5916 Y47.1028
G01 X32.6741 Y47.1151
G01 X32.6871 Y47.1167
G01 X32.7001 Y47.1176
G01 X32.7834 Y47.1217
G01 X32.7965 Y47.1220
G01 X35.0965 Y47.1220
G01 X35.1096 Y47.1217
G01 X35.1929 Y47.1176
G01 X35.2059 Y47.1167
G01 X35.2189 Y47.1151
G01 X35.3014 Y47.1028
G01 X35.3207 Y47.0992
G01 X35.4080 Y47.0774
G01 X35.4206 Y47.0740
G01 X35.4330 Y47.0698
G01 X35.5116 Y47.0417
G01 X35.5238 Y47.0370
G01 X35.5357 Y47.0317
G01 X35.5870 Y47.0075
G00 Z2.0000
G00 X35.3320 Y44.7051
G01 F40.00
G01 Z-0.1200
G01 F60.00
G01 X35.3311 Y44.7163
G01 X35.3301 Y44.7368
G01 X35.3305 Y44.7656
G01 X35.2403 Y44.7521
G01 X35.2202 Y44.7497
G01 X35.2000 Y44.7482
G01 X35.1167 Y44.7441
G01 X35.0965 Y44.7436
G01 X32.7965 Y44.7436
G01 X32.7763 Y44.7441
G01 X32.6930 Y44.7482
G01 X32.6728 Y44.7497
G01 X32.6527 Y44.7521
G01 X32.5610 Y44.7659
G01 X32.5619 Y44.7547
G01 X32.5629 Y44.7342
G01 X32.5625 Y44.7054
G01 X32.6527 Y44.7189
G01 X32.6728 Y44.7213
G01 X32.6930 Y44.7228
G01 X32.7763 Y44.7269
G01 X32.7965 Y44.7274
G01 X35.0965 Y44.7274
G01 X35.1167 Y44.7269
G01 X35.2000 Y44.7228
G01 X35.2202 Y44.7213
G01 X35.2403 Y44.7189
G01 X35.3320 Y44.7051
G00 Z2.0000
G00 X35.5870 Y44.4675
G01 F40.00
G01 Z-0.1200
G01 F60.00
G01 X35.5550 Y44.5011
G01 X35.5466 Y44.5113
G01 X35.5386 Y44.5219
G01 X35.5312 Y44.5328
G01 X35.5244 Y44.5442
G01 X35.5152 Y44.5618
G01 X35.5098 Y44.5738
G01 X35.5050 Y44.5862
G01 X35.5008 Y44.5988
G01 X35.4973 Y44.6115
G01 X35.4944 Y44.6244
G01 X35.4793 Y44.7006
G01 X35.4766 Y44.7202
G01 X35.4754 Y44.7400
G01 X35.4757 Y44.7599
G01 X35.4767 Y44.7731
G01 X35.4795 Y44.7928
G01 X35.4837 Y44.8122
G01 X35.4873 Y44.8249
G01 X35.4915 Y44.8374
G01 X35.5198 Y44.9097
G01 X35.5250 Y44.9218
G01 X35.5307 Y44.9337
G01 X35.5370 Y44.9453
G01 X35.5438 Y44.9565
G01 X35.5512 Y44.9674
G01 X35.5591 Y44.9779
G01 X35.5676 Y44.9880
G01 X35.5781 Y44.9993
G01 X35.5357 Y44.9793
G01 X35.5177 Y44.9715
G01 X35.4268 Y44.9390
G01 X35.4080 Y44.9336
G01 X35.3207 Y44.9118
G01 X35.3014 Y44.9082
G01 X35.2189 Y44.8959
G01 X35.2059 Y44.8943
G01 X35.1929 Y44.8934
G01 X35.1096 Y44.8893
G01 X35.0965 Y44.8890
G01 X32.7965 Y44.8890
G01 X32.7834 Y44.8893
G01 X32.7001 Y44.8934
G01 X32.6871 Y44.8943
G01 X32.6741 Y44.8959
G01 X32.5916 Y44.9082
G01 X32.5723 Y44.9118
G01 X32.4850 Y44.9336
G01 X32.4724 Y44.9370
G01 X32.4600 Y44.9412
G01 X32.3814 Y44.9693
G01 X32.3692 Y44.9740
G01 X32.3573 Y44.9793
G01 X32.3060 Y45.0035
G01 X32.3380 Y44.9699
G01 X32.3464 Y44.9597
G01 X32.3544 Y44.9491
G01 X32.3618 Y44.9382
G01 X32.3686 Y44.9268
G01 X32.3778 Y44.9092
G01 X32.3832 Y44.8972
G01 X32.3880 Y44.8848
G01 X32.3922 Y44.8722
G01 X32.3957 Y44.8595
G01 X32.3986 Y44.8466
G01 X32.4137 Y44.7704
G01 X32.4164 Y44.7508
G01 X32.4176 Y44.7310
G01 X32.4173 Y44.7111
G01 X32.4163 Y44.6979
G01 X32.4135 Y44.6782
G01 X32.4093 Y44.6588
G01 X32.4057 Y44.6461
G01 X32.4015 Y44.6336
G01 X32.3732 Y44.5613
G01 X32.3680 Y44.5492
G01 X32.3623 Y44.5373
G01 X32.3560 Y44.5257
G01 X32.3492 Y44.5145
G01 X32.3418 Y44.5036
G01 X32.3339 Y44.4931
G01 X32.3254 Y44.4830
G01 X32.3149 Y44.4717
G01 X32.3573 Y44.4917
G01 X32.3753 Y44.4995
G01 X32.4662 Y44.5320
G01 X32.4850 Y44.5374
G01 X32.5723 Y44.5592
G01 X32.5916 Y44.5628
G01 X32.6741 Y44.5751
G01 X32.6871 Y44.5767
G01 X32.7001 Y44.5776
G01 X32.7834 Y44.5817
G01 X32.7965 Y44.5820
G01 X35.0965 Y44.5820
G01 X35.1096 Y44.5817
G01 X35.1929 Y44.5776
G01 X35.2059 Y44.5767
G01 X35.2189 Y44.5751
G01 X35.3014 Y44.5628
G01 X35.3207 Y44.5592
G01 X35.4080 Y44.5374
G01 X35.4206 Y44.5340
G01 X35.4330 Y44.5298
G01 X35.5116 Y44.5017
G01 X35.5238 Y44.4970
G01 X35.5357 Y44.4917
G01 X35.5870 Y44.4675
G00 Z2.0000
G00 X35.3320 Y42.1651
G01 F40.00
G01 Z-0.1200
G01 F60.00
G01 X35.3311 Y42.1763
G01 X35.3301 Y42.1968
G01 X35.3305 Y42.2256
G01 X35.2403 Y42.2121
G01 X35.2202 Y42.2097
G01 X35.2000 Y42.2082
G01 X35.1167 Y42.2041
G01 X35.0965 Y42.2036
G01 X32.7965 Y42.2036
G01 X32.7763 Y42.2041
G01 X32.6930 Y42.2082
G01 X32.6728 Y42.2097
G01 X32.6527 Y42.2121
G01 X32.5610 Y42.2259
G01 X32.5619 Y42.2147
G01 X32.5629 Y42.1942
G01 X32.5625 Y42.1654
G01 X32.6527 Y42.1789
G01 X32.6728 Y42.1813
G01 X32.6930 Y42.1828
G01 X32.7763 Y42.1869
G01 X32.7965 Y42.1874
G01 X35.0965 Y42.1874
G01 X35.1167 Y42.1869
G01 X35.2000 Y42.1828
G01 X35.2202 Y42.1813
G01 X35.2403 Y42.1789
G01 X35.3320 Y42.1651
G00 Z2.0000
G00 X35.5870 Y41.9275
G01 F40.00
G01 Z-0.1200
G01 F60.00
G01 X35.5550 Y41.9611
G01 X35.5466 Y41.9713
G01 X35.5386 Y41.9819
G01 X35.5312 Y41.9928
G01 X35.5212 Y42.0100
G01 X35.5152 Y42.0218
G01 X35.5098 Y42.0338
G01 X35.5050 Y42.0462
G01 X35.5008 Y42.0588
G01 X35.4973 Y42.0715
G01 X35.4944 Y42.0844
G01 X35.4793 Y42.1606
G01 X35.4766 Y42.1802
G01 X35.4754 Y42.2000
G01 X35.4757 Y42.2199
G01 X35.4775 Y42.2397
G01 X35.4807 Y42.2593
G01 X35.4837 Y42.2722
G01 X35.4873 Y42.2849
G01 X35.4915 Y42.2974
G01 X35.5198 Y42.3697
G01 X35.5250 Y42.3818
G01 X35.5307 Y42.3937
G01 X35.5370 Y42.4053
G01 X35.5438 Y42.4165
G01 X35.5512 Y42.4274
G01 X35.5591 Y42.4379
G01 X35.5676 Y42.4480
G01 X35.5781 Y42.4593
G01 X35.5357 Y42.4393
G01 X35.5177 Y42.4315
G01 X35.4268 Y42.3990
G01 X35.4080 Y42.3936
G01 X35.3207 Y42.3718
G01 X35.3014 Y42.3682
G01 X35.2189 Y42.3559
G01 X35.2059 Y42.3543
G01 X35.1929 Y42.3534
G01 X35.1096 Y42.3493
G01 X35.0965 Y42.3490
G01 X32.7965 Y42.3490
G01 X32.7834 Y42.3493
G01 X32.7001 Y42.3534
G01 X32.6871 Y42.3543
G01 X32.6741 Y42.3559
G01 X32.5916 Y42.3682
G01 X32.5723 Y42.3718
G01 X32.4850 Y42.3936
G01 X32.4724 Y42.3970
G01 X32.4600 Y42.4012
G01 X32.3814 Y42.4293
G01 X32.3692 Y42.4340
G01 X32.3573 Y42.4393
G01 X32.3060 Y42.4635
G01 X32.3380 Y42.4299
G01 X32.3464 Y42.4197
G01 X32.3544 Y42.4091
G01 X32.3618 Y42.3982
G01 X32.3686 Y42.3868
G01 X32.3778 Y42.3692
G01 X32.3832 Y42.3572
G01 X32.3880 Y42.3448
G01 X32.3922 Y42.3322
G01 X32.3957 Y42.3195
G01 X32.3986 Y42.3066
G01 X32.4137 Y42.2304
G01 X32.4164 Y42.2108
G01 X32.4176 Y42.1910
G01 X32.4173 Y42.1711
G01 X32.4155 Y42.1513
G01 X32.4135 Y42.1382
G01 X32.4093 Y42.1188
G01 X32.4057 Y42.1061
G01 X32.4015 Y42.0936
G01 X32.3732 Y42.0213
G01 X32.3680 Y42.0092
G01 X32.3623 Y41.9973
G01 X32.3560 Y41.9857
G01 X32.3492 Y41.9745
G01 X32.3418 Y41.9636
G01 X32.3339 Y41.9531
G01 X32.3254 Y41.9430
G01 X32.3149 Y41.9317
G01 X32.3573 Y41.9517
G01 X32.3753 Y41.9595
G01 X32.4662 Y41.9920
G01 X32.4850 Y41.9974
G01 X32.5723 Y42.0192
G01 X32.5916 Y42.0228
G01 X32.6741 Y42.0351
G01 X32.6871 Y42.0367
G01 X32.7001 Y42.0376
G01 X32.7834 Y42.0417
G01 X32.7965 Y42.0420
G01 X35.0965 Y42.0420
G01 X35.1096 Y42.0417
G01 X35.1929 Y42.0376
G01 X35.2059 Y42.0367
G01 X35.2189 Y42.0351
G01 X35.3014 Y42.0228
G01 X35.3207 Y42.0192
G01 X35.4080 Y41.9974
G01 X35.4206 Y41.9940
G01 X35.4330 Y41.9898
G01 X35.5116 Y41.9617
G01 X35.5238 Y41.9570
G01 X35.5357 Y41.9517
G01 X35.5870 Y41.9275
G00 Z2.0000
G00 X35.3320 Y39.6251
G01 F40.00
G01 Z-0.1200
G01 F60.00
G01 X35.3311 Y39.6363
G01 X35.3301 Y39.6568
G01 X35.3305 Y39.6856
G01 X35.2403 Y39.6721
G01 X35.2202 Y39.6697
G01 X35.2000 Y39.6682
G01 X35.1167 Y39.6641
G01 X35.0965 Y39.6636
G01 X32.7965 Y39.6636
G01 X32.7763 Y39.6641
G01 X32.6930 Y39.6682
G01 X32.6728 Y39.6697
G01 X32.6527 Y39.6721
G01 X32.5610 Y39.6859
G01 X32.5619 Y39.6747
G01 X32.5629 Y39.6542
G01 X32.5625 Y39.6254
G01 X32.6527 Y39.6389
G01 X32.6728 Y39.6413
G01 X32.6930 Y39.6428
G01 X32.7763 Y39.6469
G01 X32.7965 Y39.6474
G01 X35.0965 Y39.6474
G01 X35.1167 Y39.6469
G01 X35.2000 Y39.6428
G01 X35.2202 Y39.6413
G01 X35.2403 Y39.6389
G01 X35.3320 Y39.6251
G00 Z2.0000
G00 X35.5870 Y39.3875
G01 F40.00
G01 Z-0.1200
G01 F60.00
G01 X35.5550 Y39.4211
G01 X35.5466 Y39.4313
G01 X35.5386 Y39.4419
G01 X35.5312 Y39.4528
G01 X35.5244 Y39.4642
G01 X35.5152 Y39.4818
G01 X35.5098 Y39.4938
G01 X35.5050 Y39.5062
G01 X35.5008 Y39.5188
G01 X35.4973 Y39.5315
G01 X35.4944 Y39.5444
G01 X35.4793 Y39.6206
G01 X35.4766 Y39.6402
G01 X35.4754 Y39.6600
G01 X35.4757 Y39.6799
G01 X35.4767 Y39.6931
G01 X35.4795 Y39.7128
G01 X35.4837 Y39.7322
G01 X35.4873 Y39.7449
G01 X35.4915 Y39.7574
G01 X35.5198 Y39.8297
G01 X35.5250 Y39.8418
G01 X35.5307 Y39.8537
G01 X35.5370 Y39.8653
G01 X35.5438 Y39.8765
G01 X35.5512 Y39.8874
G01 X35.5591 Y39.8979
G01 X35.5676 Y39.9080
G01 X35.5781 Y39.9193
G01 X35.5357 Y39.8993
G01 X35.5177 Y39.8915
G01 X35.4268 Y39.8590
G01 X35.4080 Y39.8536
G01 X35.3207 Y39.8318
G01 X35.3014 Y39.8282
G01 X35.2189 Y39.8159
G01 X35.2059 Y39.8143
G01 X35.1929 Y39.8134
G01 X35.1096 Y39.8093
G01 X35.0965 Y39.8090
G01 X32.7965 Y39.8090
G01 X32.7834 Y39.8093
G01 X32.7001 Y39.8134
G01 X32.6871 Y39.8143
G01 X32.6741 Y39.8159
G01 X32.5916 Y39.8282
G01 X32.5723 Y39.8318
G01 X32.4850 Y39.8536
G01 X32.4724 Y39.8570
G01 X32.4600 Y39.8612
G01 X32.3814 Y39.8893
G01 X32.3692 Y39.8940
G01 X32.3573 Y39.8993
G01 X32.3060 Y39.9235
G01 X32.3380 Y39.8899
G01 X32.3464 Y39.8797
G01 X32.3544 Y39.8691
G01 X32.3618 Y39.8582
G01 X32.3686 Y39.8468
G01 X32.3778 Y39.8292
G01 X32.3832 Y39.8172
G01 X32.3880 Y39.8048
G01 X32.3922 Y39.7922
G01 X32.3957 Y39.7795
G01 X32.3986 Y39.7666
G01 X32.4137 Y39.6904
G01 X32.4164 Y39.6708
G01 X32.4176 Y39.6510
G01 X32.4173 Y39.6311
G01 X32.4163 Y39.6179
G01 X32.4135 Y39.5982
G01 X32.4093 Y39.5788
G01 X32.4057 Y39.5661
G01 X32.4015 Y39.5536
G01 X32.3732 Y39.4813
G01 X32.3680 Y39.4692
G01 X32.3623 Y39.4573
G01 X32.3560 Y39.4457
G01 X32.3492 Y39.4345
G01 X32.3418 Y39.4236
G01 X32.3339 Y39.4131
G01 X32.3254 Y39.4030
G01 X32.3149 Y39.3917
G01 X32.3573 Y39.4117
G01 X32.3753 Y39.4195
G01 X32.4662 Y39.4520
G01 X32.4850 Y39.4574
G01 X32.5723 Y39.4792
G01 X32.5916 Y39.4828
G01 X32.6741 Y39.4951
G01 X32.6871 Y39.4967
G01 X32.7001 Y39.4976
G01 X32.7834 Y39.5017
G01 X32.7965 Y39.5020
G01 X35.0965 Y39.5020
G01 X35.1096 Y39.5017
G01 X35.1929 Y39.4976
G01 X35.2059 Y39.4967
G01 X35.2189 Y39.4951
G01 X35.3014 Y39.4828
G01 X35.3207 Y39.4792
G01 X35.4080 Y39.4574
G01 X35.4206 Y39.4540
G01 X35.4330 Y39.4498
G01 X35.5116 Y39.4217
G01 X35.5238 Y39.4170
G01 X35.5357 Y39.4117
G01 X35.5870 Y39.3875
G00 Z2.0000
G00 X35.3320 Y37.0851
G01 F40.00
G01 Z-0.1200
G01 F60.00
G01 X35.3311 Y37.0963
G01 X35.3301 Y37.1168
G01 X35.3305 Y37.1456
G01 X35.2403 Y37.1321
G01 X35.2202 Y37.1297
G01 X35.2000 Y37.1282
G01 X35.1167 Y37.1241
G01 X35.0965 Y37.1236
G01 X32.7965 Y37.1236
G01 X32.7763 Y37.1241
G01 X32.6930 Y37.1282
G01 X32.6728 Y37.1297
G01 X32.6527 Y37.1321
G01 X32.5610 Y37.1459
G01 X32.5619 Y37.1347
G01 X32.5629 Y37.1142
G01 X32.5625 Y37.0854
G01 X32.6527 Y37.0989
G01 X32.6728 Y37.1013
G01 X32.6930 Y37.1028
G01 X32.7763 Y37.1069
G01 X32.7965 Y37.1074
G01 X35.0965 Y37.1074
G01 X35.1167 Y37.1069
G01 X35.2000 Y37.1028
G01 X35.2202 Y37.1013
G01 X35.2403 Y37.0989
G01 X35.3320 Y37.0851
G00 Z2.0000
G00 X35.5870 Y36.8475
G01 F40.00
G01 Z-0.1200
G01 F60.00
G01 X35.5550 Y36.8811
G01 X35.5466 Y36.8913
G01 X35.5386 Y36.9019
G01 X35.5312 Y36.9128
G01 X35.5212 Y36.9300
G01 X35.5152 Y36.9418
G01 X35.5098 Y36.9538
G01 X35.5050 Y36.9662
G01 X35.5008 Y36.9788
G01 X35.4973 Y36.9915
G01 X35.4944 Y37.0044
G01 X35.4793 Y37.0806
G01 X35.4766 Y37.1002
G01 X35.4754 Y37.1200
G01 X35.4757 Y37.1399
G01 X35.4775 Y37.1597
G01 X35.4807 Y37.1793
G01 X35.4837 Y37.1922
G01 X35.4873 Y37.2049
G01 X35.4915 Y37.2174
G01 X35.5198 Y37.2897
G01 X35.5250 Y37.3018
G01 X35.5307 Y37.3137
G01 X35.5370 Y37.3253
G01 X35.5438 Y37.3365
G01 X35.5512 Y37.3474
G01 X35.5591 Y37.3579
G01 X35.5676 Y37.3680
G01 X35.5781 Y37.3793
G01 X35.5357 Y37.3593
G01 X35.5177 Y37.3515
G01 X35.4268 Y37.3190
G01 X35.4080 Y37.3136
G01 X35.3207 Y37.2918
G01 X35.3014 Y37.2882
G01 X35.2189 Y37.2759
G01 X35.2059 Y37.2743
G01 X35.1929 Y37.2734
G01 X35.1096 Y37.2693
G01 X35.0965 Y37.2690
G01 X32.7965 Y37.2690
G01 X32.7834 Y37.2693
G01 X32.7001 Y37.2734
G01 X32.6871 Y37.2743
G01 X32.6741 Y37.2759
G01 X32.5916 Y37.2882
G01 X32.5723 Y37.2918
G01 X32.4850 Y37.3136
G01 X32.4724 Y37.3170
G01 X32.4600 Y37.3212
G01 X32.3814 Y37.3493
G01 X32.3692 Y37.3540
G01 X32.3573 Y37.3593
G01 X32.3060 Y37.3835
G01 X32.3380 Y37.3499
G01 X32.3464 Y37.3397
G01 X32.3544 Y37.3291
G01 X32.3618 Y37.3182
G01 X32.3686 Y37.3068
G01 X32.3778 Y37.2892
G01 X32.3832 Y37.2772
G01 X32.3880 Y37.2648
G01 X32.3922 Y37.2522
G01 X32.3957 Y37.2395
G01 X32.3986 Y37.2266
G01 X32.4137 Y37.1504
G01 X32.4164 Y37.1308
G01 X32.4176 Y37.1110
G01 X32.4173 Y37.0911
G01 X32.4155 Y37.0713
G01 X32.4135 Y37.0582
G01 X32.4093 Y37.0388
G01 X32.4057 Y37.0261
G01 X32.4015 Y37.0136
G01 X32.3732 Y36.9413
G01 X32.3680 Y36.9292
G01 X32.3623 Y36.9173
G01 X32.3560 Y36.9057
G01 X32.3492 Y36.8945
G01 X32.3418 Y36.8836
G01 X32.3339 Y36.8731
G01 X32.3254 Y36.8630
G01 X32.3149 Y36.8517
G01 X32.3573 Y36.8717
G01 X32.3753 Y36.8795
G01 X32.4662 Y36.9120
G01 X32.4850 Y36.9174
G01 X32.5723 Y36.9392
G01 X32.5916 Y36.9428
G01 X32.6741 Y36.9551
G01 X32.6871 Y36.9567
G01 X32.7001 Y36.9576
G01 X32.7834 Y36.9617
G01 X32.7965 Y36.9620
G01 X35.0965 Y36.9620
G01 X35.1096 Y36.9617
G01 X35.1929 Y36.9576
G01 X35.2059 Y36.9567
G01 X35.2189 Y36.9551
G01 X35.3014 Y36.9428
G01 X35.3207 Y36.9392
G01 X35.4080 Y36.9174
G01 X35.4206 Y36.9140
G01 X35.4330 Y36.9098
G01 X35.5116 Y36.8817
G01 X35.5238 Y36.8770
G01 X35.5357 Y36.8717
G01 X35.5870 Y36.8475
G00 Z2.0000
G00 X35.3320 Y34.5451
G01 F40.00
G01 Z-0.1200
G01 F60.00
G01 X35.3311 Y34.5563
G01 X35.3301 Y34.5768
G01 X35.3305 Y34.6056
G01 X35.2403 Y34.5921
G01 X35.2202 Y34.5897
G01 X35.2000 Y34.5882
G01 X35.1167 Y34.5841
G01 X35.0965 Y34.5836
G01 X32.7965 Y34.5836
G01 X32.7763 Y34.5841
G01 X32.6930 Y34.5882
G01 X32.6728 Y34.5897
G01 X32.6527 Y34.5921
G01 X32.5610 Y34.6059
G01 X32.5619 Y34.5947
G01 X32.5629 Y34.5742
G01 X32.5625 Y34.5454
G01 X32.6527 Y34.5589
G01 X32.6728 Y34.5613
G01 X32.6930 Y34.5628
G01 X32.7763 Y34.5669
G01 X32.7965 Y34.5674
G01 X35.0965 Y34.5674
G01 X35.1167 Y34.5669
G01 X35.2000 Y34.5628
G01 X35.2202 Y34.5613
G01 X35.2403 Y34.5589
G01 X35.3320 Y34.5451
G00 Z2.0000
G00 X35.5870 Y34.3075
G01 F40.00
G01 Z-0.1200
G01 F60.00
G01 X35.5550 Y34.3411
G01 X35.5466 Y34.3513
G01 X35.5386 Y34.3619
G01 X35.5312 Y34.3728
G01 X35.5212 Y34.3900
G01 X35.5152 Y34.4018
G01 X35.5098 Y34.4138
G01 X35.5050 Y34.4262
G01 X35.5008 Y34.4388
G01 X35.4973 Y34.4515
G01 X35.4944 Y34.4644
G01 X35.4793 Y34.5406
G01 X35.4766 Y34.5602
G01 X35.4754 Y34.5800
G01 X35.4757 Y34.5999
G01 X35.4767 Y34.6131
G01 X35.4795 Y34.6328
G01 X35.4837 Y34.6522
G01 X35.4873 Y34.6649
G01 X35.4915 Y34.6774
G01 X35.5198 Y34.7497
G01 X35.5250 Y34.7618
G01 X35.5307 Y34.7737
G01 X35.5370 Y34.7853
G01 X35.5438 Y34.7965
G01 X35.5512 Y34.8074
G01 X35.5591 Y34.8179
G01 X35.5676 Y34.8280
G01 X35.5781 Y34.8393
G01 X35.5357 Y34.8193
G01 X35.5177 Y34.8115
G01 X35.4268 Y34.7790
G01 X35.4080 Y34.7736
G01 X35.3207 Y34.7518
G01 X35.3014 Y34.7482
G01 X35.2189 Y34.7359
G01 X35.2059 Y34.7343
G01 X35.1929 Y34.7334
G01 X35.1096 Y34.7293
G01 X35.0965 Y34.7290
G01 X32.7965 Y34.7290
G01 X32.7834 Y34.7293
G01 X32.7001 Y34.7334
G01 X32.6871 Y34.7343
G01 X32.6741 Y34.7359
G01 X32.5916 Y34.7482
G01 X32.5723 Y34.7518
G01 X32.4850 Y34.7736
G01 X32.4724 Y34.7770
G01 X32.4600 Y34.7812
G01 X32.3814 Y34.8093
G01 X32.3692 Y34.8140
G01 X32.3573 Y34.8193
G01 X32.3060 Y34.8435
G01 X32.3380 Y34.8099
G01 X32.3464 Y34.7997
G01 X32.3544 Y34.7891
G01 X32.3618 Y34.7782
G01 X32.3686 Y34.7668
G01 X32.3778 Y34.7492
G01 X32.3832 Y34.7372
G01 X32.3880 Y34.7248
G01 X32.3922 Y34.7122
G01 X32.3957 Y34.6995
G01 X32.3986 Y34.6866
G01 X32.4137 Y34.6104
G01 X32.4164 Y34.5908
G01 X32.4176 Y34.5710
G01 X32.4173 Y34.5511
G01 X32.4163 Y34.5379
G01 X32.4135 Y34.5182
G01 X32.4093 Y34.4988
G01 X32.4057 Y34.4861
G01 X32.4015 Y34.4736
G01 X32.3732 Y34.4013
G01 X32.3680 Y34.3892
G01 X32.3623 Y34.3773
G01 X32.3560 Y34.3657
G01 X32.3492 Y34.3545
G01 X32.3418 Y34.3436
G01 X32.3339 Y34.3331
G01 X32.3254 Y34.3230
G01 X32.3149 Y34.3117
G01 X32.3573 Y34.3317
G01 X32.3753 Y34.3395
G01 X32.4662 Y34.3720
G01 X32.4850 Y34.3774
G01 X32.5723 Y34.3992
G01 X32.5916 Y34.4028
G01 X32.6741 Y34.4151
G01 X32.6871 Y34.4167
G01 X32.7001 Y34.4176
G01 X32.7834 Y34.4217
G01 X32.7965 Y34.4220
G01 X35.0965 Y34.4220
G01 X35.1096 Y34.4217
G01 X35.1929 Y34.4176
G01 X35.2059 Y34.4167
G01 X35.2189 Y34.4151
G01 X35.3014 Y34.4028
G01 X35.3207 Y34.3992
G01 X35.4080 Y34.3774
G01 X35.4206 Y34.3740
G01 X35.4330 Y34.3698
G01 X35.5116 Y34.3417
G01 X35.5238 Y34.3370
G01 X35.5357 Y34.3317
G01 X35.5870 Y34.3075
G00 Z2.0000
G00 X26.0882 Y36.6907
G01 F40.00
G01 Z-0.1200
G01 F60.00
G01 X26.1023 Y36.7049
G01 X26.1023 Y36.7348
G01 X26.0943 Y36.7078
G01 X26.0882 Y36.6907
G00 Z2.0000
G00 X22.7011 Y37.7807
G01 F40.00
G01 Z-0.1200
G01 F60.00
G01 X23.0200 Y37.7807
G01 X23.1061 Y37.7896
G01 X23.2478 Y37.8368
G01 X23.3741 Y37.9149
G01 X23.4793 Y38.0203
G01 X23.5572 Y38.1467
G01 X23.6042 Y38.2885
G01 X23.6128 Y38.3732
G01 X23.6129 Y38.4549
G01 X23.3471 Y38.4549
G01 X23.3471 Y38.4145
G01 X23.3456 Y38.3841
G01 X23.3410 Y38.3510
G01 X23.3394 Y38.3422
G01 X23.3312 Y38.3098
G01 X23.3200 Y38.2782
G01 X23.3060 Y38.2479
G01 X23.3004 Y38.2374
G01 X23.2846 Y38.2113
G01 X23.2629 Y38.1820
G01 X23.2384 Y38.1551
G01 X23.2160 Y38.1345
G01 X23.2068 Y38.1269
G01 X23.1797 Y38.1073
G01 X23.1510 Y38.0902
G01 X23.1208 Y38.0758
G01 X23.1125 Y38.0725
G01 X23.0837 Y38.0623
G01 X23.0542 Y38.0548
G01 X23.0425 Y38.0525
G01 X23.0094 Y38.0479
G01 X22.9760 Y38.0464
G01 X22.7011 Y38.0464
G01 X22.7011 Y37.7807
G00 Z2.0000
G00 X20.9087 Y38.4104
G01 F40.00
G01 Z-0.1200
G01 F60.00
G01 X20.9575 Y38.3881
G01 X20.9652 Y38.3840
G01 X20.9726 Y38.3794
G01 X20.9819 Y38.3724
G01 X20.9905 Y38.3645
G01 X20.9983 Y38.3559
G01 X21.0052 Y38.3465
G01 X21.0438 Y38.2887
G01 X21.0483 Y38.2811
G01 X21.0522 Y38.2731
G01 X21.0564 Y38.2621
G01 X21.0955 Y38.1453
G01 X21.1737 Y38.0191
G01 X21.2788 Y37.9142
G01 X21.4048 Y37.8365
G01 X21.5466 Y37.7894
G01 X21.6317 Y37.7807
G01 X21.9509 Y37.7806
G01 X21.9509 Y38.0464
G01 X21.6760 Y38.0464
G01 X21.6456 Y38.0477
G01 X21.6367 Y38.0485
G01 X21.6065 Y38.0529
G01 X21.5978 Y38.0548
G01 X21.5683 Y38.0623
G01 X21.5395 Y38.0725
G01 X21.5312 Y38.0758
G01 X21.5037 Y38.0888
G01 X21.4959 Y38.0931
G01 X21.4723 Y38.1073
G01 X21.4452 Y38.1269
G01 X21.4360 Y38.1345
G01 X21.4136 Y38.1551
G01 X21.3930 Y38.1775
G01 X21.3854 Y38.1867
G01 X21.3674 Y38.2113
G01 X21.3516 Y38.2374
G01 X21.3460 Y38.2479
G01 X21.3331 Y38.2755
G01 X21.3227 Y38.3041
G01 X21.3192 Y38.3155
G01 X21.3120 Y38.3451
G01 X21.3074 Y38.3752
G01 X21.3064 Y38.3841
G01 X21.3049 Y38.4145
G01 X21.3049 Y38.4549
G01 X20.9769 Y38.4549
G01 X20.9683 Y38.4488
G01 X20.9087 Y38.4104
G00 Z2.0000
G00 X20.4545 Y38.4669
G01 F40.00
G01 Z-0.1200
G01 F60.00
G01 X20.4545 Y38.3076
G01 X20.4643 Y38.3397
G01 X20.4715 Y38.3582
G01 X20.4801 Y38.3761
G01 X20.4866 Y38.3877
G01 X20.4934 Y38.3987
G01 X20.4815 Y38.4174
G01 X20.4545 Y38.4669
G00 Z2.0000
G00 X21.0139 Y39.3285
G01 F40.00
G01 Z-0.1200
G01 F60.00
G01 X21.0342 Y39.2597
G01 X21.0369 Y39.2484
G01 X21.0383 Y39.2398
G01 X21.0390 Y39.2312
G01 X21.0391 Y39.2051
G01 X21.3049 Y39.2051
G01 X21.3049 Y39.2455
G01 X21.3064 Y39.2759
G01 X21.3074 Y39.2848
G01 X21.3120 Y39.3149
G01 X21.3192 Y39.3445
G01 X21.3227 Y39.3559
G01 X21.3331 Y39.3845
G01 X21.3460 Y39.4121
G01 X21.3516 Y39.4226
G01 X21.3674 Y39.4487
G01 X21.3854 Y39.4733
G01 X21.3930 Y39.4825
G01 X21.4136 Y39.5049
G01 X21.4360 Y39.5255
G01 X21.4452 Y39.5331
G01 X21.4723 Y39.5527
G01 X21.4984 Y39.5684
G01 X21.5064 Y39.5725
G01 X21.5340 Y39.5854
G01 X21.5626 Y39.5958
G01 X21.5711 Y39.5985
G01 X21.6007 Y39.6059
G01 X21.6095 Y39.6075
G01 X21.6367 Y39.6115
G01 X21.6456 Y39.6123
G01 X21.6760 Y39.6136
G01 X21.9509 Y39.6136
G01 X21.9509 Y39.8793
G01 X21.6318 Y39.8793
G01 X21.5455 Y39.8703
G01 X21.4038 Y39.8230
G01 X21.2776 Y39.7448
G01 X21.1727 Y39.6397
G01 X21.0950 Y39.5137
G01 X21.0571 Y39.3995
G01 X21.0529 Y39.3888
G01 X21.0492 Y39.3810
G01 X21.0433 Y39.3710
G01 X21.0139 Y39.3285
G00 Z2.0000
G00 X22.7011 Y39.8794
G01 F40.00
G01 Z-0.1200
G01 F60.00
G01 X22.7011 Y39.6136
G01 X22.9760 Y39.6136
G01 X23.0094 Y39.6121
G01 X23.0183 Y39.6111
G01 X23.0484 Y39.6065
G01 X23.0780 Y39.5993
G01 X23.0894 Y39.5958
G01 X23.1208 Y39.5842
G01 X23.1510 Y39.5698
G01 X23.1797 Y39.5527
G01 X23.2068 Y39.5331
G01 X23.2160 Y39.5255
G01 X23.2384 Y39.5049
G01 X23.2629 Y39.4780
G01 X23.2846 Y39.4487
G01 X23.3004 Y39.4226
G01 X23.3060 Y39.4121
G01 X23.3200 Y39.3818
G01 X23.3312 Y39.3502
G01 X23.3394 Y39.3178
G01 X23.3410 Y39.3090
G01 X23.3456 Y39.2759
G01 X23.3471 Y39.2455
G01 X23.3471 Y39.2051
G01 X23.6128 Y39.2051
G01 X23.6128 Y39.2867
G01 X23.6039 Y39.3726
G01 X23.5567 Y39.5143
G01 X23.4783 Y39.6409
G01 X23.3732 Y39.7458
G01 X23.2468 Y39.8237
G01 X23.1050 Y39.8707
G01 X23.0201 Y39.8794
G01 X22.7011 Y39.8794
G00 Z2.0000
G00 X23.5742 Y41.4133
G01 F40.00
G01 Z-0.1200
G01 F60.00
G01 X23.4758 Y41.4133
G01 X23.4703 Y41.3926
G01 X23.4662 Y41.3801
G01 X23.4556 Y41.3509
G01 X23.4472 Y41.3314
G01 X23.4857 Y41.3656
G01 X23.5012 Y41.3773
G01 X23.5120 Y41.3845
G01 X23.5231 Y41.3911
G01 X23.5403 Y41.4000
G01 X23.5581 Y41.4077
G01 X23.5742 Y41.4133
G00 Z2.0000
G00 X23.4504 Y42.5717
G01 F40.00
G01 Z-0.1200
G01 F60.00
G01 X23.4556 Y42.5591
G01 X23.4683 Y42.5237
G01 X23.4721 Y42.5112
G01 X23.4758 Y42.4967
G01 X23.5862 Y42.4967
G01 X23.5593 Y42.5047
G01 X23.5471 Y42.5089
G01 X23.5292 Y42.5163
G01 X23.5119 Y42.5250
G01 X23.4953 Y42.5350
G01 X23.4795 Y42.5461
G01 X23.4645 Y42.5584
G01 X23.4504 Y42.5717
G00 Z2.0000
G00 X25.2701 Y42.4967
G01 F40.00
G01 Z-0.1200
G01 F60.00
G01 X25.2901 Y42.4967
G01 X25.3113 Y42.5178
G01 X25.2865 Y42.5044
G01 X25.2701 Y42.4967
G00 Z2.0000
G00 X25.5132 Y42.7197
G01 F40.00
G01 Z-0.1200
G01 F60.00
G01 X25.5275 Y42.7340
G01 X25.5275 Y42.7643
G01 X25.5193 Y42.7368
G01 X25.5132 Y42.7197
G00 Z2.0000
G00 X25.6885 Y41.3588
G01 F40.00
G01 Z-0.1200
G01 F60.00
G01 X25.6625 Y41.4024
G01 X25.6563 Y41.4140
G01 X25.6484 Y41.4305
G01 X25.6266 Y41.4251
G01 X25.6137 Y41.4225
G01 X25.5806 Y41.4175
G01 X25.5667 Y41.4159
G01 X25.6085 Y41.4033
G01 X25.6207 Y41.3987
G01 X25.6327 Y41.3935
G01 X25.6444 Y41.3878
G01 X25.6614 Y41.3781
G01 X25.6776 Y41.3672
G01 X25.6885 Y41.3588
G00 Z2.0000
G00 X26.1023 Y40.8978
G01 F40.00
G01 Z-0.1200
G01 F60.00
G01 X26.1023 Y40.9586
G01 X26.0444 Y40.9934
G01 X26.0692 Y40.9603
G01 X26.0800 Y40.9440
G01 X26.0865 Y40.9326
G01 X26.0925 Y40.9210
G01 X26.0979 Y40.9091
G01 X26.1023 Y40.8978
G00 Z2.0000
G00 X27.2365 Y40.9891
G01 F40.00
G01 Z-0.1200
G01 F60.00
G01 X27.1857 Y40.9586
G01 X27.1857 Y40.8806
G01 X27.1959 Y40.9142
G01 X27.2006 Y40.9267
G01 X27.2060 Y40.9390
G01 X27.2120 Y40.9511
G01 X27.2185 Y40.9627
G01 X27.2257 Y40.9741
G01 X27.2365 Y40.9891
G00 Z2.0000
G00 X21.1684 Y41.4469
G01 F40.00
G01 Z-0.1200
G01 F60.00
G01 X21.1636 Y41.4789
G01 X21.1614 Y41.4984
G01 X21.1596 Y41.5360
G01 X21.1595 Y41.5903
G01 X20.9727 Y41.5903
G01 X21.0061 Y41.5802
G01 X21.0185 Y41.5755
G01 X21.0307 Y41.5703
G01 X21.0425 Y41.5644
G01 X21.0541 Y41.5579
G01 X21.0653 Y41.5509
G01 X21.0762 Y41.5433
G01 X21.0917 Y41.5310
G01 X21.1016 Y41.5222
G01 X21.1109 Y41.5128
G01 X21.1199 Y41.5030
G01 X21.1684 Y41.4469
G00 Z2.0000
G00 X20.6669 Y41.5903
G01 F40.00
G01 Z-0.1200
G01 F60.00
G01 X20.1792 Y41.5903
G01 X20.1651 Y41.5854
G01 X20.1526 Y41.5816
G01 X20.1257 Y41.5748
G01 X20.1128 Y41.5723
G01 X20.0788 Y41.5675
G01 X20.0511 Y41.5658
G01 X20.0380 Y41.5655
G01 X18.3815 Y41.5656
G01 X18.3472 Y41.5675
G01 X18.3196 Y41.5712
G01 X18.3067 Y41.5735
G01 X18.2797 Y41.5799
G01 X18.2671 Y41.5834
G01 X18.2347 Y41.5947
G01 X18.2226 Y41.5998
G01 X18.1975 Y41.6116
G01 X18.1859 Y41.6178
G01 X18.1676 Y41.6287
G01 X18.1566 Y41.6357
G01 X18.1459 Y41.6432
G01 X18.1289 Y41.6559
G01 X18.1154 Y41.6672
G01 X18.1419 Y41.5994
G01 X18.1480 Y41.5805
G01 X18.1527 Y41.5612
G01 X18.1550 Y41.5481
G01 X18.1567 Y41.5350
G01 X18.1579 Y41.5152
G01 X18.1580 Y41.5019
G01 X18.1573 Y41.4887
G01 X18.1560 Y41.4755
G01 X18.1529 Y41.4559
G01 X18.1390 Y41.3863
G01 X18.1360 Y41.3734
G01 X18.1304 Y41.3542
G01 X18.1259 Y41.3417
G01 X18.1222 Y41.3327
G01 X18.1341 Y41.3420
G01 X18.1512 Y41.3546
G01 X18.1621 Y41.3619
G01 X18.1803 Y41.3729
G01 X18.1916 Y41.3793
G01 X18.2033 Y41.3852
G01 X18.2226 Y41.3942
G01 X18.2347 Y41.3993
G01 X18.2671 Y41.4106
G01 X18.2797 Y41.4141
G01 X18.3067 Y41.4205
G01 X18.3407 Y41.4258
G01 X18.3537 Y41.4271
G01 X18.3749 Y41.4282
G01 X18.3880 Y41.4285
G01 X20.0380 Y41.4285
G01 X20.0658 Y41.4275
G01 X20.0853 Y41.4258
G01 X20.1193 Y41.4205
G01 X20.1463 Y41.4141
G01 X20.1651 Y41.4086
G01 X20.1913 Y41.3993
G01 X20.2094 Y41.3915
G01 X20.2344 Y41.3793
G01 X20.2639 Y41.3619
G01 X20.2801 Y41.3508
G01 X20.3022 Y41.3340
G01 X20.3278 Y41.3111
G01 X20.3416 Y41.2971
G01 X20.3600 Y41.2762
G01 X20.3806 Y41.2488
G01 X20.3913 Y41.2324
G01 X20.4063 Y41.2065
G01 X20.4066 Y41.2657
G01 X20.4078 Y41.2855
G01 X20.4106 Y41.3052
G01 X20.4133 Y41.3182
G01 X20.4165 Y41.3310
G01 X20.4205 Y41.3436
G01 X20.4250 Y41.3561
G01 X20.4302 Y41.3683
G01 X20.4359 Y41.3802
G01 X20.4423 Y41.3918
G01 X20.4492 Y41.4031
G01 X20.4914 Y41.4682
G01 X20.4991 Y41.4790
G01 X20.5074 Y41.4893
G01 X20.5161 Y41.4992
G01 X20.5254 Y41.5087
G01 X20.5401 Y41.5220
G01 X20.5504 Y41.5303
G01 X20.5612 Y41.5380
G01 X20.5780 Y41.5486
G01 X20.5955 Y41.5579
G01 X20.6669 Y41.5903
G00 Z2.0000
G00 X21.2314 Y42.6737
G01 F40.00
G01 Z-0.1200
G01 F60.00
G01 X21.2604 Y42.6737
G01 X21.2726 Y42.6901
G01 X21.2797 Y42.6987
G01 X21.2481 Y42.6815
G01 X21.2314 Y42.6737
G00 Z2.0000
G00 X18.1169 Y41.0120
G01 F40.00
G01 Z-0.1200
G01 F60.00
G01 X18.1170 Y40.7061
G01 X18.1182 Y40.6854
G01 X18.1221 Y40.6591
G01 X18.1285 Y40.6333
G01 X18.1364 Y40.6110
G01 X18.1399 Y40.6028
G01 X18.1489 Y40.5842
G01 X18.1609 Y40.5638
G01 X18.1660 Y40.5565
G01 X18.1784 Y40.5400
G01 X18.1922 Y40.5246
G01 X18.1984 Y40.5182
G01 X18.2160 Y40.5024
G01 X18.2349 Y40.4882
G01 X18.2424 Y40.4834
G01 X18.2602 Y40.4729
G01 X18.2788 Y40.4639
G01 X18.2870 Y40.4604
G01 X18.3093 Y40.4525
G01 X18.3322 Y40.4467
G01 X18.3410 Y40.4450
G01 X18.3614 Y40.4422
G01 X18.3880 Y40.4409
G01 X20.0380 Y40.4409
G01 X20.0586 Y40.4417
G01 X20.0675 Y40.4425
G01 X20.0909 Y40.4461
G01 X20.1167 Y40.4525
G01 X20.1418 Y40.4615
G01 X20.1605 Y40.4702
G01 X20.1710 Y40.4758
G01 X20.1911 Y40.4882
G01 X20.2100 Y40.5024
G01 X20.2276 Y40.5182
G01 X20.2437 Y40.5355
G01 X20.2513 Y40.5447
G01 X20.2635 Y40.5614
G01 X20.2771 Y40.5842
G01 X20.2885 Y40.6082
G01 X20.2956 Y40.6276
G01 X20.2991 Y40.6390
G01 X20.3033 Y40.6562
G01 X20.3050 Y40.6650
G01 X20.3078 Y40.6854
G01 X20.3091 Y40.7120
G01 X20.3091 Y41.0150
G01 X20.3078 Y41.0386
G01 X20.3039 Y41.0649
G01 X20.2975 Y41.0907
G01 X20.2906 Y41.1102
G01 X20.2873 Y41.1185
G01 X20.2771 Y41.1398
G01 X20.2651 Y41.1602
G01 X20.2600 Y41.1675
G01 X20.2476 Y41.1840
G01 X20.2338 Y41.1994
G01 X20.2276 Y41.2058
G01 X20.2100 Y41.2216
G01 X20.1911 Y41.2358
G01 X20.1836 Y41.2406
G01 X20.1658 Y41.2511
G01 X20.1472 Y41.2601
G01 X20.1390 Y41.2636
G01 X20.1167 Y41.2715
G01 X20.0938 Y41.2773
G01 X20.0850 Y41.2790
G01 X20.0646 Y41.2818
G01 X20.0380 Y41.2831
G01 X18.3880 Y41.2831
G01 X18.3674 Y41.2823
G01 X18.3585 Y41.2815
G01 X18.3351 Y41.2779
G01 X18.3093 Y41.2715
G01 X18.2842 Y41.2625
G01 X18.2602 Y41.2511
G01 X18.2374 Y41.2375
G01 X18.2160 Y41.2216
G01 X18.1963 Y41.2037
G01 X18.1823 Y41.1885
G01 X18.1765 Y41.1817
G01 X18.1642 Y41.1651
G01 X18.1518 Y41.1450
G01 X18.1462 Y41.1345
G01 X18.1387 Y41.1185
G01 X18.1354 Y41.1102
G01 X18.1285 Y41.0907
G01 X18.1221 Y41.0649
G01 X18.1182 Y41.0386
G01 X18.1169 Y41.0120
G00 Z2.0000
G00 X18.1154 Y40.3972
G01 F40.00
G01 Z-0.1200
G01 F60.00
G01 X18.1419 Y40.3294
G01 X18.1480 Y40.3105
G01 X18.1527 Y40.2912
G01 X18.1550 Y40.2781
G01 X18.1567 Y40.2650
G01 X18.1579 Y40.2452
G01 X18.1580 Y40.2319
G01 X18.1573 Y40.2187
G01 X18.1560 Y40.2055
G01 X18.1529 Y40.1859
G01 X18.1390 Y40.1163
G01 X18.1360 Y40.1034
G01 X18.1304 Y40.0842
G01 X18.1259 Y40.0717
G01 X18.1222 Y40.0627
G01 X18.1341 Y40.0720
G01 X18.1512 Y40.0846
G01 X18.1621 Y40.0919
G01 X18.1803 Y40.1029
G01 X18.1916 Y40.1093
G01 X18.2033 Y40.1152
G01 X18.2226 Y40.1242
G01 X18.2347 Y40.1293
G01 X18.2671 Y40.1406
G01 X18.3003 Y40.1492
G01 X18.3132 Y40.1517
G01 X18.3342 Y40.1549
G01 X18.3472 Y40.1565
G01 X18.3602 Y40.1575
G01 X18.3880 Y40.1585
G01 X20.0380 Y40.1585
G01 X20.0511 Y40.1582
G01 X20.0788 Y40.1565
G01 X20.1064 Y40.1528
G01 X20.1193 Y40.1505
G01 X20.1463 Y40.1441
G01 X20.1589 Y40.1406
G01 X20.1913 Y40.1293
G01 X20.2034 Y40.1242
G01 X20.2285 Y40.1124
G01 X20.2401 Y40.1062
G01 X20.2584 Y40.0953
G01 X20.2694 Y40.0883
G01 X20.2801 Y40.0808
G01 X20.2971 Y40.0681
G01 X20.3106 Y40.0568
G01 X20.2841 Y40.1246
G01 X20.2780 Y40.1435
G01 X20.2747 Y40.1564
G01 X20.2710 Y40.1759
G01 X20.2693 Y40.1890
G01 X20.2681 Y40.2088
G01 X20.2680 Y40.2221
G01 X20.2692 Y40.2419
G01 X20.2709 Y40.2550
G01 X20.2731 Y40.2681
G01 X20.2870 Y40.3377
G01 X20.2900 Y40.3506
G01 X20.2956 Y40.3698
G01 X20.3001 Y40.3823
G01 X20.3038 Y40.3913
G01 X20.2919 Y40.3820
G01 X20.2748 Y40.3694
G01 X20.2639 Y40.3621
G01 X20.2457 Y40.3511
G01 X20.2344 Y40.3447
G01 X20.2227 Y40.3388
G01 X20.2034 Y40.3298
G01 X20.1913 Y40.3247
G01 X20.1589 Y40.3134
G01 X20.1257 Y40.3048
G01 X20.1128 Y40.3023
G01 X20.0918 Y40.2991
G01 X20.0788 Y40.2975
G01 X20.0658 Y40.2965
G01 X20.0380 Y40.2955
G01 X18.3880 Y40.2955
G01 X18.3749 Y40.2958
G01 X18.3472 Y40.2975
G01 X18.3196 Y40.3012
G01 X18.3067 Y40.3035
G01 X18.2797 Y40.3099
G01 X18.2671 Y40.3134
G01 X18.2347 Y40.3247
G01 X18.2226 Y40.3298
G01 X18.1975 Y40.3416
G01 X18.1859 Y40.3478
G01 X18.1676 Y40.3587
G01 X18.1566 Y40.3657
G01 X18.1459 Y40.3732
G01 X18.1289 Y40.3859
G01 X18.1154 Y40.3972
G00 Z2.0000
G00 X18.1169 Y39.7420
G01 F40.00
G01 Z-0.1200
G01 F60.00
G01 X18.1170 Y39.4361
G01 X18.1182 Y39.4154
G01 X18.1221 Y39.3891
G01 X18.1285 Y39.3633
G01 X18.1364 Y39.3410
G01 X18.1399 Y39.3328
G01 X18.1489 Y39.3142
G01 X18.1609 Y39.2938
G01 X18.1660 Y39.2865
G01 X18.1784 Y39.2700
G01 X18.1922 Y39.2546
G01 X18.1984 Y39.2482
G01 X18.2160 Y39.2324
G01 X18.2349 Y39.2182
G01 X18.2424 Y39.2134
G01 X18.2602 Y39.2029
G01 X18.2788 Y39.1939
G01 X18.2870 Y39.1904
G01 X18.3093 Y39.1825
G01 X18.3322 Y39.1767
G01 X18.3410 Y39.1750
G01 X18.3614 Y39.1722
G01 X18.3880 Y39.1709
G01 X20.0380 Y39.1709
G01 X20.0586 Y39.1717
G01 X20.0675 Y39.1725
G01 X20.0909 Y39.1761
G01 X20.1167 Y39.1825
G01 X20.1418 Y39.1915
G01 X20.1605 Y39.2002
G01 X20.1710 Y39.2058
G01 X20.1911 Y39.2182
G01 X20.2100 Y39.2324
G01 X20.2276 Y39.2482
G01 X20.2437 Y39.2655
G01 X20.2513 Y39.2747
G01 X20.2635 Y39.2914
G01 X20.2771 Y39.3142
G01 X20.2885 Y39.3382
G01 X20.2956 Y39.3576
G01 X20.2991 Y39.3690
G01 X20.3033 Y39.3862
G01 X20.3050 Y39.3950
G01 X20.3078 Y39.4154
G01 X20.3091 Y39.4420
G01 X20.3091 Y39.7450
G01 X20.3078 Y39.7686
G01 X20.3039 Y39.7949
G01 X20.2975 Y39.8207
G01 X20.2906 Y39.8402
G01 X20.2873 Y39.8485
G01 X20.2771 Y39.8698
G01 X20.2651 Y39.8902
G01 X20.2600 Y39.8975
G01 X20.2476 Y39.9140
G01 X20.2338 Y39.9294
G01 X20.2276 Y39.9358
G01 X20.2100 Y39.9516
G01 X20.1911 Y39.9658
G01 X20.1836 Y39.9706
G01 X20.1658 Y39.9811
G01 X20.1472 Y39.9901
G01 X20.1390 Y39.9936
G01 X20.1167 Y40.0015
G01 X20.0938 Y40.0073
G01 X20.0850 Y40.0090
G01 X20.0646 Y40.0118
G01 X20.0380 Y40.0131
G01 X18.3880 Y40.0131
G01 X18.3674 Y40.0123
G01 X18.3585 Y40.0115
G01 X18.3351 Y40.0079
G01 X18.3093 Y40.0015
G01 X18.2842 Y39.9925
G01 X18.2602 Y39.9811
G01 X18.2374 Y39.9675
G01 X18.2160 Y39.9516
G01 X18.1963 Y39.9337
G01 X18.1823 Y39.9185
G01 X18.1765 Y39.9117
G01 X18.1642 Y39.8951
G01 X18.1518 Y39.8750
G01 X18.1462 Y39.8645
G01 X18.1387 Y39.8485
G01 X18.1354 Y39.8402
G01 X18.1285 Y39.8207
G01 X18.1221 Y39.7949
G01 X18.1182 Y39.7686
G01 X18.1169 Y39.7420
G00 Z2.0000
G00 X18.1156 Y39.1270
G01 F40.00
G01 Z-0.1200
G01 F60.00
G01 X18.1399 Y39.0651
G01 X18.1465 Y39.0464
G01 X18.1501 Y39.0337
G01 X18.1543 Y39.0143
G01 X18.1562 Y39.0012
G01 X18.1576 Y38.9880
G01 X18.1583 Y38.9748
G01 X18.1583 Y38.9616
G01 X18.1576 Y38.9483
G01 X18.1564 Y38.9352
G01 X18.1532 Y38.9156
G01 X18.1386 Y38.8425
G01 X18.1978 Y38.8425
G01 X18.2226 Y38.8542
G01 X18.2408 Y38.8615
G01 X18.2671 Y38.8706
G01 X18.2940 Y38.8777
G01 X18.3132 Y38.8817
G01 X18.3407 Y38.8858
G01 X18.3537 Y38.8871
G01 X18.3815 Y38.8884
G01 X20.0445 Y38.8884
G01 X20.0788 Y38.8865
G01 X20.1064 Y38.8828
G01 X20.1193 Y38.8805
G01 X20.1463 Y38.8741
G01 X20.1589 Y38.8706
G01 X20.1913 Y38.8593
G01 X20.2034 Y38.8542
G01 X20.2285 Y38.8424
G01 X20.2401 Y38.8362
G01 X20.2584 Y38.8253
G01 X20.2694 Y38.8183
G01 X20.2801 Y38.8108
G01 X20.2971 Y38.7981
G01 X20.3099 Y38.7874
G01 X20.2837 Y38.8542
G01 X20.2777 Y38.8731
G01 X20.2744 Y38.8859
G01 X20.2707 Y38.9054
G01 X20.2690 Y38.9186
G01 X20.2677 Y38.9384
G01 X20.2680 Y38.9582
G01 X20.2689 Y38.9714
G01 X20.2705 Y38.9846
G01 X20.2728 Y38.9976
G01 X20.2867 Y39.0672
G01 X20.2896 Y39.0802
G01 X20.2952 Y39.0994
G01 X20.2997 Y39.1119
G01 X20.3036 Y39.1212
G01 X20.2919 Y39.1120
G01 X20.2748 Y39.0994
G01 X20.2639 Y39.0921
G01 X20.2457 Y39.0811
G01 X20.2344 Y39.0747
G01 X20.2227 Y39.0688
G01 X20.2034 Y39.0598
G01 X20.1913 Y39.0547
G01 X20.1589 Y39.0434
G01 X20.1257 Y39.0348
G01 X20.1128 Y39.0323
G01 X20.0918 Y39.0291
G01 X20.0788 Y39.0275
G01 X20.0658 Y39.0265
G01 X20.0380 Y39.0255
G01 X18.3880 Y39.0255
G01 X18.3749 Y39.0258
G01 X18.3472 Y39.0275
G01 X18.3196 Y39.0312
G01 X18.3067 Y39.0335
G01 X18.2797 Y39.0399
G01 X18.2671 Y39.0434
G01 X18.2347 Y39.0547
G01 X18.2226 Y39.0598
G01 X18.1975 Y39.0716
G01 X18.1859 Y39.0778
G01 X18.1676 Y39.0887
G01 X18.1566 Y39.0957
G01 X18.1459 Y39.1032
