(G-CODE GENERATED BY FLATCAM v8.992 - www.flatcam.org - Version Date: 2020/05/03)

(Name: NPN Tracer V2a-F_Cu (deeper).gbr_iso_2_cnc)
(Type: G-code from Geometry)
(Units: MM)

(Created on Friday, 14 April 2023 at 17:12)

(This preprocessor is the default preprocessor used by FlatCAM.)
(It is made to work with MACH3 compatible motion controllers.)

(TOOL DIAMETER: 0.2458 mm)
(Feedrate_XY: 80.0 mm/min)
(Feedrate_Z: 60.0 mm/min)
(Feedrate rapids 1500.0 mm/min)

(Z_Cut: -0.13 mm)
(Z_Move: 2.0 mm)
(Z Start: None mm)
(Z End: 10.0 mm)
(Steps per circle: 64)
(Preprocessor Geometry: default)

(X range:    0.6321 ...   88.5969  mm)
(Y range:    0.9436 ...   62.4289  mm)

(Spindle Speed: None RPM)
G21
G90
G94



G01 F80.00
G00 Z2.0000

M03
G00 X9.4691 Y13.6615
G01 F60.00
G01 Z-0.1300
G01 F80.00
G01 X13.1201 Y10.0105
G01 X13.1201 Y8.4505
G01 X13.1253 Y8.3453
G01 X13.1407 Y8.2412
G01 X13.1647 Y8.1449
G01 X13.1682 Y8.1333
G01 X13.2018 Y8.0399
G01 X13.2441 Y7.9501
G01 X13.2498 Y7.9395
G01 X13.3009 Y7.8544
G01 X13.3636 Y7.7699
G01 X13.4302 Y7.6962
G01 X13.4387 Y7.6877
G01 X13.5124 Y7.6211
G01 X13.5920 Y7.5619
G01 X13.6020 Y7.5552
G01 X13.6872 Y7.5043
G01 X13.7769 Y7.4617
G01 X13.7852 Y7.4581
G01 X13.7950 Y7.4546
G01 X13.7951 Y6.4440
G01 X13.7972 Y6.4080
G01 X13.8021 Y6.3753
G01 X13.8039 Y6.3665
G01 X13.8113 Y6.3374
G01 X13.8140 Y6.3287
G01 X13.8253 Y6.2977
G01 X13.8393 Y6.2678
G01 X13.8434 Y6.2597
G01 X13.8588 Y6.2340
G01 X13.8655 Y6.2239
G01 X13.8853 Y6.1975
G01 X13.9115 Y6.1685
G01 X15.6967 Y4.3834
G01 X15.7235 Y4.3593
G01 X15.7499 Y4.3395
G01 X15.7600 Y4.3328
G01 X15.7884 Y4.3160
G01 X15.8182 Y4.3017
G01 X15.8293 Y4.2971
G01 X15.8605 Y4.2861
G01 X15.8954 Y4.2772
G01 X15.9043 Y4.2756
G01 X15.9370 Y4.2709
G01 X15.9760 Y4.2690
G01 X52.3615 Y4.2690
G01 X52.4005 Y4.2709
G01 X52.4362 Y4.2761
G01 X52.4712 Y4.2845
G01 X52.4828 Y4.2880
G01 X52.5138 Y4.2993
G01 X52.5491 Y4.3160
G01 X52.5826 Y4.3360
G01 X52.6093 Y4.3556
G01 X52.6186 Y4.3633
G01 X52.6430 Y4.3855
G01 X56.7070 Y8.4495
G01 X56.7292 Y8.4739
G01 X56.7369 Y8.4832
G01 X56.7565 Y8.5099
G01 X56.7765 Y8.5434
G01 X56.7932 Y8.5787
G01 X56.8045 Y8.6097
G01 X56.8080 Y8.6213
G01 X56.8159 Y8.6533
G01 X56.8216 Y8.6920
G01 X56.8235 Y8.7310
G01 X56.8235 Y25.0761
G01 X59.6384 Y27.8910
G01 X64.5156 Y27.8910
G01 X66.1874 Y26.2192
G01 X66.1869 Y25.0147
G01 X66.1777 Y25.0114
G01 X66.1694 Y25.0078
G01 X66.0797 Y24.9652
G01 X65.9945 Y24.9143
G01 X65.9845 Y24.9076
G01 X65.9049 Y24.8484
G01 X65.8312 Y24.7818
G01 X65.8227 Y24.7733
G01 X65.7561 Y24.6996
G01 X65.6969 Y24.6200
G01 X65.6902 Y24.6100
G01 X65.6393 Y24.5248
G01 X65.5967 Y24.4351
G01 X65.5921 Y24.4240
G01 X65.5588 Y24.3304
G01 X65.5345 Y24.2342
G01 X65.5322 Y24.2224
G01 X65.5178 Y24.1242
G01 X65.5126 Y24.0190
G01 X65.5126 Y21.9190
G01 X65.5173 Y21.8199
G01 X65.5185 Y21.8079
G01 X65.5322 Y21.7156
G01 X65.5345 Y21.7038
G01 X65.5588 Y21.6076
G01 X65.5921 Y21.5140
G01 X65.5967 Y21.5029
G01 X65.6393 Y21.4132
G01 X65.6934 Y21.3229
G01 X65.7561 Y21.2384
G01 X65.8268 Y21.1603
G01 X65.9049 Y21.0896
G01 X65.9894 Y21.0269
G01 X66.0797 Y20.9728
G01 X66.1694 Y20.9302
G01 X66.1805 Y20.9256
G01 X66.2683 Y20.8942
G01 X66.2799 Y20.8907
G01 X66.3762 Y20.8667
G01 X66.4744 Y20.8520
G01 X66.4833 Y20.8510
G01 X66.5855 Y20.8461
G01 X66.6907 Y20.8513
G01 X66.7948 Y20.8667
G01 X66.8911 Y20.8907
G01 X66.9027 Y20.8942
G01 X66.9905 Y20.9256
G01 X67.0016 Y20.9302
G01 X67.0913 Y20.9728
G01 X67.1816 Y21.0269
G01 X67.2661 Y21.0896
G01 X67.3398 Y21.1562
G01 X67.3483 Y21.1647
G01 X67.4109 Y21.2338
G01 X67.4186 Y21.2431
G01 X67.4776 Y21.3229
G01 X67.5317 Y21.4132
G01 X67.5767 Y21.5084
G01 X67.6113 Y21.6047
G01 X67.6138 Y21.6134
G01 X67.6365 Y21.7038
G01 X67.6388 Y21.7156
G01 X67.6532 Y21.8138
G01 X67.6584 Y21.9190
G01 X67.6584 Y24.0190
G01 X67.6532 Y24.1242
G01 X67.6383 Y24.2253
G01 X67.6365 Y24.2342
G01 X67.6122 Y24.3304
G01 X67.5789 Y24.4240
G01 X67.5743 Y24.4351
G01 X67.5317 Y24.5248
G01 X67.4808 Y24.6100
G01 X67.4741 Y24.6200
G01 X67.4149 Y24.6996
G01 X67.3483 Y24.7733
G01 X67.3398 Y24.7818
G01 X67.2661 Y24.8484
G01 X67.1865 Y24.9076
G01 X67.1765 Y24.9143
G01 X67.0913 Y24.9652
G01 X67.0016 Y25.0078
G01 X66.9933 Y25.0114
G01 X66.9835 Y25.0149
G01 X66.9834 Y26.3900
G01 X66.9816 Y26.4230
G01 X66.9769 Y26.4557
G01 X66.9746 Y26.4675
G01 X66.9664 Y26.4995
G01 X66.9532 Y26.5363
G01 X66.9392 Y26.5662
G01 X66.9336 Y26.5769
G01 X66.9165 Y26.6051
G01 X66.8932 Y26.6365
G01 X66.8670 Y26.6655
G01 X64.9598 Y28.5726
G01 X64.9330 Y28.5967
G01 X64.9016 Y28.6200
G01 X64.8681 Y28.6400
G01 X64.8383 Y28.6543
G01 X64.8300 Y28.6579
G01 X64.8018 Y28.6680
G01 X64.7902 Y28.6715
G01 X64.7582 Y28.6794
G01 X64.7195 Y28.6851
G01 X64.6805 Y28.6870
G01 X59.4735 Y28.6870
G01 X59.4345 Y28.6851
G01 X59.3958 Y28.6794
G01 X59.3580 Y28.6699
G01 X59.3268 Y28.6589
G01 X59.3157 Y28.6543
G01 X59.2859 Y28.6400
G01 X59.2524 Y28.6200
G01 X59.2210 Y28.5967
G01 X59.1920 Y28.5705
G01 X56.1440 Y25.5225
G01 X56.1178 Y25.4935
G01 X56.0945 Y25.4621
G01 X56.0745 Y25.4286
G01 X56.0578 Y25.3933
G01 X56.0465 Y25.3623
G01 X56.0430 Y25.3507
G01 X56.0357 Y25.3216
G01 X56.0341 Y25.3127
G01 X56.0294 Y25.2800
G01 X56.0275 Y25.2410
G01 X56.0275 Y8.8959
G01 X52.1966 Y5.0650
G01 X16.1409 Y5.0650
G01 X14.5911 Y6.6148
G01 X14.5916 Y7.4548
G01 X14.6008 Y7.4581
G01 X14.6091 Y7.4617
G01 X14.6988 Y7.5043
G01 X14.7840 Y7.5552
G01 X14.7940 Y7.5619
G01 X14.8736 Y7.6211
G01 X14.9473 Y7.6877
G01 X14.9558 Y7.6962
G01 X15.0184 Y7.7653
G01 X15.0261 Y7.7746
G01 X15.0851 Y7.8544
G01 X15.1362 Y7.9395
G01 X15.1419 Y7.9501
G01 X15.1842 Y8.0399
G01 X15.2178 Y8.1333
G01 X15.2213 Y8.1449
G01 X15.2453 Y8.2412
G01 X15.2604 Y8.3423
G01 X15.2612 Y8.3514
G01 X15.2659 Y8.4505
G01 X15.2658 Y10.5565
G01 X15.2612 Y10.6496
G01 X15.2600 Y10.6616
G01 X15.2453 Y10.7598
G01 X15.2213 Y10.8561
G01 X15.2178 Y10.8677
G01 X15.1842 Y10.9611
G01 X15.1392 Y11.0563
G01 X15.0851 Y11.1466
G01 X15.0261 Y11.2264
G01 X15.0184 Y11.2357
G01 X14.9517 Y11.3092
G01 X14.8782 Y11.3759
G01 X14.8689 Y11.3836
G01 X14.7891 Y11.4426
G01 X14.7040 Y11.4937
G01 X14.6934 Y11.4994
G01 X14.6036 Y11.5417
G01 X14.5102 Y11.5753
G01 X14.4986 Y11.5788
G01 X14.4023 Y11.6028
G01 X14.3041 Y11.6175
G01 X14.2921 Y11.6187
G01 X14.1990 Y11.6233
G01 X14.1900 Y11.6234
G01 X14.0878 Y11.6182
G01 X13.9896 Y11.6038
G01 X13.9778 Y11.6015
G01 X13.8816 Y11.5772
G01 X13.7880 Y11.5439
G01 X13.7769 Y11.5393
G01 X13.6872 Y11.4967
G01 X13.5995 Y11.4442
G01 X13.5920 Y11.4391
G01 X13.5171 Y11.3836
G01 X13.5078 Y11.3759
G01 X13.4343 Y11.3092
G01 X13.3656 Y11.2334
G01 X13.3599 Y11.2264
G01 X13.3044 Y11.1515
G01 X13.2993 Y11.1440
G01 X13.2482 Y11.0589
G01 X13.2441 Y11.0509
G01 X13.2317 Y11.0247
G01 X10.1753 Y14.0811
G01 X10.1842 Y14.0941
G01 X10.2300 Y14.1709
G01 X10.2684 Y14.2517
G01 X10.2730 Y14.2628
G01 X10.3030 Y14.3471
G01 X10.3249 Y14.4338
G01 X10.3272 Y14.4456
G01 X10.3402 Y14.5341
G01 X10.3449 Y14.6295
G01 X10.3449 Y15.7450
G01 X11.3149 Y16.7150
G01 X11.7331 Y16.7150
G01 X11.7331 Y16.0630
G01 X11.7378 Y15.9639
G01 X11.7390 Y15.9519
G01 X11.7537 Y15.8537
G01 X11.7777 Y15.7574
G01 X11.7812 Y15.7458
G01 X11.8148 Y15.6524
G01 X11.8598 Y15.5572
G01 X11.9139 Y15.4669
G01 X11.9766 Y15.3824
G01 X12.0473 Y15.3043
G01 X12.1254 Y15.2336
G01 X12.2099 Y15.1709
G01 X12.2976 Y15.1182
G01 X12.3056 Y15.1141
G01 X12.3954 Y15.0718
G01 X12.4946 Y15.0363
G01 X12.5967 Y15.0107
G01 X12.7008 Y14.9953
G01 X12.8060 Y14.9901
G01 X12.9112 Y14.9953
G01 X13.0153 Y15.0107
G01 X13.1174 Y15.0363
G01 X13.2166 Y15.0718
G01 X13.3118 Y15.1168
G01 X13.4021 Y15.1709
G01 X13.4866 Y15.2336
G01 X13.5647 Y15.3043
G01 X13.6354 Y15.3824
G01 X13.6981 Y15.4669
G01 X13.7492 Y15.5520
G01 X13.7549 Y15.5626
G01 X13.7972 Y15.6524
G01 X13.8308 Y15.7458
G01 X13.8343 Y15.7574
G01 X13.8583 Y15.8537
G01 X13.8730 Y15.9519
G01 X13.8742 Y15.9639
G01 X13.8788 Y16.0570
G01 X13.8789 Y18.1630
G01 X13.8737 Y18.2682
G01 X13.8593 Y18.3664
G01 X13.8570 Y18.3782
G01 X13.8327 Y18.4744
G01 X13.7994 Y18.5680
G01 X13.7948 Y18.5791
G01 X13.7522 Y18.6688
G01 X13.7013 Y18.7540
G01 X13.6946 Y18.7640
G01 X13.6354 Y18.8436
G01 X13.5688 Y18.9173
G01 X13.5603 Y18.9258
G01 X13.4866 Y18.9924
G01 X13.4070 Y19.0516
G01 X13.3970 Y19.0583
G01 X13.3118 Y19.1092
G01 X13.2221 Y19.1518
G01 X13.2138 Y19.1554
G01 X13.2040 Y19.1589
G01 X13.2040 Y23.8111
G01 X18.0459 Y28.6530
G01 X21.5609 Y28.6530
G01 X21.5609 Y28.0010
G01 X21.5661 Y27.8958
G01 X21.5816 Y27.7917
G01 X21.6071 Y27.6896
G01 X21.6426 Y27.5904
G01 X21.6862 Y27.4979
G01 X21.6906 Y27.4900
G01 X21.7418 Y27.4049
G01 X21.8045 Y27.3204
G01 X21.8752 Y27.2423
G01 X21.9486 Y27.1756
G01 X21.9580 Y27.1679
G01 X22.0378 Y27.1089
G01 X22.1228 Y27.0578
G01 X22.1335 Y27.0521
G01 X22.2178 Y27.0122
G01 X22.2289 Y27.0076
G01 X22.3224 Y26.9743
G01 X22.4245 Y26.9487
G01 X22.5287 Y26.9333
G01 X22.6278 Y26.9282
G01 X22.6399 Y26.9282
G01 X22.7330 Y26.9328
G01 X22.7450 Y26.9340
G01 X22.8432 Y26.9487
G01 X22.9453 Y26.9743
G01 X23.0444 Y27.0098
G01 X23.1342 Y27.0521
G01 X23.1449 Y27.0578
G01 X23.2248 Y27.1057
G01 X23.2349 Y27.1124
G01 X23.3145 Y27.1716
G01 X23.3925 Y27.2423
G01 X23.4632 Y27.3204
G01 X23.5225 Y27.4000
G01 X23.5292 Y27.4100
G01 X23.5801 Y27.4952
G01 X23.6251 Y27.5904
G01 X23.6587 Y27.6838
G01 X23.6622 Y27.6954
G01 X23.6861 Y27.7917
G01 X23.7008 Y27.8899
G01 X23.7020 Y27.9019
G01 X23.7066 Y27.9950
G01 X23.7067 Y30.1010
G01 X23.7020 Y30.2001
G01 X23.7013 Y30.2092
G01 X23.6861 Y30.3103
G01 X23.6622 Y30.4066
G01 X23.6587 Y30.4182
G01 X23.6251 Y30.5116
G01 X23.5828 Y30.6014
G01 X23.5771 Y30.6120
G01 X23.5259 Y30.6971
G01 X23.4669 Y30.7769
G01 X23.4593 Y30.7862
G01 X23.3967 Y30.8553
G01 X23.3881 Y30.8638
G01 X23.3145 Y30.9304
G01 X23.2349 Y30.9896
G01 X23.2248 Y30.9963
G01 X23.1396 Y31.0472
G01 X23.0499 Y31.0898
G01 X23.0416 Y31.0934
G01 X23.0319 Y31.0969
G01 X23.0319 Y32.3055
G01 X26.9255 Y36.1990
G01 X26.9477 Y36.2234
G01 X26.9554 Y36.2327
G01 X26.9750 Y36.2594
G01 X26.9950 Y36.2929
G01 X27.0117 Y36.3282
G01 X27.0230 Y36.3592
G01 X27.0265 Y36.3708
G01 X27.0349 Y36.4058
G01 X27.0401 Y36.4415
G01 X27.0420 Y36.4805
G01 X27.0420 Y41.0477
G01 X27.1026 Y41.0765
G01 X27.1794 Y41.1223
G01 X27.1894 Y41.1290
G01 X27.2588 Y41.1806
G01 X27.2658 Y41.1864
G01 X27.3319 Y41.2466
G01 X27.3921 Y41.3127
G01 X27.3979 Y41.3197
G01 X27.4495 Y41.3891
G01 X27.4562 Y41.3991
G01 X27.5020 Y41.4759
G01 X27.5404 Y41.5567
G01 X27.5450 Y41.5678
G01 X27.5750 Y41.6521
G01 X27.5969 Y41.7388
G01 X27.5988 Y41.7477
G01 X27.6122 Y41.8391
G01 X27.6169 Y41.9345
G01 X27.6169 Y44.2345
G01 X27.6125 Y44.3269
G01 X27.6115 Y44.3358
G01 X27.5982 Y44.4243
G01 X27.5750 Y44.5169
G01 X27.5428 Y44.6068
G01 X27.5020 Y44.6931
G01 X27.4529 Y44.7750
G01 X27.3961 Y44.8517
G01 X27.3319 Y44.9224
G01 X27.2658 Y44.9826
G01 X27.2564 Y44.9903
G01 X27.1894 Y45.0400
G01 X27.1794 Y45.0467
G01 X27.1026 Y45.0925
G01 X27.0218 Y45.1309
G01 X27.0107 Y45.1355
G01 X26.9264 Y45.1655
G01 X26.8397 Y45.1874
G01 X26.8279 Y45.1897
G01 X26.7394 Y45.2027
G01 X26.6440 Y45.2074
G01 X26.5486 Y45.2027
G01 X26.4572 Y45.1893
G01 X26.4483 Y45.1874
G01 X26.3616 Y45.1655
G01 X26.2773 Y45.1355
G01 X26.2662 Y45.1309
G01 X26.1854 Y45.0925
G01 X26.1086 Y45.0467
G01 X26.0986 Y45.0400
G01 X26.0268 Y44.9866
G01 X25.9604 Y44.9266
G01 X25.9519 Y44.9181
G01 X25.8919 Y44.8517
G01 X25.8385 Y44.7799
G01 X25.8318 Y44.7699
G01 X25.7860 Y44.6931
G01 X25.7476 Y44.6123
G01 X25.7440 Y44.6040
G01 X25.7130 Y44.5169
G01 X25.6898 Y44.4243
G01 X25.6758 Y44.3299
G01 X25.6712 Y44.2405
G01 X25.6711 Y42.6745
G01 X25.3496 Y42.3530
G01 X23.3489 Y42.3530
G01 X23.3489 Y42.3705
G01 X23.3474 Y42.4010
G01 X23.3464 Y42.4100
G01 X23.3423 Y42.4373
G01 X23.3404 Y42.4461
G01 X23.3328 Y42.4757
G01 X23.3216 Y42.5074
G01 X23.3181 Y42.5157
G01 X23.3049 Y42.5433
G01 X23.2861 Y42.5747
G01 X23.2643 Y42.6041
G01 X23.2418 Y42.6290
G01 X23.2353 Y42.6353
G01 X23.2126 Y42.6558
G01 X23.1832 Y42.6776
G01 X23.1518 Y42.6964
G01 X23.1187 Y42.7120
G01 X23.0842 Y42.7243
G01 X23.0487 Y42.7332
G01 X23.0126 Y42.7386
G01 X22.9760 Y42.7404
G01 X21.6760 Y42.7404
G01 X21.6455 Y42.7390
G01 X21.6365 Y42.7383
G01 X21.6062 Y42.7338
G01 X21.5974 Y42.7319
G01 X21.5678 Y42.7243
G01 X21.5389 Y42.7142
G01 X21.5278 Y42.7096
G01 X21.5002 Y42.6964
G01 X21.4739 Y42.6808
G01 X21.4663 Y42.6758
G01 X21.4394 Y42.6558
G01 X21.4167 Y42.6353
G01 X21.4102 Y42.6290
G01 X21.3897 Y42.6064
G01 X21.3694 Y42.5796
G01 X21.3643 Y42.5721
G01 X21.3486 Y42.5459
G01 X21.3407 Y42.5300
G01 X20.1514 Y42.5300
G01 X20.1396 Y42.5352
G01 X20.1201 Y42.5422
G01 X20.0942 Y42.5490
G01 X20.0853 Y42.5507
G01 X20.0647 Y42.5536
G01 X20.0380 Y42.5549
G01 X18.3880 Y42.5549
G01 X18.3643 Y42.5538
G01 X18.3553 Y42.5528
G01 X18.3348 Y42.5497
G01 X18.3117 Y42.5440
G01 X18.3031 Y42.5413
G01 X18.2836 Y42.5341
G01 X18.2647 Y42.5254
G01 X18.2567 Y42.5212
G01 X18.2364 Y42.5089
G01 X18.2196 Y42.4967
G01 X18.2126 Y42.4910
G01 X18.1972 Y42.4771
G01 X18.1909 Y42.4706
G01 X18.1770 Y42.4551
G01 X18.1646 Y42.4385
G01 X18.1594 Y42.4311
G01 X18.1473 Y42.4106
G01 X18.1359 Y42.3864
G01 X18.1269 Y42.3612
G01 X18.1217 Y42.3411
G01 X18.1198 Y42.3323
G01 X18.1167 Y42.3117
G01 X18.1160 Y42.3027
G01 X18.1151 Y42.2820
G01 X18.1151 Y41.9790
G01 X18.1164 Y41.9553
G01 X18.1193 Y41.9347
G01 X18.1210 Y41.9258
G01 X18.1260 Y41.9057
G01 X18.1287 Y41.8971
G01 X18.1359 Y41.8776
G01 X18.1459 Y41.8560
G01 X18.1503 Y41.8481
G01 X18.1611 Y41.8304
G01 X18.1752 Y41.8112
G01 X18.1810 Y41.8043
G01 X18.1950 Y41.7890
G01 X18.2103 Y41.7750
G01 X18.2172 Y41.7692
G01 X18.2364 Y41.7551
G01 X18.2567 Y41.7428
G01 X18.2647 Y41.7386
G01 X18.2836 Y41.7299
G01 X18.3031 Y41.7227
G01 X18.3146 Y41.7192
G01 X18.3318 Y41.7150
G01 X18.3407 Y41.7133
G01 X18.3613 Y41.7104
G01 X18.3880 Y41.7091
G01 X20.0380 Y41.7091
G01 X20.0647 Y41.7104
G01 X20.0853 Y41.7133
G01 X20.0942 Y41.7150
G01 X20.1201 Y41.7218
G01 X20.1396 Y41.7288
G01 X20.1514 Y41.7340
G01 X21.3031 Y41.7340
G01 X21.3031 Y41.5425
G01 X21.3045 Y41.5120
G01 X21.3052 Y41.5030
G01 X21.3103 Y41.4698
G01 X21.3175 Y41.4401
G01 X21.3201 Y41.4314
G01 X21.3293 Y41.4054
G01 X21.3327 Y41.3970
G01 X21.3457 Y41.3694
G01 X21.3501 Y41.3615
G01 X21.3643 Y41.3379
G01 X21.3694 Y41.3304
G01 X21.3877 Y41.3059
G01 X21.4082 Y41.2832
G01 X21.4167 Y41.2747
G01 X21.4394 Y41.2542
G01 X21.4688 Y41.2324
G01 X21.5002 Y41.2136
G01 X21.5278 Y41.2004
G01 X21.5389 Y41.1958
G01 X21.5678 Y41.1857
G01 X21.5974 Y41.1781
G01 X21.6092 Y41.1757
G01 X21.6394 Y41.1714
G01 X21.6760 Y41.1696
G01 X22.9760 Y41.1696
G01 X23.0126 Y41.1714
G01 X23.0428 Y41.1757
G01 X23.0517 Y41.1774
G01 X23.0842 Y41.1857
G01 X23.1187 Y41.1980
G01 X23.1518 Y41.2136
G01 X23.1781 Y41.2292
G01 X23.1857 Y41.2342
G01 X23.2078 Y41.2505
G01 X23.2171 Y41.2582
G01 X23.2397 Y41.2788
G01 X23.2603 Y41.3014
G01 X23.2661 Y41.3083
G01 X23.2861 Y41.3353
G01 X23.3049 Y41.3667
G01 X23.3205 Y41.3998
G01 X23.3319 Y41.4314
G01 X23.3345 Y41.4401
G01 X23.3417 Y41.4698
G01 X23.3468 Y41.5030
G01 X23.3488 Y41.5365
G01 X23.3489 Y41.5570
G01 X25.5175 Y41.5570
G01 X25.5535 Y41.5589
G01 X25.5862 Y41.5636
G01 X25.5980 Y41.5659
G01 X25.6300 Y41.5741
G01 X25.6612 Y41.5851
G01 X25.6696 Y41.5884
G01 X25.7021 Y41.6040
G01 X25.7252 Y41.6176
G01 X25.7452 Y41.5622
G01 X25.7846 Y41.4786
G01 X25.7890 Y41.4706
G01 X25.8334 Y41.3965
G01 X25.8385 Y41.3891
G01 X25.8919 Y41.3173
G01 X25.9519 Y41.2509
G01 X25.9604 Y41.2424
G01 X26.0268 Y41.1824
G01 X26.1010 Y41.1273
G01 X26.1086 Y41.1223
G01 X26.1854 Y41.0765
G01 X26.2460 Y41.0477
G01 X26.2460 Y36.6454
G01 X22.3524 Y32.7518
G01 X22.3262 Y32.7229
G01 X22.3029 Y32.6915
G01 X22.2858 Y32.6632
G01 X22.2801 Y32.6526
G01 X22.2661 Y32.6227
G01 X22.2530 Y32.5859
G01 X22.2448 Y32.5539
G01 X22.2424 Y32.5421
G01 X22.2377 Y32.5094
G01 X22.2360 Y32.4764
G01 X22.2352 Y31.0967
G01 X22.2261 Y31.0934
G01 X22.2178 Y31.0898
G01 X22.1281 Y31.0472
G01 X22.0378 Y30.9931
G01 X21.9532 Y30.9304
G01 X21.8752 Y30.8597
G01 X21.8045 Y30.7816
G01 X21.7418 Y30.6971
G01 X21.6876 Y30.6068
G01 X21.6426 Y30.5116
G01 X21.6071 Y30.4124
G01 X21.5829 Y30.3162
G01 X21.5805 Y30.3044
G01 X21.5669 Y30.2121
G01 X21.5659 Y30.2032
G01 X21.5609 Y30.1010
G01 X21.5609 Y29.4490
G01 X17.8780 Y29.4490
G01 X17.8450 Y29.4474
G01 X17.8360 Y29.4464
G01 X17.8033 Y29.4414
G01 X17.7713 Y29.4335
G01 X17.7597 Y29.4300
G01 X17.7287 Y29.4187
G01 X17.6988 Y29.4047
G01 X17.6907 Y29.4006
G01 X17.6599 Y29.3820
G01 X17.6332 Y29.3624
G01 X17.6239 Y29.3547
G01 X17.5995 Y29.3325
G01 X12.5245 Y24.2575
G01 X12.4983 Y24.2285
G01 X12.4785 Y24.2021
G01 X12.4718 Y24.1920
G01 X12.4564 Y24.1663
G01 X12.4523 Y24.1582
G01 X12.4383 Y24.1283
G01 X12.4251 Y24.0915
G01 X12.4169 Y24.0595
G01 X12.4146 Y24.0477
G01 X12.4099 Y24.0150
G01 X12.4080 Y23.9790
G01 X12.4073 Y19.1587
G01 X12.3982 Y19.1554
G01 X12.3899 Y19.1518
G01 X12.3002 Y19.1092
G01 X12.2099 Y19.0551
G01 X12.1254 Y18.9924
G01 X12.0473 Y18.9217
G01 X11.9766 Y18.8436
G01 X11.9139 Y18.7591
G01 X11.8598 Y18.6688
G01 X11.8148 Y18.5736
G01 X11.7793 Y18.4744
G01 X11.7550 Y18.3782
G01 X11.7527 Y18.3664
G01 X11.7390 Y18.2741
G01 X11.7380 Y18.2652
G01 X11.7331 Y18.1630
G01 X11.7331 Y17.5110
G01 X11.4290 Y17.5110
G01 X11.4011 Y17.5275
G01 X11.3713 Y17.5418
G01 X11.3602 Y17.5464
G01 X11.3290 Y17.5574
G01 X11.2970 Y17.5656
G01 X11.2852 Y17.5679
G01 X11.2525 Y17.5726
G01 X11.2195 Y17.5744
G01 X11.2075 Y17.5744
G01 X11.1745 Y17.5726
G01 X11.1358 Y17.5669
G01 X11.0980 Y17.5574
G01 X11.0668 Y17.5464
G01 X11.0557 Y17.5418
G01 X11.0259 Y17.5275
G01 X10.9924 Y17.5075
G01 X10.9610 Y17.4842
G01 X10.9342 Y17.4601
G01 X10.3449 Y16.8708
G01 X10.3449 Y16.9325
G01 X10.3405 Y17.0219
G01 X10.3395 Y17.0308
G01 X10.3268 Y17.1163
G01 X10.3249 Y17.1252
G01 X10.3030 Y17.2119
G01 X10.2720 Y17.2990
G01 X10.2684 Y17.3073
G01 X10.2300 Y17.3881
G01 X10.1809 Y17.4700
G01 X10.1241 Y17.5467
G01 X10.0641 Y17.6131
G01 X10.0578 Y17.6196
G01 X9.9892 Y17.6816
G01 X9.9174 Y17.7350
G01 X9.9074 Y17.7417
G01 X9.8359 Y17.7845
G01 X9.8252 Y17.7902
G01 X9.7443 Y17.8283
G01 X9.6601 Y17.8586
G01 X9.6486 Y17.8621
G01 X9.5618 Y17.8837
G01 X9.4674 Y17.8977
G01 X9.3720 Y17.9024
G01 X9.2766 Y17.8977
G01 X9.1822 Y17.8837
G01 X9.0954 Y17.8621
G01 X9.0839 Y17.8586
G01 X8.9997 Y17.8283
G01 X8.9188 Y17.7902
G01 X8.9081 Y17.7845
G01 X8.8315 Y17.7384
G01 X8.7548 Y17.6816
G01 X8.6884 Y17.6216
G01 X8.6799 Y17.6131
G01 X8.6199 Y17.5467
G01 X8.5631 Y17.4700
G01 X8.5140 Y17.3881
G01 X8.4756 Y17.3073
G01 X8.4710 Y17.2962
G01 X8.4429 Y17.2176
G01 X8.4402 Y17.2090
G01 X8.4178 Y17.1193
G01 X8.4045 Y17.0308
G01 X8.4033 Y17.0188
G01 X8.3991 Y16.9325
G01 X8.3991 Y14.6295
G01 X8.4033 Y14.5402
G01 X8.4045 Y14.5282
G01 X8.4178 Y14.4397
G01 X8.4410 Y14.3471
G01 X8.4732 Y14.2572
G01 X8.5140 Y14.1709
G01 X8.5631 Y14.0890
G01 X8.6162 Y14.0171
G01 X8.6239 Y14.0077
G01 X8.6799 Y13.9459
G01 X8.6884 Y13.9374
G01 X8.7548 Y13.8774
G01 X8.8315 Y13.8206
G01 X8.9134 Y13.7715
G01 X8.9997 Y13.7307
G01 X9.0896 Y13.6985
G01 X9.1763 Y13.6766
G01 X9.1881 Y13.6743
G01 X9.2707 Y13.6620
G01 X9.2827 Y13.6608
G01 X9.3720 Y13.6566
G01 X9.4691 Y13.6615
G00 Z2.0000
G00 X8.1364 Y14.5768
G01 F60.00
G01 Z-0.1300
G01 F80.00
G01 X8.1497 Y14.4206
G01 X8.2023 Y14.2176
G01 X8.2885 Y14.0264
G01 X8.4056 Y13.8525
G01 X8.5503 Y13.7007
G01 X8.7185 Y13.5756
G01 X8.9055 Y13.4805
G01 X9.1057 Y13.4184
G01 X9.2932 Y13.3935
G01 X9.3019 Y13.3920
G01 X9.3104 Y13.3900
G01 X9.3242 Y13.3852
G01 X9.3946 Y13.3540
G01 X9.4081 Y13.3465
G01 X9.4157 Y13.3412
G01 X9.4229 Y13.3354
G01 X9.4365 Y13.3228
G01 X12.7845 Y9.9748
G01 X12.7924 Y9.9661
G01 X12.7977 Y9.9592
G01 X12.8055 Y9.9468
G01 X12.8395 Y9.8845
G01 X12.8459 Y9.8708
G01 X12.8498 Y9.8594
G01 X12.8525 Y9.8476
G01 X12.8538 Y9.8387
G01 X12.8572 Y9.8054
G01 X12.8574 Y8.3947
G01 X12.8708 Y8.2316
G01 X12.9243 Y8.0186
G01 X13.0119 Y7.8172
G01 X13.1312 Y7.6328
G01 X13.2790 Y7.4704
G01 X13.4378 Y7.3450
G01 X13.4444 Y7.3393
G01 X13.4507 Y7.3331
G01 X13.4601 Y7.3220
G01 X13.5047 Y7.2591
G01 X13.5124 Y7.2459
G01 X13.5185 Y7.2317
G01 X13.5212 Y7.2229
G01 X13.5239 Y7.2109
G01 X13.5312 Y7.1670
G01 X13.5324 Y7.1525
G01 X13.5324 Y6.4590
G01 X13.5316 Y6.3828
G01 X13.5382 Y6.3524
G01 X13.5408 Y6.3367
G01 X13.5447 Y6.3027
G01 X13.5520 Y6.2817
G01 X13.5572 Y6.2633
G01 X13.5629 Y6.2380
G01 X13.5761 Y6.2097
G01 X13.5821 Y6.1951
G01 X13.5935 Y6.1628
G01 X13.6070 Y6.1406
G01 X13.6161 Y6.1238
G01 X13.6256 Y6.1036
G01 X13.6446 Y6.0790
G01 X13.6537 Y6.0660
G01 X13.6720 Y6.0371
G01 X13.7814 Y5.9269
G01 X13.7880 Y5.9207
G01 X15.5025 Y4.2063
G01 X15.5558 Y4.1518
G01 X15.5820 Y4.1349
G01 X15.5949 Y4.1257
G01 X15.6218 Y4.1045
G01 X15.6417 Y4.0947
G01 X15.6584 Y4.0854
G01 X15.6804 Y4.0715
G01 X15.7125 Y4.0597
G01 X15.7271 Y4.0535
G01 X15.7552 Y4.0400
G01 X15.7768 Y4.0349
G01 X15.7952 Y4.0295
G01 X15.8197 Y4.0209
G01 X15.8536 Y4.0164
G01 X15.8692 Y4.0136
G01 X15.8996 Y4.0066
G01 X16.0548 Y4.0061
G01 X16.0639 Y4.0064
G01 X52.3525 Y4.0064
G01 X52.4287 Y4.0056
G01 X52.4591 Y4.0122
G01 X52.4748 Y4.0148
G01 X52.5088 Y4.0187
G01 X52.5298 Y4.0260
G01 X52.5482 Y4.0312
G01 X52.5735 Y4.0369
G01 X52.6018 Y4.0501
G01 X52.6164 Y4.0561
G01 X52.6487 Y4.0675
G01 X52.6709 Y4.0810
G01 X52.6877 Y4.0901
G01 X52.7079 Y4.0996
G01 X52.7350 Y4.1204
G01 X52.7480 Y4.1295
G01 X52.7744 Y4.1460
G01 X52.8846 Y4.2554
G01 X52.8908 Y4.2620
G01 X56.8862 Y8.2575
G01 X56.9407 Y8.3108
G01 X56.9576 Y8.3370
G01 X56.9668 Y8.3499
G01 X56.9880 Y8.3768
G01 X56.9978 Y8.3967
G01 X57.0071 Y8.4134
G01 X57.0210 Y8.4354
G01 X57.0328 Y8.4675
G01 X57.0390 Y8.4821
G01 X57.0525 Y8.5102
G01 X57.0586 Y8.5355
G01 X57.0641 Y8.5538
G01 X57.0716 Y8.5747
G01 X57.0761 Y8.6086
G01 X57.0789 Y8.6243
G01 X57.0859 Y8.6546
G01 X57.0864 Y8.8098
G01 X57.0861 Y8.8189
G01 X57.0861 Y24.8643
G01 X57.0870 Y24.8789
G01 X57.0896 Y24.8932
G01 X57.1111 Y24.9670
G01 X57.1150 Y24.9784
G01 X57.1215 Y24.9920
G01 X57.1279 Y25.0023
G01 X57.1333 Y25.0095
G01 X57.1545 Y25.0355
G01 X59.6742 Y27.5555
G01 X59.6806 Y27.5615
G01 X59.6875 Y27.5670
G01 X59.6997 Y27.5750
G01 X59.7672 Y27.6119
G01 X59.7754 Y27.6157
G01 X59.7839 Y27.6190
G01 X59.7954 Y27.6223
G01 X59.8073 Y27.6245
G01 X59.8404 Y27.6280
G01 X59.8502 Y27.6284
G01 X64.3067 Y27.6284
G01 X64.3213 Y27.6271
G01 X64.3356 Y27.6242
G01 X64.4065 Y27.6034
G01 X64.4179 Y27.5995
G01 X64.4289 Y27.5944
G01 X64.4418 Y27.5866
G01 X64.4700 Y27.5643
G01 X64.4774 Y27.5578
G01 X65.8520 Y26.1833
G01 X65.8599 Y26.1746
G01 X65.8685 Y26.1628
G01 X65.8730 Y26.1553
G01 X65.9070 Y26.0930
G01 X65.9110 Y26.0849
G01 X65.9145 Y26.0765
G01 X65.9181 Y26.0650
G01 X65.9205 Y26.0532
G01 X65.9247 Y26.0139
G01 X65.9249 Y25.3176
G01 X65.9246 Y25.3089
G01 X65.9236 Y25.3001
G01 X65.9221 Y25.2915
G01 X65.9199 Y25.2830
G01 X65.8999 Y25.2149
G01 X65.8971 Y25.2064
G01 X65.8923 Y25.1954
G01 X65.8881 Y25.1874
G01 X65.8815 Y25.1774
G01 X65.8760 Y25.1703
G01 X65.8395 Y25.1309
G01 X65.8303 Y25.1225
G01 X65.6957 Y25.0212
G01 X65.5440 Y24.8624
G01 X65.5190 Y24.8261
G01 X65.5115 Y24.8171
G01 X65.5032 Y24.8088
G01 X65.4391 Y24.7563
G01 X65.4263 Y24.7480
G01 X65.4126 Y24.7413
G01 X65.3981 Y24.7364
G01 X65.3832 Y24.7334
G01 X65.3096 Y24.7248
G01 X65.2944 Y24.7240
G01 X65.2822 Y24.7247
G01 X65.2732 Y24.7261
G01 X65.2613 Y24.7289
G01 X65.2497 Y24.7328
G01 X65.2414 Y24.7366
G01 X65.1750 Y24.7692
G01 X65.1672 Y24.7736
G01 X65.1597 Y24.7786
G01 X65.1482 Y24.7880
G01 X65.1398 Y24.7966
G01 X65.1152 Y24.8257
G01 X65.1073 Y24.8367
G01 X64.9595 Y24.9991
G01 X64.7871 Y25.1353
G01 X64.5949 Y25.2414
G01 X64.3878 Y25.3147
G01 X64.1716 Y25.3532
G01 X63.9520 Y25.3559
G01 X63.7349 Y25.3227
G01 X63.5262 Y25.2545
G01 X63.3313 Y25.1531
G01 X63.1557 Y25.0212
G01 X63.0040 Y24.8624
G01 X62.8802 Y24.6810
G01 X62.7877 Y24.4818
G01 X62.7291 Y24.2701
G01 X62.7099 Y24.0909
G01 X62.7099 Y21.8632
G01 X62.7233 Y21.7001
G01 X62.7768 Y21.4871
G01 X62.8644 Y21.2857
G01 X62.9837 Y21.1013
G01 X63.1315 Y20.9389
G01 X63.2925 Y20.8116
G01 X63.3032 Y20.8016
G01 X63.3109 Y20.7928
G01 X63.3572 Y20.7276
G01 X63.3635 Y20.7171
G01 X63.3676 Y20.7088
G01 X63.3720 Y20.6973
G01 X63.3752 Y20.6854
G01 X63.3832 Y20.6384
G01 X63.3844 Y20.6297
G01 X63.3849 Y20.6181
G01 X63.3849 Y16.4995
G01 X63.3836 Y16.4849
G01 X63.3821 Y16.4763
G01 X63.3799 Y16.4678
G01 X63.3581 Y16.3939
G01 X63.3535 Y16.3825
G01 X63.3478 Y16.3717
G01 X63.3428 Y16.3640
G01 X63.3373 Y16.3567
G01 X63.3312 Y16.3498
G01 X63.3247 Y16.3434
G01 X63.2603 Y16.2903
G01 X63.2533 Y16.2849
G01 X63.2459 Y16.2801
G01 X63.2382 Y16.2758
G01 X63.2302 Y16.2721
G01 X63.0446 Y16.1987
G01 X62.8654 Y16.0900
G01 X62.7070 Y15.9525
G01 X62.5740 Y15.7904
G01 X62.4703 Y15.6081
G01 X62.3987 Y15.4110
G01 X62.3610 Y15.2024
G01 X62.3604 Y15.1893
G01 X62.3604 Y12.7353
G01 X62.3737 Y12.5791
G01 X62.4263 Y12.3761
G01 X62.5125 Y12.1849
G01 X62.6296 Y12.0110
G01 X62.7743 Y11.8592
G01 X62.9425 Y11.7341
G01 X63.1295 Y11.6390
G01 X63.3297 Y11.5769
G01 X63.5376 Y11.5493
G01 X63.7471 Y11.5572
G01 X63.9523 Y11.6002
G01 X64.1474 Y11.6773
G01 X64.3266 Y11.7860
G01 X64.4850 Y11.9235
G01 X64.6180 Y12.0856
G01 X64.6505 Y12.1428
G01 X64.6553 Y12.1501
G01 X64.6606 Y12.1571
G01 X64.6705 Y12.1679
G01 X64.7216 Y12.2172
G01 X64.7308 Y12.2252
G01 X64.7407 Y12.2323
G01 X64.7513 Y12.2383
G01 X64.7625 Y12.2433
G01 X64.7741 Y12.2472
G01 X64.7830 Y12.2493
G01 X64.8556 Y12.2637
G01 X64.8647 Y12.2649
G01 X64.8769 Y12.2655
G01 X64.8890 Y12.2649
G01 X64.8981 Y12.2636
G01 X64.9100 Y12.2609
G01 X64.9216 Y12.2570
G01 X64.9876 Y12.2310
G01 X64.9960 Y12.2274
G01 X65.0040 Y12.2231
G01 X65.0117 Y12.2183
G01 X65.0191 Y12.2129
G01 X65.0260 Y12.2070
G01 X65.0325 Y12.2005
G01 X65.0597 Y12.1714
G01 X65.0640 Y12.1665
G01 X65.0700 Y12.1588
G01 X65.1696 Y12.0110
G01 X65.3143 Y11.8592
G01 X65.4825 Y11.7341
G01 X65.6695 Y11.6390
G01 X65.8697 Y11.5769
G01 X66.0776 Y11.5493
G01 X66.2871 Y11.5572
G01 X66.4923 Y11.6002
G01 X66.6874 Y11.6773
G01 X66.7302 Y11.7032
G01 X66.8666 Y11.7860
G01 X67.0250 Y11.9235
G01 X67.1580 Y12.0856
G01 X67.2617 Y12.2678
G01 X67.3333 Y12.4650
G01 X67.3710 Y12.6736
G01 X67.3716 Y12.6867
G01 X67.3717 Y13.0343
G01 X67.3733 Y13.0489
G01 X67.3758 Y13.0603
G01 X67.3966 Y13.1312
G01 X67.4006 Y13.1428
G01 X67.4072 Y13.1565
G01 X67.4154 Y13.1694
G01 X67.4252 Y13.1811
G01 X67.4340 Y13.1895
G01 X67.4877 Y13.2360
G01 X67.4973 Y13.2436
G01 X67.5051 Y13.2486
G01 X67.5131 Y13.2530
G01 X67.5215 Y13.2568
G01 X67.5302 Y13.2600
G01 X67.5390 Y13.2625
G01 X67.5972 Y13.2752
G01 X67.6088 Y13.2768
G01 X67.6176 Y13.2774
G01 X69.1810 Y13.2774
G01 X69.1927 Y13.2768
G01 X69.2014 Y13.2757
G01 X69.2128 Y13.2732
G01 X69.2867 Y13.2515
G01 X69.2953 Y13.2484
G01 X69.3036 Y13.2447
G01 X69.3117 Y13.2403
G01 X69.3194 Y13.2353
G01 X69.3290 Y13.2279
G01 X69.3400 Y13.2173
G01 X69.3905 Y13.1590
G01 X69.3961 Y13.1517
G01 X69.4011 Y13.1439
G01 X69.4055 Y13.1359
G01 X69.4093 Y13.1275
G01 X69.4125 Y13.1188
G01 X69.4157 Y13.1070
G01 X69.4277 Y13.0518
G01 X69.4293 Y13.0402
G01 X69.4299 Y13.0285
G01 X69.4299 Y12.9496
G01 X69.4435 Y12.7705
G01 X69.4980 Y12.5354
G01 X69.5874 Y12.3114
G01 X69.7096 Y12.1034
G01 X69.8620 Y11.9163
G01 X70.0408 Y11.7544
G01 X70.2421 Y11.6215
G01 X70.4612 Y11.5205
G01 X70.6930 Y11.4538
G01 X70.9323 Y11.4229
G01 X71.1734 Y11.4286
G01 X71.4110 Y11.4707
G01 X71.6394 Y11.5482
G01 X71.8535 Y11.6594
G01 X72.0483 Y11.8017
G01 X72.2193 Y11.9719
G01 X72.3627 Y12.1659
G01 X72.4750 Y12.3794
G01 X72.5537 Y12.6075
G01 X72.5973 Y12.8462
G01 X72.6011 Y12.9183
G01 X72.6011 Y14.6724
G01 X72.5875 Y14.8515
G01 X72.5330 Y15.0866
G01 X72.4436 Y15.3106
G01 X72.3214 Y15.5186
G01 X72.1690 Y15.7057
G01 X71.9902 Y15.8676
G01 X71.7889 Y16.0005
G01 X71.5698 Y16.1015
G01 X71.3380 Y16.1682
G01 X71.0987 Y16.1991
G01 X70.8576 Y16.1934
G01 X70.6200 Y16.1513
G01 X70.3916 Y16.0738
G01 X70.1775 Y15.9626
G01 X69.9827 Y15.8203
G01 X69.8117 Y15.6501
G01 X69.6683 Y15.4561
G01 X69.5560 Y15.2426
G01 X69.4773 Y15.0145
G01 X69.4386 Y14.8028
G01 X69.4351 Y14.7886
G01 X69.4322 Y14.7803
G01 X69.4288 Y14.7722
G01 X69.3956 Y14.7062
G01 X69.3879 Y14.6930
G01 X69.3806 Y14.6832
G01 X69.3702 Y14.6721
G01 X69.3609 Y14.6642
G01 X69.3483 Y14.6556
G01 X69.2820 Y14.6166
G01 X69.2740 Y14.6128
G01 X69.2657 Y14.6095
G01 X69.2572 Y14.6068
G01 X69.2486 Y14.6048
G01 X69.2089 Y14.5995
G01 X69.1938 Y14.5986
G01 X67.6147 Y14.5987
G01 X67.6030 Y14.5999
G01 X67.5887 Y14.6028
G01 X67.5148 Y14.6245
G01 X67.5062 Y14.6276
G01 X67.4979 Y14.6313
G01 X67.4898 Y14.6357
G01 X67.4821 Y14.6407
G01 X67.4725 Y14.6481
G01 X67.4615 Y14.6587
G01 X67.4110 Y14.7170
G01 X67.4054 Y14.7243
G01 X67.3989 Y14.7347
G01 X67.3946 Y14.7429
G01 X67.3900 Y14.7543
G01 X67.3865 Y14.7660
G01 X67.3744 Y14.8214
G01 X67.3729 Y14.8300
G01 X67.3717 Y14.8417
G01 X67.3716 Y15.1407
G01 X67.3583 Y15.2969
G01 X67.3057 Y15.4999
G01 X67.2195 Y15.6911
G01 X67.1024 Y15.8650
G01 X66.9577 Y16.0168
G01 X66.7895 Y16.1419
G01 X66.6025 Y16.2370
G01 X66.4023 Y16.2991
G01 X66.1944 Y16.3267
G01 X65.9849 Y16.3188
G01 X65.7797 Y16.2758
G01 X65.5846 Y16.1987
G01 X65.4054 Y16.0900
G01 X65.2470 Y15.9525
G01 X65.1475 Y15.8312
G01 X65.1417 Y15.8246
G01 X65.1354 Y15.8184
G01 X65.1241 Y15.8092
G01 X65.0630 Y15.7676
G01 X65.0553 Y15.7627
G01 X65.0472 Y15.7584
G01 X65.0359 Y15.7537
G01 X65.0272 Y15.7508
G01 X65.0153 Y15.7481
G01 X65.0032 Y15.7466
G01 X64.9231 Y15.7443
G01 X64.9109 Y15.7449
G01 X64.9018 Y15.7461
G01 X64.8929 Y15.7480
G01 X64.8841 Y15.7505
G01 X64.8755 Y15.7537
G01 X64.8672 Y15.7576
G01 X64.8592 Y15.7620
G01 X64.7933 Y15.8020
G01 X64.7835 Y15.8094
G01 X64.7746 Y15.8176
G01 X64.7664 Y15.8267
G01 X64.7592 Y15.8366
G01 X64.7517 Y15.8498
G01 X64.7192 Y15.9163
G01 X64.7137 Y15.9305
G01 X64.7100 Y15.9452
G01 X64.7084 Y15.9572
G01 X64.7065 Y15.9786
G01 X64.7061 Y15.9890
G01 X64.7061 Y20.6204
G01 X64.7070 Y20.6350
G01 X64.7096 Y20.6493
G01 X64.7311 Y20.7231
G01 X64.7350 Y20.7344
G01 X64.7387 Y20.7426
G01 X64.7429 Y20.7506
G01 X64.7478 Y20.7582
G01 X64.7531 Y20.7654
G01 X64.7590 Y20.7722
G01 X64.7937 Y20.8093
G01 X64.8056 Y20.8194
G01 X64.9353 Y20.9168
G01 X65.0870 Y21.0756
G01 X65.1102 Y21.1096
G01 X65.1156 Y21.1165
G01 X65.1215 Y21.1231
G01 X65.1322 Y21.1330
G01 X65.1871 Y21.1780
G01 X65.1995 Y21.1869
G01 X65.2101 Y21.1929
G01 X65.2213 Y21.1978
G01 X65.2358 Y21.2023
G01 X65.2509 Y21.2050
G01 X65.3275 Y21.2137
G01 X65.3427 Y21.2138
G01 X65.3548 Y21.2125
G01 X65.3697 Y21.2091
G01 X65.3813 Y21.2052
G01 X65.3896 Y21.2014
G01 X65.4560 Y21.1688
G01 X65.4664 Y21.1628
G01 X65.4760 Y21.1558
G01 X65.4828 Y21.1500
G01 X65.4912 Y21.1414
G01 X65.5158 Y21.1123
G01 X65.5237 Y21.1013
G01 X65.6715 Y20.9389
G01 X65.8439 Y20.8027
G01 X66.0361 Y20.6966
G01 X66.2432 Y20.6233
G01 X66.4594 Y20.5848
G01 X66.6790 Y20.5821
G01 X66.8961 Y20.6153
G01 X67.1048 Y20.6835
G01 X67.2997 Y20.7849
G01 X67.4753 Y20.9168
G01 X67.6270 Y21.0756
G01 X67.6520 Y21.1119
G01 X67.6595 Y21.1209
G01 X67.6678 Y21.1292
G01 X67.7271 Y21.1780
G01 X67.7395 Y21.1869
G01 X67.7501 Y21.1929
G01 X67.7613 Y21.1978
G01 X67.7758 Y21.2023
G01 X67.7878 Y21.2046
G01 X67.8675 Y21.2137
G01 X67.8827 Y21.2138
G01 X67.8978 Y21.2119
G01 X67.9126 Y21.2083
G01 X67.9269 Y21.2028
G01 X67.9934 Y21.1702
G01 X68.0064 Y21.1628
G01 X68.0183 Y21.1539
G01 X68.0292 Y21.1436
G01 X68.0558 Y21.1123
G01 X68.0637 Y21.1013
G01 X68.2115 Y20.9389
G01 X68.3839 Y20.8027
G01 X68.5761 Y20.6966
G01 X68.7832 Y20.6233
G01 X68.9994 Y20.5848
G01 X69.2190 Y20.5821
G01 X69.4361 Y20.6153
G01 X69.6448 Y20.6835
G01 X69.8397 Y20.7849
G01 X70.0153 Y20.9168
G01 X70.1670 Y21.0756
G01 X70.2908 Y21.2570
G01 X70.3833 Y21.4562
G01 X70.4419 Y21.6679
G01 X70.4611 Y21.8471
G01 X70.4612 Y22.5606
G01 X70.4624 Y22.5723
G01 X70.4653 Y22.5866
G01 X70.4870 Y22.6604
G01 X70.4924 Y22.6744
G01 X70.4965 Y22.6825
G01 X70.5012 Y22.6903
G01 X70.5064 Y22.6976
G01 X70.5252 Y22.7210
G01 X70.5340 Y22.7308
G01 X73.5232 Y25.7200
G01 X73.5777 Y25.7733
G01 X73.5946 Y25.7995
G01 X73.6038 Y25.8124
G01 X73.6250 Y25.8393
G01 X73.6348 Y25.8592
G01 X73.6441 Y25.8759
G01 X73.6580 Y25.8979
G01 X73.6698 Y25.9300
G01 X73.6760 Y25.9446
G01 X73.6895 Y25.9727
G01 X73.6956 Y25.9980
G01 X73.7011 Y26.0163
G01 X73.7086 Y26.0372
G01 X73.7131 Y26.0711
G01 X73.7159 Y26.0868
G01 X73.7229 Y26.1171
G01 X73.7234 Y26.2723
G01 X73.7231 Y26.2814
G01 X73.7231 Y26.4072
G01 X73.7237 Y26.4189
G01 X73.7253 Y26.4305
G01 X73.7281 Y26.4418
G01 X73.7490 Y26.5129
G01 X73.7546 Y26.5273
G01 X73.7604 Y26.5382
G01 X73.7692 Y26.5510
G01 X73.7965 Y26.5828
G01 X73.8046 Y26.5913
G01 X73.9515 Y26.7190
G01 X74.0845 Y26.8811
G01 X74.1882 Y27.0633
G01 X74.2598 Y27.2605
G01 X74.2975 Y27.4691
G01 X74.2981 Y27.4822
G01 X74.2981 Y29.9362
G01 X74.2848 Y30.0924
G01 X74.2322 Y30.2954
G01 X74.1460 Y30.4866
G01 X74.0289 Y30.6605
G01 X73.8842 Y30.8123
G01 X73.8211 Y30.8592
G01 X73.8144 Y30.8649
G01 X73.8061 Y30.8731
G01 X73.7986 Y30.8821
G01 X73.7559 Y30.9388
G01 X73.7507 Y30.9463
G01 X73.7447 Y30.9567
G01 X73.7409 Y30.9649
G01 X73.7377 Y30.9733
G01 X73.7344 Y30.9849
G01 X73.7246 Y31.0383
G01 X73.7235 Y31.0477
G01 X73.7231 Y31.0572
G01 X73.7231 Y32.2154
G01 X73.7244 Y32.2300
G01 X73.7273 Y32.2443
G01 X73.7490 Y32.3182
G01 X73.7521 Y32.3268
G01 X73.7572 Y32.3379
G01 X73.7634 Y32.3484
G01 X73.7688 Y32.3558
G01 X73.7767 Y32.3651
G01 X73.7832 Y32.3715
G01 X73.8439 Y32.4239
G01 X73.8565 Y32.4325
G01 X73.8672 Y32.4383
G01 X73.8756 Y32.4419
G01 X73.8843 Y32.4448
G01 X73.8932 Y32.4471
G01 X73.9022 Y32.4488
G01 X73.9784 Y32.4596
G01 X73.9933 Y32.4601
G01 X74.0081 Y32.4588
G01 X74.0227 Y32.4557
G01 X74.0340 Y32.4520
G01 X74.0941 Y32.4272
G01 X74.1078 Y32.4205
G01 X74.1206 Y32.4122
G01 X74.2605 Y32.3081
G01 X74.4475 Y32.2130
G01 X74.6477 Y32.1509
G01 X74.8556 Y32.1233
G01 X75.0651 Y32.1312
G01 X75.2703 Y32.1742
G01 X75.4654 Y32.2513
G01 X75.6446 Y32.3600
G01 X75.8030 Y32.4975
G01 X75.9360 Y32.6596
G01 X75.9685 Y32.7168
G01 X75.9733 Y32.7241
G01 X75.9786 Y32.7311
G01 X75.9885 Y32.7419
G01 X76.0441 Y32.7953
G01 X76.0562 Y32.8046
G01 X76.0666 Y32.8109
G01 X76.0776 Y32.8162
G01 X76.0891 Y32.8203
G01 X76.1010 Y32.8233
G01 X76.1706 Y32.8371
G01 X76.1827 Y32.8389
G01 X76.1918 Y32.8395
G01 X76.2040 Y32.8391
G01 X76.2161 Y32.8376
G01 X76.2280 Y32.8349
G01 X76.2396 Y32.8310
G01 X76.3056 Y32.8050
G01 X76.3140 Y32.8014
G01 X76.3220 Y32.7971
G01 X76.3322 Y32.7905
G01 X76.3394 Y32.7850
G01 X76.3462 Y32.7789
G01 X76.3799 Y32.7430
G01 X76.3880 Y32.7328
G01 X76.4876 Y32.5850
G01 X76.6323 Y32.4332
G01 X76.6954 Y32.3863
G01 X76.7064 Y32.3766
G01 X76.7143 Y32.3680
G01 X76.7606 Y32.3067
G01 X76.7674 Y32.2967
G01 X76.7718 Y32.2888
G01 X76.7767 Y32.2778
G01 X76.7797 Y32.2693
G01 X76.7828 Y32.2577
G01 X76.7919 Y32.2072
G01 X76.7930 Y32.1978
G01 X76.7934 Y32.1883
G01 X76.7934 Y29.4310
G01 X76.7926 Y29.3548
G01 X76.7992 Y29.3244
G01 X76.8018 Y29.3087
G01 X76.8057 Y29.2747
G01 X76.8130 Y29.2537
G01 X76.8182 Y29.2353
G01 X76.8239 Y29.2100
G01 X76.8371 Y29.1817
G01 X76.8431 Y29.1671
G01 X76.8545 Y29.1348
G01 X76.8662 Y29.1159
G01 X76.8754 Y29.0991
G01 X76.8836 Y29.0821
G01 X76.8871 Y29.0738
G01 X76.8915 Y29.0596
G01 X76.9040 Y29.0035
G01 X76.9056 Y28.9947
G01 X76.9066 Y28.9858
G01 X76.9069 Y28.9769
G01 X76.9069 Y27.5308
G01 X76.9202 Y27.3746
G01 X76.9728 Y27.1716
G01 X77.0590 Y26.9804
G01 X77.1761 Y26.8065
G01 X77.3208 Y26.6547
G01 X77.3862 Y26.6059
G01 X77.3969 Y26.5960
G01 X77.4064 Y26.5849
G01 X77.4509 Y26.5257
G01 X77.4574 Y26.5156
G01 X77.4629 Y26.5049
G01 X77.4673 Y26.4937
G01 X77.4706 Y26.4821
G01 X77.4799 Y26.4318
G01 X77.4813 Y26.4225
G01 X77.4819 Y26.4098
G01 X77.4819 Y25.0744
G01 X77.4816 Y25.0656
G01 X77.4806 Y25.0569
G01 X77.4777 Y25.0426
G01 X77.4569 Y24.9716
G01 X77.4530 Y24.9602
G01 X77.4479 Y24.9493
G01 X77.4401 Y24.9364
G01 X77.4277 Y24.9193
G01 X77.3880 Y24.8709
G01 X77.2843 Y24.6887
G01 X77.2127 Y24.4915
G01 X77.1750 Y24.2829
G01 X77.1744 Y24.2698
G01 X77.1744 Y21.8158
G01 X77.1877 Y21.6596
G01 X77.2403 Y21.4566
G01 X77.3265 Y21.2654
G01 X77.4436 Y21.0915
G01 X77.5883 Y20.9397
G01 X77.7565 Y20.8146
G01 X77.9435 Y20.7195
G01 X78.1437 Y20.6574
G01 X78.3516 Y20.6298
G01 X78.5611 Y20.6377
G01 X78.7663 Y20.6807
G01 X78.9614 Y20.7578
G01 X79.1406 Y20.8665
G01 X79.2990 Y21.0040
G01 X79.4320 Y21.1661
G01 X79.5357 Y21.3483
G01 X79.6073 Y21.5455
G01 X79.6450 Y21.7541
G01 X79.6456 Y21.7672
G01 X79.6456 Y24.2212
G01 X79.6323 Y24.3774
G01 X79.5797 Y24.5804
G01 X79.5641 Y24.6149
G01 X79.4935 Y24.7716
G01 X79.3764 Y24.9455
G01 X79.2317 Y25.0973
G01 X79.0635 Y25.2224
G01 X78.9392 Y25.2856
G01 X78.9315 Y25.2899
G01 X78.9218 Y25.2964
G01 X78.9106 Y25.3057
G01 X78.8589 Y25.3544
G01 X78.8525 Y25.3610
G01 X78.8446 Y25.3705
G01 X78.8394 Y25.3781
G01 X78.8334 Y25.3888
G01 X78.8295 Y25.3972
G01 X78.8246 Y25.4117
G01 X78.8066 Y25.4782
G01 X78.8044 Y25.4898
G01 X78.8031 Y25.5045
G01 X78.8031 Y26.4072
G01 X78.8040 Y26.4218
G01 X78.8066 Y26.4362
G01 X78.8281 Y26.5099
G01 X78.8310 Y26.5187
G01 X78.8346 Y26.5273
G01 X78.8404 Y26.5382
G01 X78.8455 Y26.5460
G01 X78.8511 Y26.5534
G01 X78.8765 Y26.5828
G01 X78.8867 Y26.5932
G01 X79.0315 Y26.7190
G01 X79.1645 Y26.8811
G01 X79.2682 Y27.0633
G01 X79.3398 Y27.2605
G01 X79.3775 Y27.4691
G01 X79.3781 Y27.4822
G01 X79.3781 Y29.9362
G01 X79.3648 Y30.0924
G01 X79.3122 Y30.2954
G01 X79.2260 Y30.4866
G01 X79.1089 Y30.6605
G01 X78.9642 Y30.8123
G01 X78.7960 Y30.9374
G01 X78.6090 Y31.0325
G01 X78.4088 Y31.0946
G01 X78.3279 Y31.1054
G01 X78.3193 Y31.1071
G01 X78.3108 Y31.1093
G01 X78.2971 Y31.1145
G01 X78.2322 Y31.1432
G01 X78.2240 Y31.1473
G01 X78.2135 Y31.1536
G01 X78.2038 Y31.1609
G01 X78.1947 Y31.1691
G01 X78.1866 Y31.1782
G01 X78.1794 Y31.1880
G01 X78.1372 Y31.2523
G01 X78.1317 Y31.2628
G01 X78.1282 Y31.2710
G01 X78.1253 Y31.2794
G01 X78.1231 Y31.2880
G01 X78.1215 Y31.2967
G01 X78.1159 Y31.3336
G01 X78.1146 Y31.3487
G01 X78.1146 Y32.1857
G01 X78.1152 Y32.1974
G01 X78.1168 Y32.2090
G01 X78.1196 Y32.2203
G01 X78.1396 Y32.2884
G01 X78.1425 Y32.2972
G01 X78.1461 Y32.3058
G01 X78.1519 Y32.3167
G01 X78.1588 Y32.3270
G01 X78.1646 Y32.3343
G01 X78.1899 Y32.3635
G01 X78.1982 Y32.3717
G01 X78.3430 Y32.4975
G01 X78.4760 Y32.6596
G01 X78.5101 Y32.7193
G01 X78.5168 Y32.7288
G01 X78.5264 Y32.7398
G01 X78.5818 Y32.7933
G01 X78.5937 Y32.8029
G01 X78.6040 Y32.8094
G01 X78.6148 Y32.8150
G01 X78.6291 Y32.8203
G01 X78.6410 Y32.8233
G01 X78.7106 Y32.8371
G01 X78.7196 Y32.8386
G01 X78.7349 Y32.8395
G01 X78.7440 Y32.8391
G01 X78.7531 Y32.8381
G01 X78.7651 Y32.8357
G01 X78.7767 Y32.8321
G01 X78.8456 Y32.8050
G01 X78.8540 Y32.8014
G01 X78.8620 Y32.7971
G01 X78.8747 Y32.7887
G01 X78.8817 Y32.7830
G01 X78.8884 Y32.7767
G01 X78.9177 Y32.7454
G01 X78.9261 Y32.7354
G01 X79.0276 Y32.5850
G01 X79.1723 Y32.4332
G01 X79.3405 Y32.3081
G01 X79.5275 Y32.2130
G01 X79.7277 Y32.1509
G01 X79.9356 Y32.1233
G01 X80.1451 Y32.1312
G01 X80.3503 Y32.1742
G01 X80.5454 Y32.2513
G01 X80.7246 Y32.3600
G01 X80.8830 Y32.4975
G01 X81.0160 Y32.6596
G01 X81.0488 Y32.7173
G01 X81.0536 Y32.7246
G01 X81.0589 Y32.7316
G01 X81.0688 Y32.7424
G01 X81.1199 Y32.7917
G01 X81.1291 Y32.7997
G01 X81.1390 Y32.8068
G01 X81.1496 Y32.8128
G01 X81.1608 Y32.8178
G01 X81.1723 Y32.8216
G01 X81.1812 Y32.8238
G01 X81.2539 Y32.8382
G01 X81.2629 Y32.8394
G01 X81.2751 Y32.8400
G01 X81.2873 Y32.8394
G01 X81.2994 Y32.8375
G01 X81.3112 Y32.8345
G01 X81.3198 Y32.8315
G01 X81.3859 Y32.8055
G01 X81.3943 Y32.8018
G01 X81.4023 Y32.7976
G01 X81.4100 Y32.7928
G01 X81.4220 Y32.7835
G01 X81.4307 Y32.7750
G01 X81.4580 Y32.7459
G01 X81.4663 Y32.7359
G01 X81.5680 Y32.5852
G01 X81.7126 Y32.4337
G01 X81.8807 Y32.3086
G01 X82.0675 Y32.2136
G01 X82.1571 Y32.1857
G01 X82.1571 Y32.4652
G01 X82.0754 Y32.5040
G01 X81.9986 Y32.5498
G01 X81.9886 Y32.5565
G01 X81.9168 Y32.6099
G01 X81.8504 Y32.6699
G01 X81.8419 Y32.6784
G01 X81.7819 Y32.7448
G01 X81.7251 Y32.8215
G01 X81.6790 Y32.8981
G01 X81.6733 Y32.9088
G01 X81.6352 Y32.9897
G01 X81.6030 Y33.0796
G01 X81.5798 Y33.1722
G01 X81.5665 Y33.2607
G01 X81.5653 Y33.2727
G01 X81.5611 Y33.3620
G01 X81.5611 Y35.6620
G01 X81.5658 Y35.7574
G01 X81.5792 Y35.8488
G01 X81.5811 Y35.8577
G01 X81.6030 Y35.9444
G01 X81.6330 Y36.0287
G01 X81.6376 Y36.0398
G01 X81.6760 Y36.1206
G01 X81.7218 Y36.1974
G01 X81.7285 Y36.2074
G01 X81.7819 Y36.2792
G01 X81.8461 Y36.3499
G01 X81.9122 Y36.4101
G01 X81.9216 Y36.4178
G01 X81.9935 Y36.4709
G01 X82.0701 Y36.5170
G01 X82.0808 Y36.5227
G01 X82.1571 Y36.5588
G01 X82.1571 Y36.8411
G01 X81.9827 Y36.7722
G01 X81.8036 Y36.6635
G01 X81.6453 Y36.5261
G01 X81.5125 Y36.3642
G01 X81.4798 Y36.3068
G01 X81.4733 Y36.2970
G01 X81.4678 Y36.2902
G01 X81.4598 Y36.2817
G01 X81.4065 Y36.2303
G01 X81.3946 Y36.2207
G01 X81.3844 Y36.2141
G01 X81.3762 Y36.2098
G01 X81.3678 Y36.2062
G01 X81.3592 Y36.2032
G01 X81.3503 Y36.2009
G01 X81.2717 Y36.1853
G01 X81.2565 Y36.1841
G01 X81.2443 Y36.1844
G01 X81.2352 Y36.1854
G01 X81.2262 Y36.1871
G01 X81.2174 Y36.1895
G01 X81.2087 Y36.1926
G01 X81.1371 Y36.2209
G01 X81.1237 Y36.2280
G01 X81.1112 Y36.2367
G01 X81.1043 Y36.2426
G01 X81.0979 Y36.2490
G01 X81.0706 Y36.2781
G01 X81.0622 Y36.2881
G01 X80.9604 Y36.4390
G01 X80.8157 Y36.5908
G01 X80.7526 Y36.6377
G01 X80.7437 Y36.6454
G01 X80.7376 Y36.6516
G01 X80.7301 Y36.6606
G01 X80.6839 Y36.7222
G01 X80.6791 Y36.7299
G01 X80.6749 Y36.7379
G01 X80.6713 Y36.7462
G01 X80.6683 Y36.7547
G01 X80.6652 Y36.7663
G01 X80.6566 Y36.8137
G01 X80.6552 Y36.8230
G01 X80.6546 Y36.8325
G01 X80.6546 Y37.6045
G01 X80.6554 Y37.6807
G01 X80.6488 Y37.7111
G01 X80.6462 Y37.7268
G01 X80.6423 Y37.7608
G01 X80.6339 Y37.7854
G01 X80.6288 Y37.8038
G01 X80.6241 Y37.8255
G01 X80.6109 Y37.8538
G01 X80.6049 Y37.8684
G01 X80.5935 Y37.9007
G01 X80.5818 Y37.9196
G01 X80.5726 Y37.9364
G01 X80.5614 Y37.9599
G01 X80.5424 Y37.9845
G01 X80.5333 Y37.9975
G01 X80.5150 Y38.0264
G01 X80.4056 Y38.1366
G01 X80.3990 Y38.1428
G01 X79.6320 Y38.9097
G01 X79.5787 Y38.9642
G01 X79.5525 Y38.9811
G01 X79.5396 Y38.9903
G01 X79.5127 Y39.0115
G01 X79.4928 Y39.0213
G01 X79.4761 Y39.0306
G01 X79.4541 Y39.0445
G01 X79.4220 Y39.0563
G01 X79.4074 Y39.0625
G01 X79.3793 Y39.0760
G01 X79.3540 Y39.0821
G01 X79.3357 Y39.0876
G01 X79.3148 Y39.0951
G01 X79.2839 Y39.0991
G01 X79.2683 Y39.1018
G01 X79.2349 Y39.1094
G01 X79.0797 Y39.1099
G01 X79.0706 Y39.1096
G01 X72.3095 Y39.1096
G01 X72.2333 Y39.1104
G01 X72.2029 Y39.1038
G01 X72.1872 Y39.1012
G01 X72.1532 Y39.0973
G01 X72.1322 Y39.0900
G01 X72.1138 Y39.0848
G01 X72.0885 Y39.0791
G01 X72.0602 Y39.0659
G01 X72.0456 Y39.0599
G01 X72.0133 Y39.0485
G01 X71.9911 Y39.0350
G01 X71.9743 Y39.0259
G01 X71.9541 Y39.0164
G01 X71.9295 Y38.9974
G01 X71.9165 Y38.9883
G01 X71.8876 Y38.9700
G01 X71.8176 Y38.9005
G01 X71.8087 Y38.8929
G01 X71.7991 Y38.8861
G01 X71.7916 Y38.8817
G01 X71.7291 Y38.8479
G01 X71.7181 Y38.8426
G01 X71.7067 Y38.8385
G01 X71.6948 Y38.8355
G01 X71.6828 Y38.8337
G01 X71.6706 Y38.8331
G01 X71.6614 Y38.8334
G01 X71.5845 Y38.8393
G01 X71.5694 Y38.8422
G01 X71.5606 Y38.8448
G01 X71.5520 Y38.8481
G01 X71.5409 Y38.8534
G01 X71.5101 Y38.8702
G01 X71.5004 Y38.8762
G01 X71.4165 Y38.9384
G01 X71.2295 Y39.0335
G01 X71.0293 Y39.0956
G01 X70.8214 Y39.1232
G01 X70.6119 Y39.1153
G01 X70.4067 Y39.0723
G01 X70.2116 Y38.9952
G01 X70.0324 Y38.8865
G01 X69.8740 Y38.7490
G01 X69.7410 Y38.5869
G01 X69.6373 Y38.4047
G01 X69.5657 Y38.2075
G01 X69.5280 Y37.9989
G01 X69.5274 Y37.9858
G01 X69.5274 Y35.5318
G01 X69.5407 Y35.3756
G01 X69.5933 Y35.1726
G01 X69.6795 Y34.9814
G01 X69.7966 Y34.8075
G01 X69.9413 Y34.6557
G01 X70.1095 Y34.5306
G01 X70.2965 Y34.4355
G01 X70.4967 Y34.3734
G01 X70.7046 Y34.3458
G01 X70.9141 Y34.3537
G01 X71.1193 Y34.3967
G01 X71.3144 Y34.4738
G01 X71.4936 Y34.5825
G01 X71.6520 Y34.7200
G01 X71.7850 Y34.8821
G01 X71.8887 Y35.0643
G01 X71.9603 Y35.2615
G01 X71.9980 Y35.4701
G01 X71.9986 Y35.4832
G01 X71.9986 Y37.1098
G01 X71.9989 Y37.1185
G01 X71.9999 Y37.1273
G01 X72.0014 Y37.1359
G01 X72.0036 Y37.1444
G01 X72.0245 Y37.2154
G01 X72.0299 Y37.2294
G01 X72.0355 Y37.2401
G01 X72.0421 Y37.2502
G01 X72.0627 Y37.2760
G01 X72.0692 Y37.2834
G01 X72.5055 Y37.7195
G01 X72.5168 Y37.7287
G01 X72.5292 Y37.7365
G01 X72.5942 Y37.7719
G01 X72.6052 Y37.7769
G01 X72.6137 Y37.7799
G01 X72.6254 Y37.7829
G01 X72.6343 Y37.7845
G01 X72.6674 Y37.7880
G01 X72.6772 Y37.7884
G01 X78.7818 Y37.7884
G01 X78.7905 Y37.7881
G01 X78.8022 Y37.7867
G01 X78.8136 Y37.7842
G01 X78.8903 Y37.7616
G01 X78.8987 Y37.7583
G01 X78.9095 Y37.7530
G01 X78.9198 Y37.7466
G01 X78.9270 Y37.7412
G01 X78.9505 Y37.7222
G01 X78.9578 Y37.7155
G01 X79.2605 Y37.4128
G01 X79.2702 Y37.4018
G01 X79.2785 Y37.3898
G01 X79.3155 Y37.3225
G01 X79.3207 Y37.3116
G01 X79.3249 Y37.3003
G01 X79.3285 Y37.2856
G01 X79.3298 Y37.2767
G01 X79.3332 Y37.2433
G01 X79.3334 Y36.8383
G01 X79.3331 Y36.8295
G01 X79.3317 Y36.8179
G01 X79.3292 Y36.8065
G01 X79.3084 Y36.7356
G01 X79.3031 Y36.7210
G01 X79.2976 Y36.7100
G01 X79.2928 Y36.7020
G01 X79.2854 Y36.6921
G01 X79.2600 Y36.6627
G01 X79.2519 Y36.6542
G01 X79.1050 Y36.5265
G01 X78.9720 Y36.3644
G01 X78.9395 Y36.3072
G01 X78.9347 Y36.2999
G01 X78.9294 Y36.2929
G01 X78.9195 Y36.2821
G01 X78.8662 Y36.2307
G01 X78.8543 Y36.2211
G01 X78.8440 Y36.2146
G01 X78.8332 Y36.2090
G01 X78.8218 Y36.2046
G01 X78.8070 Y36.2007
G01 X78.7344 Y36.1863
G01 X78.7223 Y36.1848
G01 X78.7070 Y36.1847
G01 X78.6919 Y36.1864
G01 X78.6771 Y36.1900
G01 X78.6684 Y36.1930
G01 X78.5968 Y36.2214
G01 X78.5834 Y36.2284
G01 X78.5758 Y36.2335
G01 X78.5686 Y36.2390
G01 X78.5575 Y36.2495
G01 X78.5303 Y36.2786
G01 X78.5219 Y36.2886
G01 X78.4204 Y36.4390
G01 X78.2757 Y36.5908
G01 X78.1075 Y36.7159
G01 X77.9205 Y36.8110
G01 X77.7203 Y36.8731
G01 X77.5124 Y36.9007
G01 X77.3029 Y36.8928
G01 X77.0977 Y36.8498
G01 X76.9026 Y36.7727
G01 X76.7234 Y36.6640
G01 X76.5650 Y36.5265
G01 X76.4320 Y36.3644
G01 X76.3995 Y36.3072
G01 X76.3947 Y36.2999
G01 X76.3894 Y36.2929
G01 X76.3795 Y36.2821
G01 X76.3284 Y36.2328
G01 X76.3216 Y36.2267
G01 X76.3118 Y36.2194
G01 X76.3014 Y36.2131
G01 X76.2904 Y36.2078
G01 X76.2789 Y36.2037
G01 X76.2670 Y36.2007
G01 X76.1914 Y36.1858
G01 X76.1762 Y36.1845
G01 X76.1640 Y36.1849
G01 X76.1489 Y36.1870
G01 X76.1342 Y36.1909
G01 X76.0568 Y36.2214
G01 X76.0486 Y36.2254
G01 X76.0408 Y36.2301
G01 X76.0286 Y36.2390
G01 X76.0175 Y36.2495
G01 X75.9903 Y36.2786
G01 X75.9819 Y36.2886
G01 X75.8804 Y36.4390
G01 X75.7357 Y36.5908
G01 X75.5675 Y36.7159
G01 X75.3805 Y36.8110
G01 X75.1803 Y36.8731
G01 X74.9724 Y36.9007
G01 X74.7629 Y36.8928
G01 X74.5577 Y36.8498
G01 X74.3626 Y36.7727
G01 X74.1834 Y36.6640
G01 X74.0250 Y36.5265
G01 X73.8920 Y36.3644
G01 X73.7883 Y36.1822
G01 X73.7167 Y35.9850
G01 X73.6790 Y35.7764
G01 X73.6784 Y35.7633
G01 X73.6784 Y34.3108
G01 X73.6775 Y34.2991
G01 X73.6749 Y34.2848
G01 X73.6525 Y34.2081
G01 X73.6471 Y34.1941
G01 X73.6430 Y34.1860
G01 X73.6383 Y34.1782
G01 X73.6331 Y34.1709
G01 X73.6143 Y34.1475
G01 X73.6055 Y34.1377
G01 X72.6018 Y33.1340
G01 X72.5473 Y33.0807
G01 X72.5304 Y33.0545
G01 X72.5212 Y33.0416
G01 X72.5000 Y33.0147
G01 X72.4902 Y32.9948
G01 X72.4809 Y32.9781
G01 X72.4670 Y32.9561
G01 X72.4552 Y32.9240
G01 X72.4490 Y32.9094
G01 X72.4355 Y32.8813
G01 X72.4294 Y32.8560
G01 X72.4239 Y32.8377
G01 X72.4164 Y32.8168
G01 X72.4124 Y32.7859
G01 X72.4097 Y32.7703
G01 X72.4021 Y32.7369
G01 X72.4016 Y32.5817
G01 X72.4019 Y32.5726
G01 X72.4019 Y31.0598
G01 X72.4013 Y31.0481
G01 X72.3991 Y31.0337
G01 X72.3969 Y31.0252
G01 X72.3750 Y30.9512
G01 X72.3716 Y30.9425
G01 X72.3676 Y30.9342
G01 X72.3630 Y30.9261
G01 X72.3577 Y30.9185
G01 X72.3519 Y30.9112
G01 X72.3285 Y30.8842
G01 X72.3183 Y30.8738
G01 X72.1735 Y30.7480
G01 X72.0405 Y30.5859
G01 X71.9368 Y30.4037
G01 X71.8652 Y30.2065
G01 X71.8275 Y29.9979
G01 X71.8269 Y29.9848
G01 X71.8269 Y27.5308
G01 X71.8402 Y27.3746
G01 X71.8928 Y27.1716
G01 X71.9790 Y26.9804
G01 X72.0961 Y26.8065
G01 X72.2432 Y26.6522
G01 X72.2527 Y26.6410
G01 X72.2577 Y26.6338
G01 X72.2622 Y26.6263
G01 X72.2988 Y26.5551
G01 X72.3032 Y26.5438
G01 X72.3072 Y26.5290
G01 X72.3091 Y26.5170
G01 X72.3098 Y26.5048
G01 X72.3092 Y26.4926
G01 X72.3022 Y26.4189
G01 X72.3002 Y26.4071
G01 X72.2979 Y26.3984
G01 X72.2927 Y26.3843
G01 X72.2888 Y26.3762
G01 X72.2844 Y26.3684
G01 X72.2531 Y26.3210
G01 X72.2455 Y26.3112
G01 X72.2391 Y26.3044
G01 X70.6345 Y24.6997
G01 X70.6236 Y24.6900
G01 X70.6116 Y24.6817
G01 X70.5442 Y24.6447
G01 X70.5332 Y24.6394
G01 X70.5217 Y24.6352
G01 X70.5099 Y24.6322
G01 X70.4979 Y24.6304
G01 X70.4887 Y24.6298
G01 X70.4765 Y24.6300
G01 X70.4027 Y24.6353
G01 X70.3876 Y24.6378
G01 X70.3788 Y24.6401
G01 X70.3701 Y24.6431
G01 X70.3562 Y24.6494
G01 X70.3484 Y24.6541
G01 X70.3408 Y24.6593
G01 X70.2816 Y24.7037
G01 X70.2747 Y24.7096
G01 X70.2662 Y24.7181
G01 X70.2586 Y24.7275
G01 X70.2495 Y24.7405
G01 X70.1873 Y24.8367
G01 X70.0395 Y24.9991
G01 X69.8671 Y25.1353
G01 X69.6749 Y25.2414
G01 X69.4678 Y25.3147
G01 X69.2516 Y25.3532
G01 X69.0320 Y25.3559
G01 X68.8149 Y25.3227
G01 X68.6062 Y25.2545
G01 X68.4113 Y25.1531
G01 X68.2357 Y25.0212
G01 X68.0840 Y24.8624
G01 X68.0590 Y24.8261
G01 X68.0535 Y24.8193
G01 X68.0475 Y24.8129
G01 X68.0388 Y24.8050
G01 X67.9815 Y24.7581
G01 X67.9715 Y24.7511
G01 X67.9636 Y24.7465
G01 X67.9554 Y24.7425
G01 X67.9440 Y24.7382
G01 X67.9322 Y24.7350
G01 X67.9232 Y24.7334
G01 X67.8466 Y24.7245
G01 X67.8344 Y24.7240
G01 X67.8192 Y24.7251
G01 X67.8102 Y24.7266
G01 X67.8013 Y24.7289
G01 X67.7926 Y24.7317
G01 X67.7841 Y24.7352
G01 X67.7150 Y24.7692
G01 X67.7072 Y24.7736
G01 X67.6973 Y24.7803
G01 X67.6882 Y24.7880
G01 X67.6798 Y24.7966
G01 X67.6552 Y24.8257
G01 X67.6473 Y24.8367
G01 X67.4995 Y24.9991
G01 X67.3407 Y25.1245
G01 X67.3341 Y25.1302
G01 X67.3278 Y25.1364
G01 X67.3220 Y25.1429
G01 X67.3167 Y25.1499
G01 X67.2722 Y25.2129
G01 X67.2675 Y25.2209
G01 X67.2634 Y25.2292
G01 X67.2581 Y25.2437
G01 X67.2552 Y25.2556
G01 X67.2478 Y25.2996
G01 X67.2464 Y25.3112
G01 X67.2461 Y25.3199
G01 X67.2461 Y26.3750
G01 X67.2469 Y26.4512
G01 X67.2403 Y26.4816
G01 X67.2377 Y26.4973
G01 X67.2338 Y26.5313
G01 X67.2265 Y26.5523
G01 X67.2213 Y26.5707
G01 X67.2156 Y26.5960
G01 X67.2024 Y26.6243
G01 X67.1964 Y26.6390
G01 X67.1850 Y26.6712
G01 X67.1733 Y26.6901
G01 X67.1641 Y26.7069
G01 X67.1529 Y26.7304
G01 X67.1339 Y26.7550
G01 X67.1248 Y26.7680
G01 X67.1065 Y26.7969
G01 X66.9971 Y26.9071
G01 X66.9905 Y26.9133
G01 X65.1540 Y28.7497
G01 X65.1007 Y28.8042
G01 X65.0745 Y28.8211
G01 X65.0616 Y28.8303
G01 X65.0347 Y28.8515
G01 X65.0148 Y28.8613
G01 X64.9981 Y28.8706
G01 X64.9761 Y28.8845
G01 X64.9440 Y28.8963
G01 X64.9294 Y28.9025
G01 X64.9013 Y28.9160
G01 X64.8760 Y28.9221
G01 X64.8577 Y28.9276
G01 X64.8368 Y28.9351
G01 X64.8059 Y28.9391
G01 X64.7903 Y28.9418
G01 X64.7569 Y28.9494
G01 X64.6017 Y28.9499
G01 X64.5926 Y28.9496
G01 X59.4825 Y28.9496
G01 X59.4063 Y28.9504
G01 X59.3759 Y28.9438
G01 X59.3602 Y28.9412
G01 X59.3262 Y28.9373
G01 X59.3052 Y28.9300
G01 X59.2868 Y28.9248
G01 X59.2615 Y28.9191
G01 X59.2332 Y28.9059
G01 X59.2186 Y28.8999
G01 X59.1863 Y28.8885
G01 X59.1641 Y28.8750
G01 X59.1473 Y28.8659
G01 X59.1271 Y28.8564
G01 X59.1025 Y28.8374
G01 X59.0895 Y28.8283
G01 X59.0606 Y28.8100
G01 X58.9504 Y28.7006
G01 X58.9442 Y28.6940
G01 X55.9648 Y25.7145
G01 X55.9103 Y25.6612
G01 X55.8934 Y25.6350
G01 X55.8842 Y25.6221
G01 X55.8630 Y25.5952
G01 X55.8532 Y25.5753
G01 X55.8439 Y25.5586
G01 X55.8300 Y25.5366
G01 X55.8182 Y25.5045
G01 X55.8120 Y25.4899
G01 X55.7985 Y25.4618
G01 X55.7924 Y25.4365
G01 X55.7869 Y25.4182
G01 X55.7794 Y25.3973
G01 X55.7754 Y25.3664
G01 X55.7727 Y25.3508
G01 X55.7651 Y25.3174
G01 X55.7646 Y25.1622
G01 X55.7649 Y25.1531
G01 X55.7649 Y9.1077
G01 X55.7643 Y9.0960
G01 X55.7627 Y9.0845
G01 X55.7599 Y9.0731
G01 X55.7399 Y9.0050
G01 X55.7371 Y8.9964
G01 X55.7336 Y8.9881
G01 X55.7280 Y8.9774
G01 X55.7214 Y8.9673
G01 X55.7008 Y8.9415
G01 X55.6920 Y8.9317
G01 X52.1608 Y5.4005
G01 X52.1498 Y5.3908
G01 X52.1378 Y5.3825
G01 X52.0651 Y5.3428
G01 X52.0511 Y5.3370
G01 X52.0425 Y5.3344
G01 X52.0336 Y5.3325
G01 X51.9979 Y5.3283
G01 X51.9848 Y5.3276
G01 X16.3527 Y5.3276
G01 X16.3381 Y5.3285
G01 X16.3238 Y5.3311
G01 X16.2471 Y5.3535
G01 X16.2331 Y5.3589
G01 X16.2224 Y5.3645
G01 X16.2123 Y5.3711
G01 X16.1865 Y5.3917
G01 X16.1791 Y5.3982
G01 X14.9265 Y6.6507
G01 X14.9186 Y6.6594
G01 X14.9133 Y6.6663
G01 X14.9070 Y6.6762
G01 X14.8688 Y6.7464
G01 X14.8651 Y6.7547
G01 X14.8621 Y6.7632
G01 X14.8591 Y6.7749
G01 X14.8575 Y6.7838
G01 X14.8540 Y6.8169
G01 X14.8536 Y6.8267
G01 X14.8536 Y7.1519
G01 X14.8545 Y7.1665
G01 X14.8571 Y7.1808
G01 X14.8795 Y7.2575
G01 X14.8837 Y7.2687
G01 X14.8889 Y7.2795
G01 X14.8953 Y7.2897
G01 X14.9025 Y7.2992
G01 X14.9390 Y7.3386
G01 X14.9482 Y7.3470
G01 X15.0828 Y7.4483
G01 X15.2345 Y7.6071
G01 X15.2598 Y7.6439
G01 X15.2673 Y7.6529
G01 X15.2734 Y7.6591
G01 X15.2800 Y7.6649
G01 X15.3397 Y7.7137
G01 X15.3525 Y7.7220
G01 X15.3662 Y7.7286
G01 X15.3807 Y7.7335
G01 X15.3956 Y7.7366
G01 X15.4692 Y7.7451
G01 X15.4814 Y7.7459
G01 X15.4936 Y7.7455
G01 X15.5057 Y7.7439
G01 X15.5175 Y7.7411
G01 X15.5291 Y7.7371
G01 X15.5374 Y7.7334
G01 X15.6038 Y7.7008
G01 X15.6142 Y7.6948
G01 X15.6238 Y7.6878
G01 X15.6328 Y7.6799
G01 X15.6390 Y7.6734
G01 X15.6636 Y7.6442
G01 X15.6717 Y7.6330
G01 X15.8193 Y7.4708
G01 X15.9917 Y7.3346
G01 X16.1837 Y7.2286
G01 X16.3561 Y7.1675
G01 X16.3561 Y7.4471
G01 X16.3280 Y7.4571
G01 X16.3196 Y7.4605
G01 X16.2326 Y7.5016
G01 X16.2246 Y7.5057
G01 X16.1369 Y7.5584
G01 X16.0547 Y7.6193
G01 X16.0478 Y7.6251
G01 X15.9787 Y7.6877
G01 X15.9702 Y7.6962
G01 X15.9036 Y7.7699
G01 X15.8426 Y7.8519
G01 X15.8377 Y7.8595
G01 X15.7898 Y7.9395
G01 X15.7841 Y7.9501
G01 X15.7418 Y8.0399
G01 X15.7063 Y8.1391
G01 X15.6807 Y8.2412
G01 X15.6660 Y8.3394
G01 X15.6648 Y8.3514
G01 X15.6601 Y8.4505
G01 X15.6601 Y10.5505
G01 X15.6653 Y10.6557
G01 X15.6807 Y10.7598
G01 X15.7047 Y10.8561
G01 X15.7082 Y10.8677
G01 X15.7418 Y10.9611
G01 X15.7841 Y11.0509
G01 X15.7898 Y11.0615
G01 X15.8409 Y11.1466
G01 X15.8999 Y11.2264
G01 X15.9056 Y11.2334
G01 X15.9702 Y11.3048
G01 X15.9787 Y11.3133
G01 X16.0524 Y11.3799
G01 X16.1344 Y11.4409
G01 X16.1420 Y11.4458
G01 X16.2220 Y11.4937
G01 X16.2299 Y11.4981
G01 X16.3196 Y11.5405
G01 X16.3280 Y11.5439
G01 X16.3561 Y11.5539
G01 X16.3561 Y11.8320
G01 X16.2137 Y11.7855
G01 X16.0190 Y11.6841
G01 X15.8435 Y11.5522
G01 X15.6919 Y11.3937
G01 X15.6686 Y11.3595
G01 X15.6632 Y11.3525
G01 X15.6573 Y11.3460
G01 X15.6466 Y11.3361
G01 X15.5869 Y11.2873
G01 X15.5767 Y11.2806
G01 X15.5659 Y11.2748
G01 X15.5546 Y11.2702
G01 X15.5430 Y11.2667
G01 X15.5279 Y11.2640
G01 X15.4544 Y11.2556
G01 X15.4391 Y11.2551
G01 X15.4270 Y11.2561
G01 X15.4150 Y11.2584
G01 X15.4004 Y11.2628
G01 X15.3892 Y11.2676
G01 X15.3228 Y11.3002
G01 X15.3124 Y11.3062
G01 X15.3028 Y11.3132
G01 X15.2938 Y11.3211
G01 X15.2876 Y11.3276
G01 X15.2630 Y11.3568
G01 X15.2548 Y11.3682
G01 X15.1070 Y11.5306
G01 X14.9346 Y11.6668
G01 X14.7424 Y11.7729
G01 X14.5353 Y11.8462
G01 X14.3191 Y11.8847
G01 X14.0995 Y11.8874
G01 X13.8824 Y11.8542
G01 X13.6737 Y11.7860
G01 X13.4788 Y11.6846
G01 X13.3456 Y11.5845
G01 X13.3334 Y11.5765
G01 X13.3257 Y11.5723
G01 X13.3177 Y11.5688
G01 X13.2456 Y11.5418
G01 X13.2309 Y11.5377
G01 X13.2158 Y11.5354
G01 X13.2006 Y11.5351
G01 X13.1854 Y11.5366
G01 X13.1040 Y11.5542
G01 X13.0951 Y11.5570
G01 X13.0864 Y11.5604
G01 X13.0781 Y11.5645
G01 X13.0700 Y11.5692
G01 X13.0624 Y11.5744
G01 X13.0312 Y11.5978
G01 X13.0202 Y11.6076
G01 X10.6152 Y14.0125
G01 X10.6055 Y14.0234
G01 X10.5972 Y14.0354
G01 X10.5602 Y14.1028
G01 X10.5538 Y14.1165
G01 X10.5499 Y14.1280
G01 X10.5472 Y14.1398
G01 X10.5456 Y14.1518
G01 X10.5452 Y14.1639
G01 X10.5502 Y14.2397
G01 X10.5516 Y14.2522
G01 X10.5536 Y14.2614
G01 X10.5562 Y14.2705
G01 X10.5693 Y14.3065
G01 X10.6070 Y14.5151
G01 X10.6076 Y14.5282
G01 X10.6076 Y15.5333
G01 X10.6085 Y15.5479
G01 X10.6111 Y15.5622
G01 X10.6335 Y15.6389
G01 X10.6389 Y15.6529
G01 X10.6445 Y15.6636
G01 X10.6511 Y15.6737
G01 X10.6738 Y15.7020
G01 X10.6805 Y15.7093
G01 X11.0530 Y16.0818
G01 X11.0617 Y16.0896
G01 X11.0686 Y16.0950
G01 X11.0785 Y16.1013
G01 X11.1460 Y16.1382
G01 X11.1543 Y16.1421
G01 X11.1629 Y16.1453
G01 X11.1716 Y16.1479
G01 X11.1806 Y16.1499
G01 X11.1957 Y16.1516
G01 X11.2079 Y16.1517
G01 X11.2848 Y16.1462
G01 X11.2939 Y16.1449
G01 X11.3029 Y16.1431
G01 X11.3117 Y16.1405
G01 X11.3202 Y16.1373
G01 X11.3313 Y16.1321
G01 X11.3442 Y16.1240
G01 X11.4035 Y16.0797
G01 X11.4106 Y16.0740
G01 X11.4213 Y16.0634
G01 X11.4290 Y16.0540
G01 X11.4356 Y16.0439
G01 X11.4425 Y16.0304
G01 X11.4695 Y15.9597
G01 X11.4741 Y15.9447
G01 X11.4768 Y15.9293
G01 X11.4838 Y15.8441
G01 X11.5373 Y15.6311
G01 X11.6249 Y15.4297
G01 X11.7442 Y15.2453
G01 X11.8920 Y15.0829
G01 X12.0644 Y14.9467
G01 X12.2566 Y14.8406
G01 X12.4637 Y14.7673
G01 X12.6799 Y14.7288
G01 X12.8995 Y14.7261
G01 X13.1166 Y14.7593
G01 X13.3253 Y14.8275
G01 X13.5202 Y14.9289
G01 X13.6958 Y15.0608
G01 X13.8475 Y15.2196
G01 X13.8707 Y15.2536
G01 X13.8761 Y15.2605
G01 X13.8820 Y15.2671
G01 X13.8927 Y15.2770
G01 X13.9476 Y15.3220
G01 X13.9549 Y15.3275
G01 X13.9652 Y15.3340
G01 X13.9761 Y15.3395
G01 X13.9875 Y15.3438
G01 X13.9993 Y15.3470
G01 X14.0114 Y15.3490
G01 X14.0819 Y15.3572
G01 X14.0941 Y15.3580
G01 X14.1063 Y15.3576
G01 X14.1183 Y15.3559
G01 X14.1302 Y15.3531
G01 X14.1418 Y15.3492
G01 X14.1501 Y15.3454
G01 X14.2165 Y15.3128
G01 X14.2269 Y15.3068
G01 X14.2365 Y15.2998
G01 X14.2433 Y15.2940
G01 X14.2517 Y15.2854
G01 X14.2763 Y15.2563
G01 X14.2842 Y15.2453
G01 X14.4320 Y15.0829
G01 X14.6044 Y14.9467
G01 X14.7966 Y14.8406
G01 X15.0037 Y14.7673
G01 X15.2199 Y14.7288
G01 X15.4395 Y14.7261
G01 X15.6566 Y14.7593
G01 X15.8653 Y14.8275
G01 X16.0602 Y14.9289
G01 X16.1964 Y15.0313
G01 X16.2061 Y15.0378
G01 X16.2138 Y15.0422
G01 X16.2271 Y15.0481
G01 X16.2936 Y15.0730
G01 X16.3023 Y15.0759
G01 X16.3112 Y15.0781
G01 X16.3232 Y15.0801
G01 X16.3354 Y15.0808
G01 X16.3446 Y15.0806
G01 X16.3597 Y15.0786
G01 X16.4321 Y15.0630
G01 X16.4409 Y15.0608
G01 X16.4524 Y15.0567
G01 X16.4608 Y15.0530
G01 X16.4688 Y15.0486
G01 X16.4788 Y15.0427
G01 X16.4970 Y15.0309
G01 X16.5124 Y15.0199
G01 X16.5368 Y15.0005
G01 X16.5567 Y14.9907
G01 X16.5734 Y14.9814
G01 X16.5954 Y14.9675
G01 X16.6275 Y14.9557
G01 X16.6421 Y14.9495
G01 X16.6702 Y14.9360
G01 X16.6919 Y14.9309
G01 X16.7102 Y14.9255
G01 X16.7347 Y14.9169
G01 X16.7686 Y14.9124
G01 X16.7842 Y14.9096
G01 X16.8146 Y14.9026
G01 X16.9766 Y14.9021
G01 X16.9886 Y14.9014
G01 X16.9976 Y14.9002
G01 X17.0064 Y14.8983
G01 X17.0151 Y14.8957
G01 X17.0246 Y14.8921
G01 X17.0543 Y14.8867
G01 X17.0631 Y14.8848
G01 X17.0745 Y14.8812
G01 X17.0829 Y14.8778
G01 X17.0909 Y14.8738
G01 X17.0987 Y14.8692
G01 X17.1108 Y14.8604
G01 X17.1682 Y14.8080
G01 X17.1766 Y14.7991
G01 X17.1823 Y14.7918
G01 X17.1990 Y14.7655
G01 X17.3039 Y14.6608
G01 X17.4301 Y14.5830
G01 X17.5716 Y14.5361
G01 X17.6564 Y14.5274
G01 X18.9945 Y14.5274
G01 X19.0806 Y14.5363
G01 X19.2220 Y14.5835
G01 X19.3480 Y14.6615
G01 X19.4527 Y14.7664
G01 X19.5305 Y14.8926
G01 X19.5774 Y15.0341
G01 X19.5861 Y15.1189
G01 X19.5861 Y16.0070
G01 X19.5772 Y16.0931
G01 X19.5300 Y16.2345
G01 X19.4520 Y16.3605
G01 X19.3471 Y16.4652
G01 X19.2209 Y16.5430
G01 X19.0794 Y16.5899
G01 X18.9946 Y16.5986
G01 X17.6565 Y16.5986
G01 X17.5704 Y16.5897
G01 X17.4290 Y16.5425
G01 X17.3030 Y16.4645
G01 X17.2831 Y16.4450
G01 X17.2763 Y16.4395
G01 X17.2691 Y16.4345
G01 X17.2615 Y16.4300
G01 X17.1993 Y16.3959
G01 X17.1911 Y16.3918
G01 X17.1826 Y16.3884
G01 X17.1739 Y16.3855
G01 X17.1650 Y16.3834
G01 X17.1560 Y16.3819
G01 X17.1469 Y16.3810
G01 X17.1316 Y16.3812
G01 X17.0577 Y16.3864
G01 X17.0456 Y16.3882
G01 X17.0336 Y16.3912
G01 X17.0221 Y16.3954
G01 X17.0083 Y16.4021
G01 X16.9554 Y16.4360
G01 X16.9460 Y16.4430
G01 X16.9374 Y16.4509
G01 X16.7545 Y16.6337
G01 X16.7448 Y16.6447
G01 X16.7380 Y16.6542
G01 X16.7335 Y16.6617
G01 X16.6995 Y16.7240
G01 X16.6931 Y16.7377
G01 X16.6892 Y16.7491
G01 X16.6860 Y16.7638
G01 X16.6823 Y16.7966
G01 X16.6816 Y16.8097
G01 X16.6817 Y17.8332
G01 X16.6833 Y17.8477
G01 X16.6858 Y17.8591
G01 X16.7066 Y17.9301
G01 X16.7095 Y17.9388
G01 X16.7143 Y17.9500
G01 X16.7203 Y17.9606
G01 X16.7273 Y17.9706
G01 X16.7352 Y17.9799
G01 X16.7440 Y17.9883
G01 X16.8024 Y18.0387
G01 X16.8098 Y18.0441
G01 X16.8176 Y18.0489
G01 X16.8285 Y18.0544
G01 X16.8370 Y18.0578
G01 X16.8457 Y18.0605
G01 X16.8577 Y18.0631
G01 X16.9309 Y18.0737
G01 X16.9400 Y18.0747
G01 X16.9522 Y18.0749
G01 X16.9644 Y18.0739
G01 X16.9764 Y18.0717
G01 X16.9910 Y18.0673
G01 X16.9995 Y18.0638
G01 X17.0694 Y18.0317
G01 X17.0772 Y18.0273
G01 X17.0847 Y18.0224
G01 X17.0918 Y18.0169
G01 X17.0984 Y18.0109
G01 X17.1066 Y18.0022
G01 X17.1312 Y17.9733
G01 X17.1388 Y17.9635
G01 X17.1995 Y17.8657
G01 X17.3043 Y17.7611
G01 X17.4304 Y17.6834
G01 X17.5715 Y17.6366
G01 X17.6563 Y17.6279
G01 X17.9486 Y17.6279
G01 X17.9486 Y17.8901
G01 X17.7005 Y17.8901
G01 X17.6700 Y17.8915
G01 X17.6610 Y17.8922
G01 X17.6307 Y17.8967
G01 X17.6219 Y17.8986
G01 X17.5923 Y17.9062
G01 X17.5634 Y17.9163
G01 X17.5550 Y17.9197
G01 X17.5274 Y17.9327
G01 X17.5195 Y17.9371
G01 X17.4959 Y17.9513
G01 X17.4687 Y17.9710
G01 X17.4594 Y17.9787
G01 X17.4368 Y17.9993
G01 X17.4162 Y18.0219
G01 X17.4085 Y18.0312
G01 X17.3904 Y18.0558
G01 X17.3746 Y18.0820
G01 X17.3702 Y18.0899
G01 X17.3560 Y18.1203
G01 X17.3455 Y18.1490
G01 X17.3428 Y18.1576
G01 X17.3354 Y18.1873
G01 X17.3301 Y18.2205
G01 X17.3291 Y18.2295
G01 X17.3276 Y18.2600
G01 X17.3276 Y18.2861
G01 X16.9783 Y18.2861
G01 X16.9518 Y18.2787
G01 X16.9432 Y18.2771
G01 X16.9345 Y18.2762
G01 X16.9257 Y18.2759
G01 X16.8547 Y18.2759
G01 X16.8425 Y18.2765
G01 X16.8305 Y18.2783
G01 X16.8186 Y18.2813
G01 X16.8072 Y18.2854
G01 X16.7989 Y18.2893
G01 X16.7883 Y18.2954
G01 X16.7285 Y18.3337
G01 X16.7211 Y18.3390
G01 X16.7140 Y18.3447
G01 X16.7053 Y18.3532
G01 X16.6974 Y18.3624
G01 X16.6921 Y18.3699
G01 X16.6860 Y18.3804
G01 X16.6590 Y18.4322
G01 X16.6553 Y18.4400
G01 X16.6521 Y18.4480
G01 X16.6488 Y18.4590
G01 X16.6147 Y18.5949
G01 X16.5271 Y18.7963
G01 X16.4078 Y18.9807
G01 X16.2600 Y19.1431
G01 X16.0876 Y19.2793
G01 X15.8954 Y19.3854
G01 X15.6883 Y19.4587
G01 X15.4721 Y19.4972
G01 X15.2525 Y19.4999
G01 X15.0354 Y19.4667
G01 X14.8267 Y19.3985
G01 X14.6318 Y19.2971
G01 X14.4562 Y19.1652
G01 X14.3045 Y19.0064
G01 X14.2813 Y18.9724
G01 X14.2759 Y18.9655
G01 X14.2700 Y18.9589
G01 X14.2593 Y18.9490
G01 X14.1996 Y18.9003
G01 X14.1894 Y18.8935
G01 X14.1759 Y18.8865
G01 X14.1645 Y18.8822
G01 X14.1527 Y18.8790
G01 X14.1406 Y18.8770
G01 X14.0701 Y18.8688
G01 X14.0610 Y18.8681
G01 X14.0518 Y18.8681
G01 X14.0427 Y18.8687
G01 X14.0307 Y18.8706
G01 X14.0189 Y18.8737
G01 X14.0074 Y18.8780
G01 X13.9328 Y18.9146
G01 X13.9202 Y18.9226
G01 X13.9109 Y18.9300
G01 X13.9044 Y18.9362
G01 X13.8984 Y18.9428
G01 X13.8757 Y18.9697
G01 X13.8678 Y18.9807
G01 X13.7200 Y19.1431
G01 X13.5612 Y19.2685
G01 X13.5546 Y19.2742
G01 X13.5463 Y19.2825
G01 X13.5389 Y19.2915
G01 X13.4961 Y19.3518
G01 X13.4910 Y19.3596
G01 X13.4852 Y19.3704
G01 X13.4805 Y19.3818
G01 X13.4778 Y19.3906
G01 X13.4751 Y19.4026
G01 X13.4678 Y19.4465
G01 X13.4669 Y19.4552
G01 X13.4666 Y19.4639
G01 X13.4666 Y23.5993
G01 X13.4675 Y23.6139
G01 X13.4694 Y23.6254
G01 X13.4716 Y23.6339
G01 X13.4916 Y23.7020
G01 X13.4944 Y23.7106
G01 X13.4979 Y23.7189
G01 X13.5035 Y23.7296
G01 X13.5101 Y23.7397
G01 X13.5307 Y23.7655
G01 X13.5395 Y23.7753
G01 X18.0817 Y28.3175
G01 X18.0881 Y28.3235
G01 X18.0950 Y28.3290
G01 X18.1072 Y28.3370
G01 X18.1747 Y28.3739
G01 X18.1857 Y28.3789
G01 X18.1971 Y28.3828
G01 X18.2059 Y28.3849
G01 X18.2148 Y28.3865
G01 X18.2479 Y28.3900
G01 X18.2577 Y28.3904
G01 X21.0493 Y28.3904
G01 X21.0639 Y28.3895
G01 X21.0783 Y28.3869
G01 X21.1579 Y28.3636
G01 X21.1664 Y28.3602
G01 X21.1747 Y28.3563
G01 X21.1826 Y28.3517
G01 X21.1902 Y28.3466
G01 X21.1997 Y28.3389
G01 X21.2083 Y28.3303
G01 X21.2588 Y28.2720
G01 X21.2644 Y28.2647
G01 X21.2694 Y28.2569
G01 X21.2739 Y28.2489
G01 X21.2788 Y28.2376
G01 X21.2818 Y28.2289
G01 X21.2841 Y28.2200
G01 X21.2960 Y28.1648
G01 X21.2979 Y28.1503
G01 X21.2982 Y28.1415
G01 X21.2982 Y27.9452
G01 X21.3117 Y27.7821
G01 X21.3652 Y27.5691
G01 X21.4527 Y27.3677
G01 X21.5720 Y27.1833
G01 X21.7198 Y27.0209
G01 X21.8922 Y26.8847
G01 X22.0845 Y26.7786
G01 X22.2915 Y26.7053
G01 X22.5077 Y26.6668
G01 X22.7273 Y26.6641
G01 X22.9444 Y26.6973
G01 X23.1532 Y26.7655
G01 X23.3480 Y26.8669
G01 X23.5236 Y26.9988
G01 X23.6754 Y27.1576
G01 X23.6832 Y27.1686
G01 X23.6930 Y27.1795
G01 X23.7017 Y27.1873
G01 X23.7566 Y27.2323
G01 X23.7639 Y27.2378
G01 X23.7742 Y27.2443
G01 X23.7851 Y27.2498
G01 X23.7965 Y27.2541
G01 X23.8083 Y27.2573
G01 X23.8203 Y27.2593
G01 X23.8908 Y27.2675
G01 X23.9000 Y27.2682
G01 X23.9091 Y27.2682
G01 X23.9183 Y27.2676
G01 X23.9303 Y27.2657
G01 X23.9421 Y27.2626
G01 X23.9536 Y27.2583
G01 X24.0256 Y27.2231
G01 X24.0364 Y27.2168
G01 X24.0441 Y27.2113
G01 X24.0535 Y27.2031
G01 X24.0677 Y27.1888
G01 X24.2201 Y27.0213
G01 X24.3926 Y26.8851
G01 X24.5846 Y26.7791
G01 X24.7569 Y26.7180
G01 X24.7569 Y26.9976
G01 X24.7289 Y27.0076
G01 X24.7205 Y27.0110
G01 X24.6335 Y27.0521
G01 X24.6254 Y27.0562
G01 X24.5378 Y27.1089
G01 X24.4556 Y27.1698
G01 X24.4486 Y27.1756
G01 X24.3796 Y27.2382
G01 X24.3710 Y27.2467
G01 X24.3045 Y27.3204
G01 X24.2435 Y27.4024
G01 X24.2385 Y27.4100
G01 X24.1906 Y27.4900
G01 X24.1849 Y27.5006
G01 X24.1426 Y27.5904
G01 X24.1071 Y27.6896
G01 X24.0816 Y27.7917
G01 X24.0669 Y27.8899
G01 X24.0657 Y27.9019
G01 X24.0609 Y28.0010
G01 X24.0609 Y30.1010
G01 X24.0661 Y30.2062
G01 X24.0816 Y30.3103
G01 X24.1055 Y30.4066
G01 X24.1090 Y30.4182
G01 X24.1426 Y30.5116
G01 X24.1849 Y30.6014
G01 X24.1906 Y30.6120
G01 X24.2418 Y30.6971
G01 X24.3008 Y30.7769
G01 X24.3064 Y30.7839
G01 X24.3710 Y30.8553
G01 X24.3796 Y30.8638
G01 X24.4532 Y30.9304
G01 X24.5353 Y30.9914
G01 X24.5429 Y30.9963
G01 X24.6228 Y31.0442
G01 X24.6308 Y31.0486
G01 X24.7205 Y31.0910
G01 X24.7289 Y31.0944
G01 X24.7569 Y31.1044
G01 X24.7569 Y31.3825
G01 X24.6146 Y31.3360
G01 X24.4199 Y31.2346
G01 X24.2445 Y31.1029
G01 X24.0928 Y30.9442
G01 X24.0851 Y30.9335
G01 X24.0754 Y30.9226
G01 X24.0667 Y30.9147
G01 X24.0094 Y30.8678
G01 X23.9994 Y30.8608
G01 X23.9888 Y30.8548
G01 X23.9776 Y30.8499
G01 X23.9689 Y30.8470
G01 X23.9600 Y30.8447
G01 X23.9510 Y30.8431
G01 X23.8744 Y30.8342
G01 X23.8653 Y30.8337
G01 X23.8531 Y30.8342
G01 X23.8440 Y30.8353
G01 X23.8350 Y30.8370
G01 X23.8262 Y30.8395
G01 X23.8176 Y30.8426
G01 X23.8092 Y30.8463
G01 X23.7455 Y30.8775
G01 X23.7345 Y30.8836
G01 X23.7243 Y30.8908
G01 X23.7148 Y30.8989
G01 X23.7025 Y30.9112
G01 X23.5479 Y31.0811
G01 X23.3891 Y31.2065
G01 X23.3782 Y31.2163
G01 X23.3722 Y31.2227
G01 X23.3667 Y31.2295
G01 X23.3222 Y31.2924
G01 X23.3144 Y31.3056
G01 X23.3084 Y31.3198
G01 X23.3056 Y31.3286
G01 X23.3030 Y31.3406
G01 X23.2957 Y31.3845
G01 X23.2945 Y31.3990
G01 X23.2944 Y32.0936
G01 X23.2948 Y32.1024
G01 X23.2962 Y32.1140
G01 X23.2986 Y32.1254
G01 X23.3194 Y32.1964
G01 X23.3246 Y32.2105
G01 X23.3299 Y32.2214
G01 X23.3380 Y32.2341
G01 X23.3586 Y32.2598
G01 X23.3674 Y32.2696
G01 X27.1047 Y36.0070
G01 X27.1592 Y36.0603
G01 X27.1761 Y36.0865
G01 X27.1853 Y36.0994
G01 X27.2065 Y36.1263
G01 X27.2163 Y36.1462
G01 X27.2256 Y36.1629
G01 X27.2395 Y36.1849
G01 X27.2513 Y36.2170
G01 X27.2575 Y36.2316
G01 X27.2710 Y36.2597
G01 X27.2771 Y36.2850
G01 X27.2826 Y36.3033
G01 X27.2901 Y36.3242
G01 X27.2946 Y36.3581
G01 X27.2974 Y36.3738
G01 X27.3044 Y36.4041
G01 X27.3049 Y36.5593
G01 X27.3046 Y36.5684
G01 X27.3046 Y40.7582
G01 X27.3049 Y40.7670
G01 X27.3063 Y40.7786
G01 X27.3088 Y40.7900
G01 X27.3305 Y40.8639
G01 X27.3337 Y40.8726
G01 X27.3375 Y40.8811
G01 X27.3419 Y40.8892
G01 X27.3470 Y40.8970
G01 X27.3526 Y40.9044
G01 X27.3780 Y40.9338
G01 X27.3882 Y40.9442
G01 X27.5330 Y41.0700
G01 X27.6660 Y41.2321
G01 X27.7697 Y41.4143
G01 X27.8413 Y41.6115
G01 X27.8790 Y41.8201
G01 X27.8796 Y41.8332
G01 X27.8796 Y44.2872
G01 X27.8663 Y44.4434
G01 X27.8137 Y44.6464
G01 X27.7275 Y44.8376
G01 X27.6104 Y45.0115
G01 X27.6050 Y45.0172
G01 X27.4657 Y45.1633
G01 X27.2975 Y45.2884
G01 X27.1105 Y45.3835
G01 X26.9103 Y45.4456
G01 X26.7024 Y45.4732
G01 X26.4929 Y45.4653
G01 X26.2877 Y45.4223
G01 X26.0926 Y45.3452
G01 X25.9134 Y45.2365
G01 X25.7550 Y45.0990
G01 X25.6220 Y44.9369
G01 X25.5183 Y44.7547
G01 X25.4467 Y44.5575
G01 X25.4090 Y44.3489
G01 X25.4084 Y44.3358
G01 X25.4084 Y42.8862
G01 X25.4081 Y42.8775
G01 X25.4071 Y42.8687
G01 X25.4056 Y42.8601
G01 X25.4034 Y42.8516
G01 X25.3834 Y42.7835
G01 X25.3783 Y42.7693
G01 X25.3730 Y42.7585
G01 X25.3666 Y42.7482
G01 X25.3612 Y42.7410
G01 X25.3422 Y42.7175
G01 X25.3355 Y42.7102
G01 X25.3117 Y42.6865
G01 X25.3051 Y42.6806
G01 X25.2958 Y42.6736
G01 X25.2858 Y42.6675
G01 X25.2235 Y42.6335
G01 X25.2154 Y42.6295
G01 X25.2041 Y42.6250
G01 X25.1926 Y42.6217
G01 X25.1807 Y42.6195
G01 X25.1476 Y42.6160
G01 X25.1378 Y42.6156
G01 X23.7086 Y42.6156
G01 X23.6970 Y42.6162
G01 X23.6854 Y42.6178
G01 X23.6768 Y42.6198
G01 X23.6002 Y42.6424
G01 X23.5919 Y42.6456
G01 X23.5812 Y42.6509
G01 X23.5711 Y42.6571
G01 X23.5639 Y42.6624
G01 X23.5529 Y42.6723
G01 X23.5138 Y42.7120
G01 X23.5077 Y42.7188
G01 X23.4986 Y42.7310
G01 X23.4775 Y42.7650
G01 X23.3726 Y42.8697
G01 X23.2464 Y42.9475
G01 X23.1049 Y42.9944
G01 X23.0201 Y43.0031
G01 X21.6320 Y43.0031
G01 X21.5459 Y42.9942
G01 X21.4045 Y42.9470
G01 X21.2785 Y42.8690
G01 X21.2665 Y42.8577
G01 X21.2595 Y42.8524
G01 X21.2522 Y42.8476
G01 X21.1822 Y42.8092
G01 X21.1684 Y42.8031
G01 X21.1598 Y42.8003
G01 X21.1510 Y42.7981
G01 X21.1391 Y42.7962
G01 X21.1056 Y42.7928
G01 X20.2328 Y42.7926
G01 X20.2213 Y42.7935
G01 X20.1775 Y42.7998
G01 X20.1663 Y42.8025
G01 X20.1196 Y42.8160
G01 X20.0997 Y42.8176
G01 X18.3263 Y42.8176
G01 X18.3064 Y42.8160
G01 X18.1736 Y42.7775
G01 X18.0571 Y42.7086
G01 X17.9614 Y42.6129
G01 X17.8925 Y42.4964
G01 X17.8540 Y42.3636
G01 X17.8524 Y42.3437
G01 X17.8524 Y41.9203
G01 X17.8540 Y41.9004
G01 X17.8925 Y41.7676
G01 X17.9635 Y41.6476
G01 X17.9714 Y41.6361
G01 X17.9771 Y41.6256
G01 X17.9806 Y41.6174
G01 X18.0059 Y41.5531
G01 X18.0089 Y41.5444
G01 X18.0113 Y41.5356
G01 X18.0130 Y41.5266
G01 X18.0140 Y41.5175
G01 X18.0144 Y41.5083
G01 X18.0138 Y41.4961
G01 X18.0120 Y41.4841
G01 X17.9975 Y41.4115
G01 X17.9932 Y41.3968
G01 X17.9897 Y41.3882
G01 X17.9842 Y41.3773
G01 X17.9692 Y41.3538
G01 X17.9628 Y41.3451
G01 X17.8925 Y41.2264
G01 X17.8540 Y41.0936
G01 X17.8524 Y41.0737
G01 X17.8524 Y40.6503
G01 X17.8540 Y40.6304
G01 X17.8925 Y40.4976
G01 X17.9635 Y40.3776
G01 X17.9714 Y40.3661
G01 X17.9771 Y40.3556
G01 X17.9806 Y40.3474
G01 X18.0080 Y40.2773
G01 X18.0106 Y40.2685
G01 X18.0125 Y40.2596
G01 X18.0138 Y40.2505
G01 X18.0144 Y40.2414
G01 X18.0141 Y40.2292
G01 X18.0126 Y40.2171
G01 X17.9975 Y40.1415
G01 X17.9932 Y40.1268
G01 X17.9897 Y40.1182
G01 X17.9842 Y40.1073
G01 X17.9692 Y40.0838
G01 X17.9628 Y40.0751
G01 X17.8925 Y39.9564
G01 X17.8540 Y39.8236
G01 X17.8524 Y39.8037
G01 X17.8524 Y39.3803
G01 X17.8540 Y39.3604
G01 X17.8925 Y39.2276
G01 X17.9633 Y39.1080
G01 X17.9717 Y39.0958
G01 X17.9773 Y39.0853
G01 X17.9809 Y39.0772
G01 X18.0083 Y39.0069
G01 X18.0109 Y38.9981
G01 X18.0128 Y38.9892
G01 X18.0146 Y38.9740
G01 X18.0144 Y38.9588
G01 X18.0123 Y38.9437
G01 X17.9978 Y38.8711
G01 X17.9954 Y38.8622
G01 X17.9913 Y38.8506
G01 X17.9874 Y38.8423
G01 X17.9829 Y38.8343
G01 X17.9678 Y38.8106
G01 X17.9618 Y38.8025
G01 X17.9005 Y38.6989
G01 X18.2364 Y38.6989
G01 X18.2567 Y38.7112
G01 X18.2647 Y38.7154
G01 X18.2836 Y38.7241
G01 X18.3088 Y38.7331
G01 X18.3348 Y38.7397
G01 X18.3553 Y38.7428
G01 X18.3643 Y38.7438
G01 X18.3880 Y38.7449
G01 X20.0410 Y38.7449
G01 X20.0647 Y38.7436
G01 X20.0853 Y38.7407
G01 X20.0942 Y38.7390
G01 X20.1172 Y38.7331
G01 X20.1396 Y38.7252
G01 X20.1479 Y38.7217
G01 X20.1666 Y38.7127
G01 X20.1871 Y38.7006
G01 X20.1945 Y38.6954
G01 X20.2111 Y38.6830
G01 X20.2310 Y38.6650
G01 X20.2490 Y38.6451
G01 X20.2614 Y38.6285
G01 X20.2666 Y38.6211
G01 X20.2801 Y38.5980
G01 X20.2889 Y38.5792
G01 X20.2923 Y38.5708
G01 X20.2982 Y38.5541
G01 X20.3008 Y38.5454
G01 X20.3057 Y38.5252
G01 X20.3088 Y38.5047
G01 X20.3098 Y38.4957
G01 X20.3109 Y38.4720
G01 X20.3109 Y38.1720
G01 X20.3098 Y38.1483
G01 X20.3088 Y38.1393
G01 X20.3057 Y38.1188
G01 X20.2991 Y38.0928
G01 X20.2901 Y38.0676
G01 X20.2814 Y38.0487
G01 X20.2772 Y38.0407
G01 X20.2632 Y38.0179
G01 X20.2508 Y38.0012
G01 X20.2450 Y37.9943
G01 X20.2331 Y37.9812
G01 X20.2266 Y37.9749
G01 X20.2111 Y37.9610
G01 X20.1945 Y37.9486
G01 X20.1871 Y37.9434
G01 X20.1693 Y37.9328
G01 X20.1613 Y37.9286
G01 X20.1424 Y37.9199
G01 X20.1172 Y37.9109
G01 X20.0912 Y37.9043
G01 X20.0647 Y37.9004
G01 X20.0380 Y37.8991
G01 X19.5899 Y37.8991
G01 X19.5899 Y37.6369
G01 X20.0996 Y37.6369
G01 X20.1194 Y37.6385
G01 X20.2521 Y37.6770
G01 X20.3685 Y37.7458
G01 X20.4641 Y37.8413
G01 X20.5329 Y37.9577
G01 X20.5715 Y38.0903
G01 X20.5731 Y38.1104
G01 X20.5731 Y38.1869
G01 X20.5744 Y38.2014
G01 X20.5759 Y38.2101
G01 X20.5781 Y38.2186
G01 X20.5981 Y38.2867
G01 X20.6021 Y38.2982
G01 X20.6072 Y38.3093
G01 X20.6134 Y38.3198
G01 X20.6207 Y38.3296
G01 X20.6288 Y38.3387
G01 X20.6355 Y38.3449
G01 X20.6915 Y38.3934
G01 X20.7013 Y38.4007
G01 X20.7102 Y38.4061
G01 X20.6459 Y38.4473
G01 X20.6359 Y38.4545
G01 X20.6267 Y38.4626
G01 X20.6183 Y38.4716
G01 X20.6108 Y38.4814
G01 X20.6044 Y38.4919
G01 X20.5773 Y38.5419
G01 X20.5713 Y38.5554
G01 X20.5686 Y38.5637
G01 X20.5330 Y38.6861
G01 X20.4642 Y38.8025
G01 X20.4563 Y38.8136
G01 X20.4492 Y38.8264
G01 X20.4457 Y38.8344
G01 X20.4177 Y38.9063
G01 X20.4151 Y38.9150
G01 X20.4132 Y38.9240
G01 X20.4119 Y38.9331
G01 X20.4113 Y38.9422
G01 X20.4116 Y38.9544
G01 X20.4137 Y38.9695
G01 X20.4282 Y39.0421
G01 X20.4306 Y39.0510
G01 X20.4347 Y39.0625
G01 X20.4386 Y39.0709
G01 X20.4431 Y39.0789
G01 X20.4566 Y39.1000
G01 X20.4633 Y39.1090
G01 X20.5335 Y39.2276
G01 X20.5530 Y39.2948
G01 X20.5579 Y39.3086
G01 X20.5616 Y39.3165
G01 X20.5659 Y39.3242
G01 X20.5976 Y39.3740
G01 X20.5772 Y39.4476
G01 X20.5749 Y39.4594
G01 X20.5737 Y39.4713
G01 X20.5736 Y39.8037
G01 X20.5720 Y39.8236
G01 X20.5335 Y39.9564
G01 X20.4625 Y40.0764
G01 X20.4546 Y40.0879
G01 X20.4489 Y40.0984
G01 X20.4454 Y40.1066
G01 X20.4201 Y40.1709
G01 X20.4171 Y40.1796
G01 X20.4141 Y40.1914
G01 X20.4126 Y40.2004
G01 X20.4118 Y40.2096
G01 X20.4116 Y40.2187
G01 X20.4122 Y40.2279
G01 X20.4134 Y40.2369
G01 X20.4279 Y40.3095
G01 X20.4300 Y40.3185
G01 X20.4339 Y40.3301
G01 X20.4375 Y40.3386
G01 X20.4434 Y40.3493
G01 X20.4568 Y40.3702
G01 X20.4632 Y40.3789
G01 X20.5335 Y40.4976
G01 X20.5720 Y40.6304
G01 X20.5736 Y40.6503
G01 X20.5736 Y41.0737
G01 X20.5720 Y41.0936
G01 X20.5540 Y41.1559
G01 X20.5520 Y41.1644
G01 X20.5507 Y41.1731
G01 X20.5499 Y41.1877
G01 X20.5501 Y41.2587
G01 X20.5507 Y41.2709
G01 X20.5532 Y41.2859
G01 X20.5576 Y41.3005
G01 X20.5637 Y41.3145
G01 X20.5698 Y41.3251
G01 X20.6083 Y41.3847
G01 X20.6155 Y41.3946
G01 X20.6235 Y41.4038
G01 X20.6302 Y41.4101
G01 X20.6373 Y41.4159
G01 X20.6473 Y41.4228
G01 X20.6608 Y41.4299
G01 X20.7255 Y41.4592
G01 X20.7371 Y41.4638
G01 X20.7461 Y41.4664
G01 X20.7583 Y41.4689
G01 X20.7676 Y41.4699
G01 X20.7880 Y41.4713
G01 X20.8532 Y41.4714
G01 X20.8620 Y41.4708
G01 X20.8736 Y41.4692
G01 X20.8849 Y41.4664
G01 X20.9560 Y41.4455
G01 X20.9646 Y41.4424
G01 X20.9756 Y41.4373
G01 X20.9836 Y41.4327
G01 X20.9912 Y41.4276
G01 X20.9983 Y41.4219
G01 X21.0072 Y41.4135
G01 X21.0578 Y41.3553
G01 X21.0668 Y41.3435
G01 X21.0730 Y41.3334
G01 X21.0781 Y41.3226
G01 X21.0853 Y41.3044
G01 X21.0965 Y41.2710
G01 X21.1745 Y41.1450
G01 X21.2794 Y41.0403
G01 X21.4056 Y40.9625
G01 X21.5471 Y40.9156
G01 X21.6319 Y40.9069
G01 X23.0200 Y40.9069
G01 X23.1061 Y40.9158
G01 X23.2475 Y40.9630
G01 X23.3735 Y41.0410
G01 X23.4782 Y41.1459
G01 X23.5000 Y41.1810
G01 X23.5071 Y41.1903
G01 X23.5129 Y41.1969
G01 X23.5192 Y41.2030
G01 X23.5720 Y41.2505
G01 X23.5789 Y41.2562
G01 X23.5861 Y41.2614
G01 X23.5964 Y41.2675
G01 X23.6071 Y41.2726
G01 X23.6183 Y41.2767
G01 X23.6270 Y41.2790
G01 X23.6844 Y41.2920
G01 X23.6996 Y41.2941
G01 X23.7087 Y41.2944
G01 X25.4558 Y41.2944
G01 X25.4704 Y41.2931
G01 X25.4819 Y41.2909
G01 X25.5585 Y41.2685
G01 X25.5670 Y41.2655
G01 X25.5779 Y41.2604
G01 X25.5857 Y41.2560
G01 X25.5932 Y41.2509
G01 X25.6048 Y41.2414
G01 X25.6477 Y41.1992
G01 X25.6576 Y41.1871
G01 X25.6776 Y41.1575
G01 X25.8223 Y41.0057
G01 X25.8854 Y40.9588
G01 X25.8964 Y40.9491
G01 X25.9043 Y40.9405
G01 X25.9524 Y40.8767
G01 X25.9589 Y40.8666
G01 X25.9644 Y40.8559
G01 X25.9697 Y40.8418
G01 X25.9728 Y40.8302
G01 X25.9814 Y40.7828
G01 X25.9830 Y40.7703
G01 X25.9834 Y40.7608
G01 X25.9834 Y36.8572
G01 X25.9825 Y36.8426
G01 X25.9799 Y36.8283
G01 X25.9566 Y36.7487
G01 X25.9533 Y36.7403
G01 X25.9494 Y36.7321
G01 X25.9416 Y36.7192
G01 X25.9193 Y36.6910
G01 X25.9105 Y36.6812
G01 X22.1731 Y32.9439
G01 X22.1187 Y32.8905
G01 X22.1018 Y32.8644
G01 X22.0926 Y32.8515
G01 X22.0713 Y32.8246
G01 X22.0616 Y32.8046
G01 X22.0523 Y32.7879
G01 X22.0384 Y32.7659
G01 X22.0265 Y32.7338
G01 X22.0203 Y32.7192
G01 X22.0068 Y32.6912
G01 X22.0007 Y32.6659
G01 X21.9953 Y32.6476
G01 X21.9877 Y32.6267
G01 X21.9838 Y32.5958
G01 X21.9810 Y32.5802
G01 X21.9735 Y32.5468
G01 X21.9729 Y32.3916
G01 X21.9732 Y32.3825
G01 X21.9732 Y31.3996
G01 X21.9724 Y31.3850
G01 X21.9710 Y31.3764
G01 X21.9691 Y31.3678
G01 X21.9483 Y31.2969
G01 X21.9454 Y31.2884
G01 X21.9407 Y31.2774
G01 X21.9364 Y31.2694
G01 X21.9316 Y31.2618
G01 X21.9243 Y31.2523
G01 X21.8879 Y31.2129
G01 X21.8787 Y31.2045
G01 X21.7441 Y31.1032
G01 X21.5923 Y30.9444
G01 X21.4686 Y30.7630
G01 X21.3761 Y30.5638
G01 X21.3174 Y30.3521
G01 X21.2982 Y30.1729
G01 X21.2982 Y29.9605
G01 X21.2979 Y29.9517
G01 X21.2970 Y29.9430
G01 X21.2954 Y29.9344
G01 X21.2933 Y29.9259
G01 X21.2733 Y29.8578
G01 X21.2693 Y29.8462
G01 X21.2641 Y29.8352
G01 X21.2562 Y29.8221
G01 X21.2467 Y29.8102
G01 X21.2381 Y29.8015
G01 X21.1798 Y29.7510
G01 X21.1674 Y29.7420
G01 X21.1567 Y29.7360
G01 X21.1455 Y29.7310
G01 X21.1308 Y29.7265
G01 X21.0726 Y29.7138
G01 X21.0639 Y29.7125
G01 X21.0552 Y29.7117
G01 X17.8900 Y29.7116
G01 X17.8138 Y29.7124
G01 X17.7834 Y29.7058
G01 X17.7677 Y29.7032
G01 X17.7337 Y29.6993
G01 X17.7127 Y29.6920
G01 X17.6943 Y29.6868
G01 X17.6690 Y29.6811
G01 X17.6407 Y29.6679
G01 X17.6260 Y29.6619
G01 X17.5938 Y29.6505
G01 X17.5749 Y29.6388
G01 X17.5581 Y29.6296
G01 X17.5346 Y29.6184
G01 X17.5100 Y29.5994
G01 X17.4970 Y29.5903
G01 X17.4681 Y29.5720
G01 X17.3579 Y29.4626
G01 X17.3517 Y29.4560
G01 X12.3453 Y24.4495
G01 X12.2908 Y24.3962
G01 X12.2739 Y24.3700
G01 X12.2647 Y24.3571
G01 X12.2435 Y24.3302
G01 X12.2337 Y24.3103
G01 X12.2244 Y24.2936
G01 X12.2105 Y24.2716
G01 X12.1987 Y24.2395
G01 X12.1925 Y24.2249
G01 X12.1790 Y24.1968
G01 X12.1729 Y24.1715
G01 X12.1674 Y24.1532
G01 X12.1599 Y24.1323
G01 X12.1559 Y24.1014
G01 X12.1532 Y24.0858
G01 X12.1456 Y24.0524
G01 X12.1451 Y23.8972
G01 X12.1454 Y23.8881
G01 X12.1454 Y19.4616
G01 X12.1445 Y19.4470
G01 X12.1432 Y19.4384
G01 X12.1412 Y19.4298
G01 X12.1204 Y19.3589
G01 X12.1153 Y19.3448
G01 X12.1086 Y19.3314
G01 X12.1037 Y19.3238
G01 X12.0984 Y19.3166
G01 X12.0925 Y19.3098
G01 X12.0578 Y19.2727
G01 X12.0459 Y19.2626
G01 X11.9162 Y19.1652
G01 X11.7645 Y19.0064
G01 X11.6407 Y18.8250
G01 X11.5482 Y18.6258
G01 X11.4896 Y18.4141
G01 X11.4704 Y18.2349
G01 X11.4704 Y18.0860
G01 X11.4698 Y18.0743
G01 X11.4687 Y18.0656
G01 X11.4662 Y18.0542
G01 X11.4445 Y17.9804
G01 X11.4390 Y17.9662
G01 X11.4317 Y17.9527
G01 X11.4228 Y17.9403
G01 X11.4147 Y17.9313
G01 X11.4080 Y17.9250
G01 X11.3496 Y17.8746
G01 X11.3369 Y17.8659
G01 X11.3232 Y17.8588
G01 X11.3117 Y17.8545
G01 X11.3028 Y17.8520
G01 X11.2470 Y17.8399
G01 X11.2354 Y17.8380
G01 X11.2207 Y17.8371
G01 X11.1440 Y17.8379
G01 X11.0719 Y17.8218
G01 X10.9992 Y17.8061
G01 X10.9326 Y17.7744
G01 X10.8650 Y17.7429
G01 X10.7745 Y17.6721
G01 X10.7458 Y17.6491
G01 X10.7337 Y17.6372
G01 X10.7222 Y17.6281
G01 X10.7098 Y17.6204
G01 X10.6472 Y17.5868
G01 X10.6390 Y17.5828
G01 X10.6276 Y17.5784
G01 X10.6159 Y17.5751
G01 X10.6039 Y17.5731
G01 X10.5917 Y17.5722
G01 X10.5795 Y17.5726
G01 X10.5087 Y17.5781
G01 X10.4997 Y17.5792
G01 X10.4878 Y17.5816
G01 X10.4762 Y17.5852
G01 X10.4650 Y17.5899
G01 X10.4543 Y17.5957
G01 X10.4419 Y17.6044
G01 X10.3800 Y17.6536
G01 X10.3694 Y17.6635
G01 X10.3618 Y17.6723
G01 X10.3384 Y17.7065
G01 X10.1937 Y17.8583
G01 X10.0255 Y17.9834
G01 X9.8385 Y18.0785
G01 X9.6383 Y18.1406
G01 X9.4304 Y18.1682
G01 X9.2209 Y18.1603
G01 X9.0157 Y18.1173
G01 X8.8206 Y18.0402
G01 X8.6414 Y17.9315
G01 X8.4830 Y17.7940
G01 X8.3500 Y17.6319
G01 X8.2463 Y17.4497
G01 X8.1747 Y17.2525
G01 X8.1370 Y17.0439
G01 X8.1364 Y17.0308
G01 X8.1364 Y14.5768
G00 Z2.0000
G00 X10.4247 Y17.4080
G01 F60.00
G01 Z-0.1300
G01 F80.00
G01 X10.4382 Y17.3793
G01 X10.4440 Y17.3654
G01 X10.4747 Y17.2798
G01 X10.4793 Y17.2659
G01 X10.6015 Y17.3881
G01 X10.5879 Y17.3878
G01 X10.5727 Y17.3883
G01 X10.4867 Y17.3950
G01 X10.4717 Y17.3970
G01 X10.4567 Y17.3996
G01 X10.4419 Y17.4030
G01 X10.4247 Y17.4080
G00 Z2.0000
G00 X11.4400 Y17.7130
G01 F60.00
G01 Z-0.1300
G01 F80.00
G01 X11.4759 Y17.6962
G01 X11.5488 Y17.6961
G01 X11.5488 Y17.8047
G01 X11.5400 Y17.7960
G01 X11.5287 Y17.7857
G01 X11.4692 Y17.7342
G01 X11.4570 Y17.7247
G01 X11.4400 Y17.7130
G00 Z2.0000
G00 X11.5488 Y16.1969
G01 F60.00
G01 Z-0.1300
G01 F80.00
G01 X11.5488 Y16.5306
G01 X11.3912 Y16.5306
G01 X11.1967 Y16.3361
G01 X11.2089 Y16.3361
G01 X11.2241 Y16.3354
G01 X11.2950 Y16.3303
G01 X11.3177 Y16.3278
G01 X11.3327 Y16.3252
G01 X11.3476 Y16.3219
G01 X11.3696 Y16.3155
G01 X11.3840 Y16.3104
G01 X11.3981 Y16.3045
G01 X11.4118 Y16.2979
G01 X11.4253 Y16.2907
G01 X11.4447 Y16.2786
G01 X11.4572 Y16.2698
G01 X11.5200 Y16.2226
G01 X11.5373 Y16.2080
G01 X11.5488 Y16.1969
G00 Z2.0000
G00 X14.2139 Y15.5188
G01 F60.00
G01 Z-0.1300
G01 F80.00
G01 X14.1906 Y15.5681
G01 X14.1817 Y15.5889
G01 X14.1452 Y15.6909
G01 X14.1389 Y15.7126
G01 X14.1145 Y15.8103
G01 X14.1103 Y15.8326
G01 X14.0967 Y15.9248
G01 X14.0948 Y15.9398
G01 X14.0937 Y15.9548
G01 X14.0891 Y16.0479
G01 X14.0888 Y16.0630
G01 X14.0888 Y18.1630
G01 X14.0891 Y18.1781
G01 X14.0937 Y18.2712
G01 X14.0948 Y18.2862
G01 X14.0967 Y18.3012
G01 X14.1103 Y18.3934
G01 X14.1145 Y18.4157
G01 X14.1389 Y18.5134
G01 X14.1452 Y18.5351
G01 X14.1817 Y18.6371
G01 X14.1906 Y18.6579
G01 X14.2124 Y18.7041
G01 X14.1994 Y18.7006
G01 X14.1845 Y18.6974
G01 X14.1619 Y18.6939
G01 X14.0837 Y18.6849
G01 X14.0685 Y18.6839
G01 X14.0533 Y18.6837
G01 X14.0380 Y18.6842
G01 X14.0228 Y18.6855
G01 X14.0077 Y18.6875
G01 X13.9927 Y18.6902
G01 X13.9778 Y18.6938
G01 X13.9632 Y18.6980
G01 X13.9487 Y18.7030
G01 X13.9381 Y18.7072
G01 X13.9614 Y18.6579
G01 X13.9703 Y18.6371
G01 X14.0068 Y18.5351
G01 X14.0131 Y18.5134
G01 X14.0375 Y18.4157
G01 X14.0417 Y18.3934
G01 X14.0553 Y18.3012
G01 X14.0572 Y18.2862
G01 X14.0583 Y18.2712
G01 X14.0629 Y18.1781
G01 X14.0632 Y18.1630
G01 X14.0632 Y16.0630
G01 X14.0629 Y16.0479
G01 X14.0583 Y15.9548
G01 X14.0572 Y15.9398
G01 X14.0553 Y15.9248
G01 X14.0417 Y15.8326
G01 X14.0375 Y15.8103
G01 X14.0131 Y15.7126
G01 X14.0068 Y15.6909
G01 X13.9703 Y15.5889
G01 X13.9614 Y15.5681
G01 X13.9396 Y15.5219
G01 X13.9526 Y15.5254
G01 X13.9675 Y15.5286
G01 X13.9901 Y15.5321
G01 X14.0683 Y15.5411
G01 X14.0835 Y15.5421
G01 X14.0987 Y15.5423
G01 X14.1140 Y15.5418
G01 X14.1292 Y15.5405
G01 X14.1443 Y15.5385
G01 X14.1593 Y15.5358
G01 X14.1742 Y15.5322
G01 X14.1888 Y15.5280
G01 X14.2033 Y15.5230
G01 X14.2139 Y15.5188
G00 Z2.0000
G00 X16.3057 Y15.5854
G01 F60.00
G01 Z-0.1300
G01 F80.00
G01 X16.6095 Y15.2815
G01 X16.6339 Y15.2593
G01 X16.6432 Y15.2516
G01 X16.6674 Y15.2338
G01 X16.6750 Y15.2288
G01 X16.7034 Y15.2120
G01 X16.7387 Y15.1953
G01 X16.7755 Y15.1821
G01 X16.8075 Y15.1739
G01 X16.8193 Y15.1716
G01 X16.8490 Y15.1672
G01 X16.8580 Y15.1664
G01 X16.8910 Y15.1650
G01 X17.3276 Y15.1650
G01 X17.3294 Y15.1264
G01 X17.3337 Y15.0962
G01 X17.3361 Y15.0844
G01 X17.3428 Y15.0576
G01 X17.3455 Y15.0490
G01 X17.3560 Y15.0203
G01 X17.3716 Y14.9872
G01 X17.3904 Y14.9558
G01 X17.4122 Y14.9264
G01 X17.4368 Y14.8993
G01 X17.4639 Y14.8747
G01 X17.4933 Y14.8529
G01 X17.5195 Y14.8371
G01 X17.5301 Y14.8314
G01 X17.5550 Y14.8197
G01 X17.5634 Y14.8163
G01 X17.5923 Y14.8062
G01 X17.6219 Y14.7986
G01 X17.6307 Y14.7967
G01 X17.6639 Y14.7919
G01 X17.7005 Y14.7901
G01 X18.9505 Y14.7901
G01 X18.9871 Y14.7919
G01 X19.0203 Y14.7967
G01 X19.0529 Y14.8045
G01 X19.0645 Y14.8080
G01 X19.0932 Y14.8185
G01 X19.1263 Y14.8341
G01 X19.1526 Y14.8497
G01 X19.1626 Y14.8564
G01 X19.1871 Y14.8747
G01 X19.2142 Y14.8993
G01 X19.2388 Y14.9264
G01 X19.2571 Y14.9509
G01 X19.2638 Y14.9609
G01 X19.2794 Y14.9872
G01 X19.2950 Y15.0203
G01 X19.3055 Y15.0490
G01 X19.3090 Y15.0606
G01 X19.3168 Y15.0932
G01 X19.3216 Y15.1264
G01 X19.3234 Y15.1630
G01 X19.3234 Y15.9630
G01 X19.3216 Y15.9996
G01 X19.3162 Y16.0357
G01 X19.3090 Y16.0654
G01 X19.3055 Y16.0770
G01 X19.2950 Y16.1057
G01 X19.2821 Y16.1334
G01 X19.2764 Y16.1440
G01 X19.2606 Y16.1702
G01 X19.2388 Y16.1996
G01 X19.2183 Y16.2223
G01 X19.2098 Y16.2308
G01 X19.1871 Y16.2513
G01 X19.1626 Y16.2696
G01 X19.1526 Y16.2763
G01 X19.1263 Y16.2919
G01 X19.0987 Y16.3051
G01 X19.0904 Y16.3086
G01 X19.0587 Y16.3198
G01 X19.0232 Y16.3287
G01 X18.9871 Y16.3341
G01 X18.9535 Y16.3359
G01 X17.7005 Y16.3359
G01 X17.6639 Y16.3341
G01 X17.6307 Y16.3293
G01 X17.6219 Y16.3274
G01 X17.5923 Y16.3198
G01 X17.5634 Y16.3097
G01 X17.5550 Y16.3063
G01 X17.5301 Y16.2946
G01 X17.5195 Y16.2889
G01 X17.4933 Y16.2731
G01 X17.4639 Y16.2513
G01 X17.4368 Y16.2267
G01 X17.4122 Y16.1996
G01 X17.3904 Y16.1702
G01 X17.3716 Y16.1388
G01 X17.3560 Y16.1057
G01 X17.3455 Y16.0770
G01 X17.3428 Y16.0684
G01 X17.3361 Y16.0416
G01 X17.3337 Y16.0298
G01 X17.3294 Y15.9996
G01 X17.3276 Y15.9610
G01 X17.0559 Y15.9610
G01 X16.4189 Y16.5980
G01 X16.4189 Y18.1630
G01 X16.4140 Y18.2652
G01 X16.4130 Y18.2741
G01 X16.3983 Y18.3723
G01 X16.3743 Y18.4686
G01 X16.3708 Y18.4802
G01 X16.3372 Y18.5736
G01 X16.2949 Y18.6634
G01 X16.2892 Y18.6740
G01 X16.2381 Y18.7591
G01 X16.1754 Y18.8436
G01 X16.1088 Y18.9173
G01 X16.1003 Y18.9258
G01 X16.0312 Y18.9884
G01 X16.0219 Y18.9961
G01 X15.9421 Y19.0551
G01 X15.8518 Y19.1092
G01 X15.7566 Y19.1542
G01 X15.6574 Y19.1897
G01 X15.5553 Y19.2153
G01 X15.4571 Y19.2300
G01 X15.4451 Y19.2312
G01 X15.3520 Y19.2358
G01 X15.3400 Y19.2358
G01 X15.2408 Y19.2307
G01 X15.1367 Y19.2153
G01 X15.0346 Y19.1897
G01 X14.9382 Y19.1554
G01 X14.9299 Y19.1518
G01 X14.8402 Y19.1092
G01 X14.7550 Y19.0583
G01 X14.7450 Y19.0516
G01 X14.6654 Y18.9924
G01 X14.5917 Y18.9258
G01 X14.5832 Y18.9173
G01 X14.5166 Y18.8436
G01 X14.4574 Y18.7640
G01 X14.4507 Y18.7540
G01 X14.3998 Y18.6688
G01 X14.3572 Y18.5791
G01 X14.3526 Y18.5680
G01 X14.3193 Y18.4744
G01 X14.2950 Y18.3782
G01 X14.2932 Y18.3693
G01 X14.2783 Y18.2682
G01 X14.2731 Y18.1630
G01 X14.2731 Y16.0600
G01 X14.2783 Y15.9578
G01 X14.2937 Y15.8537
G01 X14.3193 Y15.7516
G01 X14.3536 Y15.6552
G01 X14.3572 Y15.6469
G01 X14.3971 Y15.5626
G01 X14.4028 Y15.5520
G01 X14.4539 Y15.4669
G01 X14.5166 Y15.3824
G01 X14.5873 Y15.3043
G01 X14.6608 Y15.2376
G01 X14.6701 Y15.2299
G01 X14.7499 Y15.1709
G01 X14.8350 Y15.1198
G01 X14.8456 Y15.1141
G01 X14.9354 Y15.0718
G01 X15.0346 Y15.0363
G01 X15.1308 Y15.0120
G01 X15.1426 Y15.0097
G01 X15.2408 Y14.9953
G01 X15.3430 Y14.9901
G01 X15.3520 Y14.9902
G01 X15.4451 Y14.9948
G01 X15.4571 Y14.9960
G01 X15.5553 Y15.0107
G01 X15.6574 Y15.0363
G01 X15.7510 Y15.0696
G01 X15.7621 Y15.0742
G01 X15.8518 Y15.1168
G01 X15.9395 Y15.1693
G01 X15.9470 Y15.1744
G01 X16.0219 Y15.2299
G01 X16.0312 Y15.2376
G01 X16.1047 Y15.3043
G01 X16.1734 Y15.3801
G01 X16.1791 Y15.3871
G01 X16.2346 Y15.4620
G01 X16.2397 Y15.4695
G01 X16.2908 Y15.5546
G01 X16.3057 Y15.5854
G00 Z2.0000
G00 X16.3382 Y15.2922
G01 F60.00
G01 Z-0.1300
G01 F80.00
G01 X16.3171 Y15.2645
G01 X16.3411 Y15.2651
G01 X16.3563 Y15.2645
G01 X16.3667 Y15.2637
G01 X16.3382 Y15.2922
G00 Z2.0000
G00 X17.0774 Y16.2002
G01 F60.00
G01 Z-0.1300
G01 F80.00
G01 X17.1322 Y16.1454
G01 X17.1742 Y16.1454
G01 X17.1857 Y16.1763
G01 X17.1974 Y16.2019
G01 X17.1871 Y16.2001
G01 X17.1720 Y16.1981
G01 X17.1567 Y16.1969
G01 X17.1415 Y16.1965
G01 X17.1262 Y16.1968
G01 X17.0774 Y16.2002
G00 Z2.0000
G00 X16.6019 Y18.1982
G01 F60.00
G01 Z-0.1300
G01 F80.00
G01 X16.6032 Y18.1705
G01 X16.6032 Y18.1086
G01 X16.6176 Y18.1226
G01 X16.6595 Y18.1590
G01 X16.6225 Y18.1828
G01 X16.6102 Y18.1917
G01 X16.6019 Y18.1982
G00 Z2.0000
G00 X17.0654 Y19.0399
G01 F60.00
G01 Z-0.1300
G01 F80.00
G01 X17.3276 Y19.0399
G01 X17.3276 Y19.0660
G01 X17.3290 Y19.0935
G01 X17.3297 Y19.1025
G01 X17.3348 Y19.1357
G01 X17.3428 Y19.1684
G01 X17.3538 Y19.2001
G01 X17.3584 Y19.2112
G01 X17.3716 Y19.2388
G01 X17.3888 Y19.2676
G01 X17.4085 Y19.2948
G01 X17.4162 Y19.3041
G01 X17.4368 Y19.3267
G01 X17.4639 Y19.3513
G01 X17.4884 Y19.3696
G01 X17.4984 Y19.3763
G01 X17.5247 Y19.3919
G01 X17.5550 Y19.4063
G01 X17.5865 Y19.4180
G01 X17.5981 Y19.4215
G01 X17.6278 Y19.4287
G01 X17.6580 Y19.4334
G01 X17.6670 Y19.4344
G01 X17.7005 Y19.4359
G01 X17.9486 Y19.4359
G01 X17.9486 Y19.6981
G01 X17.6566 Y19.6981
G01 X17.5707 Y19.6892
G01 X17.4294 Y19.6421
G01 X17.3034 Y19.5642
G01 X17.1986 Y19.4592
G01 X17.1209 Y19.3331
G01 X17.0741 Y19.1917
G01 X17.0654 Y19.1072
G01 X17.0654 Y19.0399
G00 Z2.0000
G00 X18.7024 Y19.6981
G01 F60.00
G01 Z-0.1300
G01 F80.00
G01 X18.7024 Y19.4359
G01 X18.9505 Y19.4359
G01 X18.9840 Y19.4344
G01 X18.9930 Y19.4334
G01 X19.0232 Y19.4287
G01 X19.0529 Y19.4215
G01 X19.0645 Y19.4180
G01 X19.0960 Y19.4063
G01 X19.1263 Y19.3919
G01 X19.1526 Y19.3763
G01 X19.1626 Y19.3696
G01 X19.1871 Y19.3513
G01 X19.2142 Y19.3267
G01 X19.2348 Y19.3041
G01 X19.2425 Y19.2948
G01 X19.2622 Y19.2676
G01 X19.2794 Y19.2388
G01 X19.2926 Y19.2112
G01 X19.2972 Y19.2001
G01 X19.3082 Y19.1684
G01 X19.3162 Y19.1357
G01 X19.3213 Y19.1025
G01 X19.3220 Y19.0935
G01 X19.3234 Y19.0660
G01 X19.3234 Y19.0399
G01 X19.5856 Y19.0399
G01 X19.5856 Y19.1071
G01 X19.5767 Y19.1928
G01 X19.5296 Y19.3341
G01 X19.4515 Y19.4603
G01 X19.3467 Y19.5649
G01 X19.2206 Y19.6426
G01 X19.0792 Y19.6894
G01 X18.9945 Y19.6981
G01 X18.7024 Y19.6981
G00 Z2.0000
G00 X18.7024 Y17.6279
G01 F60.00
G01 Z-0.1300
G01 F80.00
G01 X18.9944 Y17.6279
G01 X19.0803 Y17.6368
G01 X19.2216 Y17.6839
G01 X19.3476 Y17.7618
G01 X19.4524 Y17.8668
G01 X19.5301 Y17.9929
G01 X19.5769 Y18.1343
G01 X19.5856 Y18.2188
G01 X19.5856 Y18.2861
G01 X19.3234 Y18.2861
G01 X19.3234 Y18.2600
G01 X19.3220 Y18.2325
G01 X19.3213 Y18.2235
G01 X19.3162 Y18.1903
G01 X19.3082 Y18.1576
G01 X19.2972 Y18.1259
G01 X19.2926 Y18.1148
G01 X19.2794 Y18.0872
G01 X19.2622 Y18.0584
G01 X19.2425 Y18.0312
G01 X19.2348 Y18.0219
G01 X19.2142 Y17.9993
G01 X19.1871 Y17.9747
G01 X19.1626 Y17.9564
G01 X19.1526 Y17.9497
G01 X19.1263 Y17.9341
G01 X19.0960 Y17.9197
G01 X19.0645 Y17.9080
G01 X19.0529 Y17.9045
G01 X19.0232 Y17.8973
G01 X18.9930 Y17.8926
G01 X18.9840 Y17.8916
G01 X18.9505 Y17.8901
G01 X18.7024 Y17.8901
G01 X18.7024 Y17.6279
G00 Z2.0000
G00 X22.0885 Y19.2044
G01 F60.00
G01 Z-0.1300
G01 F80.00
G01 X22.3681 Y19.2044
G01 X22.3781 Y19.2325
G01 X22.3815 Y19.2409
G01 X22.4239 Y19.3306
G01 X22.4283 Y19.3385
G01 X22.4778 Y19.4210
G01 X22.4829 Y19.4285
G01 X22.5421 Y19.5081
G01 X22.6087 Y19.5818
G01 X22.6150 Y19.5883
G01 X22.6909 Y19.6569
G01 X22.7705 Y19.7161
G01 X22.7805 Y19.7228
G01 X22.8605 Y19.7707
G01 X22.8711 Y19.7764
G01 X22.9609 Y19.8187
G01 X23.0543 Y19.8523
G01 X23.0659 Y19.8558
G01 X23.1563 Y19.8785
G01 X23.1681 Y19.8808
G01 X23.2663 Y19.8952
G01 X23.3655 Y19.9003
G01 X24.0446 Y19.9004
G01 X24.0446 Y20.1626
G01 X23.3158 Y20.1626
G01 X23.1528 Y20.1492
G01 X22.9399 Y20.0957
G01 X22.7385 Y20.0082
G01 X22.5542 Y19.8890
G01 X22.3917 Y19.7411
G01 X22.2556 Y19.5688
G01 X22.1496 Y19.3768
G01 X22.0885 Y19.2044
G00 Z2.0000
G00 X23.2381 Y17.5775
G01 F60.00
G01 Z-0.1300
G01 F80.00
G01 X23.1411 Y17.5918
G01 X23.1262 Y17.5944
G01 X23.1115 Y17.5977
G01 X23.0211 Y17.6204
G01 X23.0065 Y17.6244
G01 X22.9922 Y17.6291
G01 X22.9044 Y17.6605
G01 X22.8904 Y17.6660
G01 X22.8766 Y17.6721
G01 X22.8047 Y17.7060
G01 X22.8094 Y17.6855
G01 X22.8129 Y17.6629
G01 X22.8219 Y17.5848
G01 X22.8229 Y17.5695
G01 X22.8231 Y17.5543
G01 X22.8226 Y17.5390
G01 X22.8213 Y17.5238
G01 X22.8180 Y17.5012
G01 X22.8149 Y17.4862
G01 X22.8110 Y17.4715
G01 X22.8032 Y17.4482
G01 X22.8766 Y17.4829
G01 X22.8904 Y17.4890
G01 X22.9044 Y17.4945
G01 X22.9922 Y17.5259
G01 X23.0065 Y17.5306
G01 X23.0211 Y17.5346
G01 X23.1115 Y17.5573
G01 X23.1262 Y17.5606
G01 X23.1411 Y17.5632
G01 X23.2381 Y17.5775
G00 Z2.0000
G00 X23.7933 Y15.0703
G01 F60.00
G01 Z-0.1300
G01 F80.00
G01 X23.8073 Y15.0559
G01 X23.8391 Y15.0193
G01 X23.8391 Y15.0703
G01 X23.7933 Y15.0703
G00 Z2.0000
G00 X25.0039 Y15.0244
G01 F60.00
G01 Z-0.1300
G01 F80.00
G01 X25.0181 Y15.0383
G01 X25.0549 Y15.0703
G01 X25.0039 Y15.0703
G01 X25.0039 Y15.0244
G00 Z2.0000
G00 X26.0384 Y17.4489
G01 F60.00
G01 Z-0.1300
G01 F80.00
G01 X26.0335 Y17.4701
G01 X26.0300 Y17.4928
G01 X26.0211 Y17.5709
G01 X26.0201 Y17.5861
G01 X26.0198 Y17.6014
G01 X26.0204 Y17.6166
G01 X26.0216 Y17.6318
G01 X26.0249 Y17.6545
G01 X26.0281 Y17.6694
G01 X26.0320 Y17.6841
G01 X26.0394 Y17.7066
G01 X25.9664 Y17.6721
G01 X25.9526 Y17.6660
G01 X25.9386 Y17.6605
G01 X25.8508 Y17.6291
G01 X25.8365 Y17.6244
G01 X25.8219 Y17.6204
G01 X25.7315 Y17.5977
G01 X25.7168 Y17.5944
G01 X25.7019 Y17.5918
G01 X25.6049 Y17.5775
G01 X25.7019 Y17.5632
G01 X25.7168 Y17.5606
G01 X25.7315 Y17.5573
G01 X25.8219 Y17.5346
G01 X25.8365 Y17.5306
G01 X25.8508 Y17.5259
G01 X25.9386 Y17.4945
G01 X25.9526 Y17.4890
G01 X25.9664 Y17.4829
G01 X26.0384 Y17.4489
G00 Z2.0000
G00 X28.8242 Y17.1361
G01 F60.00
G01 Z-0.1300
G01 F80.00
G01 X28.8364 Y17.1361
G01 X28.8516 Y17.1354
G01 X28.9225 Y17.1303
G01 X28.9452 Y17.1278
G01 X28.9677 Y17.1236
G01 X28.9825 Y17.1199
G01 X29.0043 Y17.1130
G01 X29.0186 Y17.1075
G01 X29.0325 Y17.1013
G01 X29.0528 Y17.0907
G01 X29.0658 Y17.0828
G01 X29.0785 Y17.0743
G01 X29.1415 Y17.0273
G01 X29.1535 Y17.0178
G01 X29.1705 Y17.0026
G01 X29.1833 Y16.9895
G01 X29.1833 Y17.3040
G01 X29.1848 Y17.3361
G01 X29.1859 Y17.3511
G01 X29.1914 Y17.3904
G01 X29.1940 Y17.4052
G01 X29.2032 Y17.4437
G01 X29.2095 Y17.4654
G01 X29.2202 Y17.4957
G01 X29.2257 Y17.5098
G01 X29.2423 Y17.5457
G01 X29.2527 Y17.5658
G01 X29.2731 Y17.5998
G01 X29.2858 Y17.6184
G01 X29.3101 Y17.6504
G01 X29.2899 Y17.6523
G01 X29.2748 Y17.6547
G01 X29.2599 Y17.6577
G01 X29.2451 Y17.6616
G01 X29.1627 Y17.6873
G01 X29.1414 Y17.6954
G01 X29.1207 Y17.7052
G01 X29.1073 Y17.7125
G01 X29.0879 Y17.7247
G01 X29.0695 Y17.7383
G01 X29.0579 Y17.7482
G01 X29.0467 Y17.7586
G01 X29.0361 Y17.7695
G01 X29.0260 Y17.7810
G01 X29.0044 Y17.8068
G01 X29.0044 Y17.5575
G01 X29.0027 Y17.5155
G01 X29.0008 Y17.4929
G01 X28.9946 Y17.4513
G01 X28.9916 Y17.4365
G01 X28.9814 Y17.3957
G01 X28.9746 Y17.3741
G01 X28.9629 Y17.3416
G01 X28.9571 Y17.3277
G01 X28.9424 Y17.2964
G01 X28.9356 Y17.2830
G01 X28.9143 Y17.2467
G01 X28.9020 Y17.2277
G01 X28.8815 Y17.1999
G01 X28.8722 Y17.1880
G01 X28.8442 Y17.1566
G01 X28.8242 Y17.1361
G00 Z2.0000
G00 X29.0044 Y19.0910
G01 F60.00
G01 Z-0.1300
G01 F80.00
G01 X29.0130 Y19.0996
G01 X29.0243 Y19.1099
G01 X29.0780 Y19.1564
G01 X29.0897 Y19.1661
G01 X29.1020 Y19.1752
G01 X29.1147 Y19.1837
G01 X29.1344 Y19.1952
G01 X29.1481 Y19.2020
G01 X29.1620 Y19.2082
G01 X29.1835 Y19.2161
G01 X29.1981 Y19.2205
G01 X29.2129 Y19.2242
G01 X29.2354 Y19.2283
G01 X29.3128 Y19.2393
G01 X29.3005 Y19.2549
G01 X29.2772 Y19.2869
G01 X29.2565 Y19.3207
G01 X29.2490 Y19.3338
G01 X29.2318 Y19.3695
G01 X29.2229 Y19.3903
G01 X29.2095 Y19.4276
G01 X29.2026 Y19.4516
G01 X29.0044 Y19.4516
G01 X29.0044 Y19.0910
G00 Z2.0000
G00 X29.8081 Y20.9860
G01 F60.00
G01 Z-0.1300
G01 F80.00
G01 X29.8049 Y20.9827
G01 X29.8009 Y20.9787
G01 X29.8081 Y20.9787
G01 X29.8081 Y20.9860
G00 Z2.0000
G00 X30.9772 Y20.9787
G01 F60.00
G01 Z-0.1300
G01 F80.00
G01 X30.9754 Y20.9807
G01 X30.9729 Y20.9835
G01 X30.9729 Y20.9787
G01 X30.9772 Y20.9787
G00 Z2.0000
G00 X31.6641 Y20.8429
G01 F60.00
G01 Z-0.1300
G01 F80.00
G01 X31.6492 Y20.8344
G01 X31.6287 Y20.8244
G01 X31.6146 Y20.8185
G01 X31.5929 Y20.8111
G01 X31.5782 Y20.8071
G01 X31.5020 Y20.7882
G01 X31.4872 Y20.7853
G01 X31.4650 Y20.7823
G01 X31.4760 Y20.7691
G01 X31.4996 Y20.7373
G01 X31.5079 Y20.7248
G01 X31.5283 Y20.6908
G01 X31.5354 Y20.6775
G01 X31.5524 Y20.6417
G01 X31.5581 Y20.6277
G01 X31.5712 Y20.5914
G01 X31.6396 Y20.5914
G01 X31.6393 Y20.6055
G01 X31.6396 Y20.6206
G01 X31.6437 Y20.7039
G01 X31.6448 Y20.7189
G01 X31.6467 Y20.7339
G01 X31.6589 Y20.8164
G01 X31.6615 Y20.8313
G01 X31.6641 Y20.8429
G00 Z2.0000
G00 X32.7965 Y21.9883
G01 F60.00
G01 Z-0.1300
G01 F80.00
G01 X32.7814 Y21.9886
G01 X32.6981 Y21.9927
G01 X32.6831 Y21.9938
G01 X32.6681 Y21.9957
G01 X32.5781 Y22.0091
G01 X32.5560 Y22.0138
G01 X32.4678 Y22.0360
G01 X32.4534 Y22.0404
G01 X32.4212 Y22.0518
G01 X32.4288 Y22.0314
G01 X32.4352 Y22.0094
G01 X32.4386 Y21.9945
G01 X32.4524 Y21.9249
G01 X32.4561 Y21.9023
G01 X32.4576 Y21.8871
G01 X32.4583 Y21.8719
G01 X32.4582 Y21.8566
G01 X32.4568 Y21.8338
G01 X32.4549 Y21.8186
G01 X32.4522 Y21.8036
G01 X32.4468 Y21.7814
G01 X32.4397 Y21.7596
G01 X32.4153 Y21.6971
G01 X32.4534 Y21.7106
G01 X32.4678 Y21.7150
G01 X32.5560 Y21.7372
G01 X32.5781 Y21.7419
G01 X32.6681 Y21.7553
G01 X32.6831 Y21.7572
G01 X32.6981 Y21.7583
G01 X32.7814 Y21.7624
G01 X32.7965 Y21.7627
G01 X35.1040 Y21.7627
G01 X35.1949 Y21.7583
G01 X35.2099 Y21.7572
G01 X35.2249 Y21.7553
G01 X35.3149 Y21.7419
G01 X35.3370 Y21.7372
G01 X35.4252 Y21.7150
G01 X35.4396 Y21.7106
G01 X35.4718 Y21.6992
G01 X35.4642 Y21.7196
G01 X35.4578 Y21.7416
G01 X35.4544 Y21.7565
G01 X35.4406 Y21.8261
G01 X35.4379 Y21.8411
G01 X35.4361 Y21.8563
G01 X35.4347 Y21.8791
G01 X35.4348 Y21.8944
G01 X35.4362 Y21.9172
G01 X35.4381 Y21.9324
G01 X35.4424 Y21.9548
G01 X35.4462 Y21.9696
G01 X35.4533 Y21.9914
G01 X35.4777 Y22.0539
G01 X35.4396 Y22.0404
G01 X35.4252 Y22.0360
G01 X35.3370 Y22.0138
G01 X35.3149 Y22.0091
G01 X35.2249 Y21.9957
G01 X35.2099 Y21.9938
G01 X35.1949 Y21.9927
G01 X35.1040 Y21.9883
G01 X32.7965 Y21.9883
G00 Z2.0000
G00 X32.7965 Y22.1726
G01 F60.00
G01 Z-0.1300
G01 F80.00
G01 X35.0995 Y22.1726
G01 X35.1919 Y22.1773
G01 X35.2863 Y22.1913
G01 X35.3789 Y22.2145
G01 X35.4688 Y22.2467
G01 X35.5551 Y22.2875
G01 X35.6370 Y22.3366
G01 X35.7137 Y22.3934
G01 X35.7844 Y22.4576
G01 X35.8486 Y22.5283
G01 X35.9054 Y22.6050
G01 X35.9545 Y22.6869
G01 X35.9953 Y22.7732
G01 X36.0275 Y22.8631
G01 X36.0507 Y22.9557
G01 X36.0647 Y23.0501
G01 X36.0694 Y23.1455
G01 X36.0647 Y23.2409
G01 X36.0507 Y23.3353
G01 X36.0275 Y23.4279
G01 X35.9953 Y23.5178
G01 X35.9572 Y23.5987
G01 X35.9515 Y23.6094
G01 X35.9054 Y23.6860
G01 X35.8523 Y23.7579
G01 X35.8446 Y23.7673
G01 X35.7844 Y23.8334
G01 X35.7183 Y23.8936
G01 X35.7089 Y23.9013
G01 X35.6370 Y23.9544
G01 X35.5604 Y24.0005
G01 X35.5497 Y24.0062
G01 X35.4688 Y24.0443
G01 X35.3846 Y24.0746
G01 X35.3731 Y24.0781
G01 X35.2863 Y24.0997
G01 X35.1978 Y24.1130
G01 X35.1858 Y24.1142
G01 X35.0965 Y24.1184
G01 X32.7935 Y24.1184
G01 X32.7011 Y24.1137
G01 X32.6067 Y24.0997
G01 X32.5141 Y24.0765
G01 X32.4242 Y24.0443
G01 X32.3379 Y24.0035
G01 X32.2560 Y23.9544
G01 X32.1793 Y23.8976
G01 X32.1129 Y23.8376
G01 X32.1044 Y23.8291
G01 X32.0484 Y23.7673
G01 X32.0407 Y23.7579
G01 X31.9876 Y23.6860
G01 X31.9385 Y23.6041
G01 X31.8977 Y23.5178
G01 X31.8655 Y23.4279
G01 X31.8423 Y23.3353
G01 X31.8290 Y23.2468
G01 X31.8278 Y23.2348
G01 X31.8237 Y23.1515
G01 X31.8237 Y23.1395
G01 X31.8283 Y23.0501
G01 X31.8423 Y22.9557
G01 X31.8655 Y22.8631
G01 X31.8955 Y22.7788
G01 X31.9001 Y22.7677
G01 X31.9358 Y22.6923
G01 X31.9415 Y22.6816
G01 X31.9876 Y22.6050
G01 X32.0444 Y22.5283
G01 X32.1086 Y22.4576
G01 X32.1793 Y22.3934
G01 X32.2560 Y22.3366
G01 X32.3379 Y22.2875
G01 X32.4242 Y22.2467
G01 X32.5084 Y22.2164
G01 X32.5199 Y22.2129
G01 X32.6008 Y22.1926
G01 X32.6126 Y22.1903
G01 X32.7011 Y22.1773
G01 X32.7965 Y22.1726
G00 Z2.0000
G00 X32.7965 Y24.5283
G01 F60.00
G01 Z-0.1300
G01 F80.00
G01 X32.7814 Y24.5286
G01 X32.6981 Y24.5327
G01 X32.6831 Y24.5338
G01 X32.6681 Y24.5357
G01 X32.5781 Y24.5491
G01 X32.5560 Y24.5538
G01 X32.4678 Y24.5760
G01 X32.4534 Y24.5804
G01 X32.4212 Y24.5918
G01 X32.4288 Y24.5714
G01 X32.4352 Y24.5494
G01 X32.4386 Y24.5345
G01 X32.4524 Y24.4649
G01 X32.4551 Y24.4499
G01 X32.4576 Y24.4271
G01 X32.4583 Y24.4119
G01 X32.4582 Y24.3966
G01 X32.4568 Y24.3738
G01 X32.4549 Y24.3586
G01 X32.4522 Y24.3436
G01 X32.4468 Y24.3214
G01 X32.4397 Y24.2996
G01 X32.4153 Y24.2371
G01 X32.4534 Y24.2506
G01 X32.4678 Y24.2550
G01 X32.5560 Y24.2772
G01 X32.5781 Y24.2819
G01 X32.6681 Y24.2953
G01 X32.6831 Y24.2972
G01 X32.6981 Y24.2983
G01 X32.7814 Y24.3024
G01 X32.7965 Y24.3027
G01 X35.1040 Y24.3027
G01 X35.1949 Y24.2983
G01 X35.2099 Y24.2972
G01 X35.2249 Y24.2953
G01 X35.3149 Y24.2819
G01 X35.3370 Y24.2772
G01 X35.4252 Y24.2550
G01 X35.4396 Y24.2506
G01 X35.4718 Y24.2392
G01 X35.4642 Y24.2596
G01 X35.4578 Y24.2816
G01 X35.4544 Y24.2965
G01 X35.4406 Y24.3661
G01 X35.4379 Y24.3811
G01 X35.4354 Y24.4039
G01 X35.4347 Y24.4191
G01 X35.4348 Y24.4344
G01 X35.4362 Y24.4572
G01 X35.4381 Y24.4724
G01 X35.4408 Y24.4874
G01 X35.4462 Y24.5096
G01 X35.4533 Y24.5314
G01 X35.4777 Y24.5939
G01 X35.4396 Y24.5804
G01 X35.4252 Y24.5760
G01 X35.3370 Y24.5538
G01 X35.3149 Y24.5491
G01 X35.2249 Y24.5357
G01 X35.2099 Y24.5338
G01 X35.1949 Y24.5327
G01 X35.1040 Y24.5283
G01 X32.7965 Y24.5283
G00 Z2.0000
G00 X32.7965 Y24.7126
G01 F60.00
G01 Z-0.1300
G01 F80.00
G01 X35.0995 Y24.7126
G01 X35.1919 Y24.7173
G01 X35.2863 Y24.7313
G01 X35.3789 Y24.7545
G01 X35.4688 Y24.7867
G01 X35.5551 Y24.8275
