(G-CODE GENERATED BY FLATCAM v8.992 - www.flatcam.org - Version Date: 2020/05/03)

(Name: NPN Tracer V2a-F_Cu (fast).gbr_iso_1_cnc)
(Type: G-code from Geometry)
(Units: MM)

(Created on Friday, 14 April 2023 at 13:10)

(This preprocessor is the default preprocessor used by FlatCAM.)
(It is made to work with MACH3 compatible motion controllers.)

(TOOL DIAMETER: 0.2423 mm)
(Feedrate_XY: 120.0 mm/min)
(Feedrate_Z: 60.0 mm/min)
(Feedrate rapids 1500.0 mm/min)

(Z_Cut: -0.12 mm)
(Z_Move: 2.0 mm)
(Z Start: None mm)
(Z End: 10.0 mm)
(Steps per circle: 64)
(Preprocessor Geometry: default)

(X range:    0.6417 ...   88.5873  mm)
(Y range:    0.9532 ...   62.4193  mm)

(Spindle Speed: None RPM)
G21
G90
G94



G01 F120.00
G00 Z2.0000

M03
G00 X9.4698 Y13.6633
G01 F60.00
G01 Z-0.1200
G01 F120.00
G01 X13.1219 Y10.0112
G01 X13.1219 Y8.4505
G01 X13.1270 Y8.3455
G01 X13.1424 Y8.2415
G01 X13.1664 Y8.1453
G01 X13.1698 Y8.1339
G01 X13.2034 Y8.0406
G01 X13.2457 Y7.9509
G01 X13.2513 Y7.9404
G01 X13.3024 Y7.8554
G01 X13.3650 Y7.7710
G01 X13.4315 Y7.6974
G01 X13.4399 Y7.6890
G01 X13.5135 Y7.6225
G01 X13.5930 Y7.5633
G01 X13.6029 Y7.5567
G01 X13.6881 Y7.5058
G01 X13.7777 Y7.4633
G01 X13.7858 Y7.4598
G01 X13.7967 Y7.4559
G01 X13.7969 Y6.4441
G01 X13.7989 Y6.4082
G01 X13.8038 Y6.3756
G01 X13.8056 Y6.3669
G01 X13.8129 Y6.3378
G01 X13.8156 Y6.3293
G01 X13.8269 Y6.2983
G01 X13.8408 Y6.2685
G01 X13.8449 Y6.2606
G01 X13.8603 Y6.2349
G01 X13.8669 Y6.2250
G01 X13.8867 Y6.1986
G01 X13.9128 Y6.1698
G01 X15.6979 Y4.3847
G01 X15.7246 Y4.3607
G01 X15.7510 Y4.3409
G01 X15.7609 Y4.3343
G01 X15.7892 Y4.3175
G01 X15.8189 Y4.3033
G01 X15.8299 Y4.2987
G01 X15.8610 Y4.2878
G01 X15.8958 Y4.2789
G01 X15.9045 Y4.2773
G01 X15.9372 Y4.2726
G01 X15.9760 Y4.2707
G01 X52.3615 Y4.2707
G01 X52.4003 Y4.2726
G01 X52.4359 Y4.2778
G01 X52.4708 Y4.2862
G01 X52.4822 Y4.2896
G01 X52.5132 Y4.3009
G01 X52.5483 Y4.3175
G01 X52.5817 Y4.3375
G01 X52.6082 Y4.3570
G01 X52.6174 Y4.3645
G01 X52.6417 Y4.3868
G01 X56.7057 Y8.4508
G01 X56.7280 Y8.4751
G01 X56.7355 Y8.4843
G01 X56.7550 Y8.5108
G01 X56.7750 Y8.5442
G01 X56.7892 Y8.5739
G01 X56.7938 Y8.5849
G01 X56.8047 Y8.6160
G01 X56.8142 Y8.6537
G01 X56.8199 Y8.6922
G01 X56.8218 Y8.7310
G01 X56.8218 Y25.0769
G01 X59.6376 Y27.8927
G01 X64.5164 Y27.8927
G01 X66.1892 Y26.2199
G01 X66.1886 Y25.0134
G01 X66.1783 Y25.0097
G01 X66.1702 Y25.0062
G01 X66.0806 Y24.9637
G01 X65.9954 Y24.9128
G01 X65.9855 Y24.9062
G01 X65.9060 Y24.8470
G01 X65.8324 Y24.7805
G01 X65.8240 Y24.7721
G01 X65.7575 Y24.6985
G01 X65.6983 Y24.6190
G01 X65.6917 Y24.6091
G01 X65.6408 Y24.5239
G01 X65.5983 Y24.4343
G01 X65.5937 Y24.4234
G01 X65.5605 Y24.3299
G01 X65.5362 Y24.2338
G01 X65.5339 Y24.2221
G01 X65.5195 Y24.1240
G01 X65.5144 Y24.0190
G01 X65.5144 Y21.9190
G01 X65.5191 Y21.8199
G01 X65.5202 Y21.8081
G01 X65.5339 Y21.7159
G01 X65.5362 Y21.7042
G01 X65.5605 Y21.6081
G01 X65.5937 Y21.5146
G01 X65.5983 Y21.5037
G01 X65.6408 Y21.4141
G01 X65.6949 Y21.3239
G01 X65.7575 Y21.2395
G01 X65.8281 Y21.1616
G01 X65.9060 Y21.0910
G01 X65.9904 Y21.0284
G01 X66.0806 Y20.9743
G01 X66.1702 Y20.9318
G01 X66.1811 Y20.9272
G01 X66.2689 Y20.8958
G01 X66.2803 Y20.8924
G01 X66.3765 Y20.8684
G01 X66.4746 Y20.8537
G01 X66.4835 Y20.8528
G01 X66.5855 Y20.8479
G01 X66.6905 Y20.8530
G01 X66.7945 Y20.8684
G01 X66.8907 Y20.8924
G01 X66.9021 Y20.8958
G01 X66.9899 Y20.9272
G01 X67.0008 Y20.9318
G01 X67.0904 Y20.9743
G01 X67.1806 Y21.0284
G01 X67.2650 Y21.0910
G01 X67.3386 Y21.1575
G01 X67.3470 Y21.1659
G01 X67.4096 Y21.2350
G01 X67.4172 Y21.2442
G01 X67.4761 Y21.3239
G01 X67.5302 Y21.4141
G01 X67.5751 Y21.5091
G01 X67.6096 Y21.6052
G01 X67.6121 Y21.6138
G01 X67.6348 Y21.7042
G01 X67.6371 Y21.7159
G01 X67.6515 Y21.8140
G01 X67.6566 Y21.9190
G01 X67.6566 Y24.0190
G01 X67.6515 Y24.1240
G01 X67.6366 Y24.2250
G01 X67.6348 Y24.2338
G01 X67.6105 Y24.3299
G01 X67.5773 Y24.4234
G01 X67.5727 Y24.4343
G01 X67.5302 Y24.5239
G01 X67.4793 Y24.6091
G01 X67.4727 Y24.6190
G01 X67.4135 Y24.6985
G01 X67.3470 Y24.7721
G01 X67.3386 Y24.7805
G01 X67.2650 Y24.8470
G01 X67.1855 Y24.9062
G01 X67.1756 Y24.9128
G01 X67.0904 Y24.9637
G01 X67.0008 Y25.0062
G01 X66.9927 Y25.0097
G01 X66.9818 Y25.0136
G01 X66.9816 Y26.3899
G01 X66.9799 Y26.4228
G01 X66.9752 Y26.4555
G01 X66.9729 Y26.4671
G01 X66.9647 Y26.4990
G01 X66.9516 Y26.5357
G01 X66.9377 Y26.5655
G01 X66.9321 Y26.5760
G01 X66.9150 Y26.6042
G01 X66.8918 Y26.6354
G01 X66.8657 Y26.6642
G01 X64.9586 Y28.5713
G01 X64.9319 Y28.5953
G01 X64.9007 Y28.6185
G01 X64.8673 Y28.6385
G01 X64.8376 Y28.6527
G01 X64.8294 Y28.6562
G01 X64.8012 Y28.6664
G01 X64.7898 Y28.6698
G01 X64.7578 Y28.6777
G01 X64.7193 Y28.6834
G01 X64.6805 Y28.6853
G01 X59.4735 Y28.6853
G01 X59.4347 Y28.6834
G01 X59.3962 Y28.6777
G01 X59.3585 Y28.6682
G01 X59.3274 Y28.6573
G01 X59.3164 Y28.6527
G01 X59.2867 Y28.6385
G01 X59.2533 Y28.6185
G01 X59.2221 Y28.5953
G01 X59.1933 Y28.5692
G01 X56.1453 Y25.5212
G01 X56.1192 Y25.4924
G01 X56.0960 Y25.4612
G01 X56.0760 Y25.4278
G01 X56.0594 Y25.3927
G01 X56.0481 Y25.3617
G01 X56.0447 Y25.3503
G01 X56.0374 Y25.3212
G01 X56.0358 Y25.3125
G01 X56.0311 Y25.2798
G01 X56.0292 Y25.2410
G01 X56.0292 Y8.8951
G01 X52.1974 Y5.0633
G01 X16.1401 Y5.0633
G01 X14.5893 Y6.6141
G01 X14.5899 Y7.4561
G01 X14.6002 Y7.4598
G01 X14.6083 Y7.4633
G01 X14.6979 Y7.5058
G01 X14.7831 Y7.5567
G01 X14.7930 Y7.5633
G01 X14.8725 Y7.6225
G01 X14.9461 Y7.6890
G01 X14.9545 Y7.6974
G01 X15.0171 Y7.7665
G01 X15.0247 Y7.7757
G01 X15.0836 Y7.8554
G01 X15.1347 Y7.9404
G01 X15.1403 Y7.9509
G01 X15.1826 Y8.0406
G01 X15.2162 Y8.1339
G01 X15.2196 Y8.1453
G01 X15.2436 Y8.2415
G01 X15.2587 Y8.3426
G01 X15.2594 Y8.3514
G01 X15.2641 Y8.4505
G01 X15.2640 Y10.5564
G01 X15.2594 Y10.6496
G01 X15.2583 Y10.6614
G01 X15.2436 Y10.7595
G01 X15.2196 Y10.8557
G01 X15.2162 Y10.8671
G01 X15.1826 Y10.9604
G01 X15.1377 Y11.0554
G01 X15.0836 Y11.1456
G01 X15.0247 Y11.2253
G01 X15.0171 Y11.2345
G01 X14.9504 Y11.3079
G01 X14.8770 Y11.3746
G01 X14.8678 Y11.3822
G01 X14.7881 Y11.4411
G01 X14.7031 Y11.4922
G01 X14.6926 Y11.4978
G01 X14.6029 Y11.5401
G01 X14.5096 Y11.5737
G01 X14.4982 Y11.5771
G01 X14.4020 Y11.6011
G01 X14.3039 Y11.6158
G01 X14.2921 Y11.6169
G01 X14.1989 Y11.6215
G01 X14.1900 Y11.6216
G01 X14.0880 Y11.6165
G01 X13.9899 Y11.6021
G01 X13.9782 Y11.5998
G01 X13.8821 Y11.5755
G01 X13.7886 Y11.5423
G01 X13.7777 Y11.5377
G01 X13.6881 Y11.4952
G01 X13.6004 Y11.4428
G01 X13.5930 Y11.4377
G01 X13.5182 Y11.3822
G01 X13.5090 Y11.3746
G01 X13.4356 Y11.3079
G01 X13.3669 Y11.2323
G01 X13.3613 Y11.2253
G01 X13.3058 Y11.1505
G01 X13.3007 Y11.1431
G01 X13.2498 Y11.0580
G01 X13.2457 Y11.0501
G01 X13.2322 Y11.0217
G01 X10.1730 Y14.0810
G01 X10.1827 Y14.0950
G01 X10.2285 Y14.1717
G01 X10.2668 Y14.2524
G01 X10.2714 Y14.2634
G01 X10.3013 Y14.3476
G01 X10.3232 Y14.4342
G01 X10.3255 Y14.4459
G01 X10.3385 Y14.5343
G01 X10.3431 Y14.6295
G01 X10.3431 Y15.7457
G01 X11.3141 Y16.7167
G01 X11.7349 Y16.7167
G01 X11.7349 Y16.0630
G01 X11.7396 Y15.9639
G01 X11.7407 Y15.9521
G01 X11.7554 Y15.8540
G01 X11.7794 Y15.7578
G01 X11.7828 Y15.7464
G01 X11.8164 Y15.6531
G01 X11.8613 Y15.5581
G01 X11.9154 Y15.4679
G01 X11.9780 Y15.3835
G01 X12.0486 Y15.3056
G01 X12.1265 Y15.2350
G01 X12.2109 Y15.1724
G01 X12.2985 Y15.1198
G01 X12.3064 Y15.1157
G01 X12.3961 Y15.0734
G01 X12.4951 Y15.0380
G01 X12.5970 Y15.0124
G01 X12.7010 Y14.9970
G01 X12.8060 Y14.9919
G01 X12.9110 Y14.9970
G01 X13.0150 Y15.0124
G01 X13.1169 Y15.0380
G01 X13.2159 Y15.0734
G01 X13.3109 Y15.1183
G01 X13.4011 Y15.1724
G01 X13.4855 Y15.2350
G01 X13.5634 Y15.3056
G01 X13.6340 Y15.3835
G01 X13.6966 Y15.4679
G01 X13.7477 Y15.5529
G01 X13.7533 Y15.5634
G01 X13.7956 Y15.6531
G01 X13.8292 Y15.7464
G01 X13.8326 Y15.7578
G01 X13.8566 Y15.8540
G01 X13.8713 Y15.9521
G01 X13.8724 Y15.9639
G01 X13.8770 Y16.0571
G01 X13.8771 Y18.1630
G01 X13.8720 Y18.2680
G01 X13.8576 Y18.3661
G01 X13.8553 Y18.3778
G01 X13.8310 Y18.4739
G01 X13.7978 Y18.5674
G01 X13.7932 Y18.5783
G01 X13.7507 Y18.6679
G01 X13.6998 Y18.7531
G01 X13.6932 Y18.7630
G01 X13.6340 Y18.8425
G01 X13.5675 Y18.9161
G01 X13.5591 Y18.9245
G01 X13.4855 Y18.9910
G01 X13.4060 Y19.0502
G01 X13.3961 Y19.0568
G01 X13.3109 Y19.1077
G01 X13.2213 Y19.1502
G01 X13.2132 Y19.1537
G01 X13.2023 Y19.1576
G01 X13.2023 Y23.8119
G01 X18.0451 Y28.6547
G01 X21.5627 Y28.6547
G01 X21.5627 Y28.0010
G01 X21.5679 Y27.8960
G01 X21.5833 Y27.7920
G01 X21.6088 Y27.6901
G01 X21.6442 Y27.5911
G01 X21.6878 Y27.4987
G01 X21.6921 Y27.4909
G01 X21.7432 Y27.4059
G01 X21.8058 Y27.3215
G01 X21.8764 Y27.2436
G01 X21.9498 Y27.1769
G01 X21.9590 Y27.1693
G01 X22.0388 Y27.1104
G01 X22.1237 Y27.0593
G01 X22.1342 Y27.0537
G01 X22.2185 Y27.0138
G01 X22.2295 Y27.0092
G01 X22.3229 Y26.9760
G01 X22.4249 Y26.9504
G01 X22.5289 Y26.9350
G01 X22.6279 Y26.9300
G01 X22.6398 Y26.9300
G01 X22.7329 Y26.9346
G01 X22.7447 Y26.9357
G01 X22.8428 Y26.9504
G01 X22.9448 Y26.9760
G01 X23.0438 Y27.0114
G01 X23.1335 Y27.0537
G01 X23.1440 Y27.0593
G01 X23.2239 Y27.1072
G01 X23.2338 Y27.1138
G01 X23.3134 Y27.1730
G01 X23.3913 Y27.2436
G01 X23.4619 Y27.3215
G01 X23.5211 Y27.4010
G01 X23.5277 Y27.4109
G01 X23.5785 Y27.4961
G01 X23.6235 Y27.5911
G01 X23.6570 Y27.6844
G01 X23.6605 Y27.6958
G01 X23.6844 Y27.7920
G01 X23.6991 Y27.8901
G01 X23.7003 Y27.9019
G01 X23.7049 Y27.9951
G01 X23.7050 Y30.1010
G01 X23.7003 Y30.2001
G01 X23.6995 Y30.2089
G01 X23.6844 Y30.3100
G01 X23.6605 Y30.4062
G01 X23.6570 Y30.4176
G01 X23.6235 Y30.5109
G01 X23.5812 Y30.6006
G01 X23.5756 Y30.6111
G01 X23.5245 Y30.6961
G01 X23.4655 Y30.7758
G01 X23.4580 Y30.7850
G01 X23.3954 Y30.8541
G01 X23.3870 Y30.8625
G01 X23.3134 Y30.9290
G01 X23.2338 Y30.9882
G01 X23.2239 Y30.9948
G01 X23.1388 Y31.0457
G01 X23.0492 Y31.0882
G01 X23.0410 Y31.0917
G01 X23.0301 Y31.0956
G01 X23.0301 Y32.3062
G01 X26.9242 Y36.2003
G01 X26.9465 Y36.2246
G01 X26.9540 Y36.2338
G01 X26.9735 Y36.2603
G01 X26.9935 Y36.2937
G01 X27.0101 Y36.3288
G01 X27.0214 Y36.3598
G01 X27.0248 Y36.3712
G01 X27.0332 Y36.4061
G01 X27.0384 Y36.4417
G01 X27.0403 Y36.4805
G01 X27.0403 Y41.0488
G01 X27.1018 Y41.0780
G01 X27.1785 Y41.1238
G01 X27.1884 Y41.1304
G01 X27.2578 Y41.1819
G01 X27.2646 Y41.1877
G01 X27.3307 Y41.2478
G01 X27.3908 Y41.3139
G01 X27.3966 Y41.3207
G01 X27.4481 Y41.3901
G01 X27.4547 Y41.4000
G01 X27.5005 Y41.4767
G01 X27.5388 Y41.5574
G01 X27.5434 Y41.5684
G01 X27.5733 Y41.6526
G01 X27.5952 Y41.7392
G01 X27.5970 Y41.7480
G01 X27.6105 Y41.8393
G01 X27.6151 Y41.9345
G01 X27.6151 Y44.2345
G01 X27.6107 Y44.3267
G01 X27.6097 Y44.3356
G01 X27.5965 Y44.4240
G01 X27.5733 Y44.5164
G01 X27.5412 Y44.6061
G01 X27.5005 Y44.6923
G01 X27.4515 Y44.7740
G01 X27.3947 Y44.8506
G01 X27.3307 Y44.9212
G01 X27.2646 Y44.9813
G01 X27.2554 Y44.9889
G01 X27.1884 Y45.0386
G01 X27.1785 Y45.0452
G01 X27.1018 Y45.0910
G01 X27.0211 Y45.1293
G01 X27.0101 Y45.1339
G01 X26.9259 Y45.1638
G01 X26.8393 Y45.1857
G01 X26.8276 Y45.1880
G01 X26.7392 Y45.2010
G01 X26.6440 Y45.2056
G01 X26.5488 Y45.2010
G01 X26.4575 Y45.1875
G01 X26.4487 Y45.1857
G01 X26.3621 Y45.1638
G01 X26.2779 Y45.1339
G01 X26.2669 Y45.1293
G01 X26.1862 Y45.0910
G01 X26.1095 Y45.0452
G01 X26.0996 Y45.0386
G01 X26.0279 Y44.9852
G01 X25.9616 Y44.9253
G01 X25.9532 Y44.9169
G01 X25.8933 Y44.8506
G01 X25.8399 Y44.7789
G01 X25.8333 Y44.7690
G01 X25.7875 Y44.6923
G01 X25.7492 Y44.6116
G01 X25.7457 Y44.6034
G01 X25.7147 Y44.5164
G01 X25.6915 Y44.4240
G01 X25.6775 Y44.3297
G01 X25.6730 Y44.2404
G01 X25.6729 Y42.6738
G01 X25.3504 Y42.3513
G01 X23.3471 Y42.3513
G01 X23.3471 Y42.3705
G01 X23.3456 Y42.4009
G01 X23.3446 Y42.4098
G01 X23.3406 Y42.4370
G01 X23.3387 Y42.4457
G01 X23.3312 Y42.4752
G01 X23.3200 Y42.5068
G01 X23.3165 Y42.5150
G01 X23.3033 Y42.5425
G01 X23.2846 Y42.5737
G01 X23.2629 Y42.6030
G01 X23.2405 Y42.6278
G01 X23.2341 Y42.6340
G01 X23.2115 Y42.6544
G01 X23.1822 Y42.6761
G01 X23.1510 Y42.6948
G01 X23.1180 Y42.7104
G01 X23.0837 Y42.7227
G01 X23.0484 Y42.7315
G01 X23.0124 Y42.7369
G01 X22.9760 Y42.7386
G01 X21.6760 Y42.7386
G01 X21.6456 Y42.7373
G01 X21.6367 Y42.7365
G01 X21.6065 Y42.7321
G01 X21.5978 Y42.7302
G01 X21.5683 Y42.7227
G01 X21.5395 Y42.7125
G01 X21.5285 Y42.7080
G01 X21.5010 Y42.6948
G01 X21.4748 Y42.6793
G01 X21.4673 Y42.6744
G01 X21.4405 Y42.6544
G01 X21.4179 Y42.6340
G01 X21.4115 Y42.6278
G01 X21.3910 Y42.6052
G01 X21.3708 Y42.5786
G01 X21.3658 Y42.5712
G01 X21.3501 Y42.5451
G01 X21.3418 Y42.5283
G01 X20.1510 Y42.5283
G01 X20.1390 Y42.5336
G01 X20.1195 Y42.5406
G01 X20.0938 Y42.5473
G01 X20.0850 Y42.5490
G01 X20.0646 Y42.5518
G01 X20.0380 Y42.5531
G01 X18.3880 Y42.5531
G01 X18.3644 Y42.5521
G01 X18.3555 Y42.5511
G01 X18.3351 Y42.5479
G01 X18.3121 Y42.5423
G01 X18.3036 Y42.5396
G01 X18.2842 Y42.5325
G01 X18.2655 Y42.5238
G01 X18.2576 Y42.5197
G01 X18.2374 Y42.5075
G01 X18.2207 Y42.4953
G01 X18.2137 Y42.4897
G01 X18.1984 Y42.4758
G01 X18.1922 Y42.4694
G01 X18.1784 Y42.4540
G01 X18.1660 Y42.4375
G01 X18.1609 Y42.4302
G01 X18.1489 Y42.4098
G01 X18.1375 Y42.3858
G01 X18.1285 Y42.3607
G01 X18.1234 Y42.3407
G01 X18.1215 Y42.3320
G01 X18.1185 Y42.3115
G01 X18.1177 Y42.3026
G01 X18.1169 Y42.2820
G01 X18.1169 Y41.9790
G01 X18.1182 Y41.9554
G01 X18.1210 Y41.9350
G01 X18.1227 Y41.9262
G01 X18.1277 Y41.9061
G01 X18.1304 Y41.8976
G01 X18.1375 Y41.8782
G01 X18.1475 Y41.8568
G01 X18.1518 Y41.8490
G01 X18.1625 Y41.8314
G01 X18.1765 Y41.8123
G01 X18.1823 Y41.8055
G01 X18.1963 Y41.7903
G01 X18.2115 Y41.7763
G01 X18.2183 Y41.7705
G01 X18.2374 Y41.7565
G01 X18.2576 Y41.7443
G01 X18.2655 Y41.7402
G01 X18.2842 Y41.7315
G01 X18.3036 Y41.7244
G01 X18.3150 Y41.7209
G01 X18.3322 Y41.7167
G01 X18.3410 Y41.7150
G01 X18.3614 Y41.7122
G01 X18.3880 Y41.7109
G01 X20.0380 Y41.7109
G01 X20.0646 Y41.7122
G01 X20.0850 Y41.7150
G01 X20.0938 Y41.7167
G01 X20.1195 Y41.7234
G01 X20.1390 Y41.7304
G01 X20.1510 Y41.7357
G01 X21.3049 Y41.7357
G01 X21.3049 Y41.5425
G01 X21.3062 Y41.5121
G01 X21.3070 Y41.5032
G01 X21.3120 Y41.4701
G01 X21.3192 Y41.4405
G01 X21.3217 Y41.4319
G01 X21.3310 Y41.4060
G01 X21.3343 Y41.3977
G01 X21.3473 Y41.3702
G01 X21.3516 Y41.3624
G01 X21.3658 Y41.3388
G01 X21.3708 Y41.3314
G01 X21.3891 Y41.3070
G01 X21.4095 Y41.2844
G01 X21.4179 Y41.2760
G01 X21.4405 Y41.2556
G01 X21.4698 Y41.2339
G01 X21.5010 Y41.2152
G01 X21.5285 Y41.2020
G01 X21.5395 Y41.1975
G01 X21.5683 Y41.1873
G01 X21.5978 Y41.1798
G01 X21.6095 Y41.1775
G01 X21.6396 Y41.1731
G01 X21.6760 Y41.1714
G01 X22.9760 Y41.1714
G01 X23.0124 Y41.1731
G01 X23.0425 Y41.1775
G01 X23.0513 Y41.1791
G01 X23.0837 Y41.1873
G01 X23.1180 Y41.1996
G01 X23.1510 Y41.2152
G01 X23.1772 Y41.2307
G01 X23.1847 Y41.2356
G01 X23.2068 Y41.2519
G01 X23.2160 Y41.2595
G01 X23.2384 Y41.2801
G01 X23.2590 Y41.3025
G01 X23.2648 Y41.3094
G01 X23.2846 Y41.3363
G01 X23.3033 Y41.3675
G01 X23.3189 Y41.4005
G01 X23.3303 Y41.4319
G01 X23.3328 Y41.4405
G01 X23.3400 Y41.4701
G01 X23.3450 Y41.5032
G01 X23.3470 Y41.5366
G01 X23.3471 Y41.5587
G01 X25.5175 Y41.5587
G01 X25.5533 Y41.5606
G01 X25.5860 Y41.5653
G01 X25.5976 Y41.5676
G01 X25.6295 Y41.5758
G01 X25.6606 Y41.5867
G01 X25.6716 Y41.5913
G01 X25.7013 Y41.6055
G01 X25.7261 Y41.6202
G01 X25.7468 Y41.5629
G01 X25.7862 Y41.4793
G01 X25.7905 Y41.4715
G01 X25.8349 Y41.3975
G01 X25.8399 Y41.3901
G01 X25.8933 Y41.3184
G01 X25.9532 Y41.2521
G01 X25.9616 Y41.2437
G01 X26.0279 Y41.1838
G01 X26.1020 Y41.1287
G01 X26.1095 Y41.1238
G01 X26.1862 Y41.0780
G01 X26.2477 Y41.0488
G01 X26.2477 Y36.6446
G01 X22.3536 Y32.7506
G01 X22.3275 Y32.7218
G01 X22.3043 Y32.6905
G01 X22.2873 Y32.6623
G01 X22.2817 Y32.6518
G01 X22.2677 Y32.6220
G01 X22.2546 Y32.5854
G01 X22.2465 Y32.5535
G01 X22.2442 Y32.5418
G01 X22.2395 Y32.5092
G01 X22.2377 Y32.4763
G01 X22.2370 Y31.0954
G01 X22.2267 Y31.0917
G01 X22.2185 Y31.0882
G01 X22.1289 Y31.0457
G01 X22.0388 Y30.9916
G01 X21.9543 Y30.9290
G01 X21.8764 Y30.8584
G01 X21.8058 Y30.7805
G01 X21.7432 Y30.6961
G01 X21.6892 Y30.6059
G01 X21.6442 Y30.5109
G01 X21.6088 Y30.4119
G01 X21.5846 Y30.3158
G01 X21.5823 Y30.3041
G01 X21.5686 Y30.2119
G01 X21.5676 Y30.2030
G01 X21.5627 Y30.1010
G01 X21.5627 Y29.4473
G01 X17.8780 Y29.4473
G01 X17.8451 Y29.4456
G01 X17.8363 Y29.4447
G01 X17.8037 Y29.4397
G01 X17.7717 Y29.4318
G01 X17.7603 Y29.4284
G01 X17.7293 Y29.4171
G01 X17.6995 Y29.4032
G01 X17.6916 Y29.3991
G01 X17.6608 Y29.3805
G01 X17.6343 Y29.3610
G01 X17.6251 Y29.3535
G01 X17.6008 Y29.3312
G01 X12.5258 Y24.2562
G01 X12.4997 Y24.2274
G01 X12.4799 Y24.2010
G01 X12.4733 Y24.1911
G01 X12.4579 Y24.1654
G01 X12.4538 Y24.1575
G01 X12.4399 Y24.1277
G01 X12.4268 Y24.0910
G01 X12.4186 Y24.0591
G01 X12.4163 Y24.0475
G01 X12.4116 Y24.0148
G01 X12.4097 Y23.9790
G01 X12.4091 Y19.1574
G01 X12.3988 Y19.1537
G01 X12.3907 Y19.1502
G01 X12.3011 Y19.1077
G01 X12.2109 Y19.0536
G01 X12.1265 Y18.9910
G01 X12.0486 Y18.9204
G01 X11.9780 Y18.8425
G01 X11.9154 Y18.7581
G01 X11.8613 Y18.6679
G01 X11.8164 Y18.5729
G01 X11.7810 Y18.4739
G01 X11.7567 Y18.3778
G01 X11.7544 Y18.3661
G01 X11.7407 Y18.2739
G01 X11.7398 Y18.2650
G01 X11.7349 Y18.1630
G01 X11.7349 Y17.5093
G01 X11.4285 Y17.5093
G01 X11.4003 Y17.5260
G01 X11.3706 Y17.5402
G01 X11.3596 Y17.5448
G01 X11.3285 Y17.5557
G01 X11.2966 Y17.5639
G01 X11.2850 Y17.5662
G01 X11.2523 Y17.5709
G01 X11.2194 Y17.5726
G01 X11.2076 Y17.5726
G01 X11.1747 Y17.5709
G01 X11.1362 Y17.5652
G01 X11.0985 Y17.5557
G01 X11.0674 Y17.5448
G01 X11.0564 Y17.5402
G01 X11.0267 Y17.5260
G01 X10.9933 Y17.5060
G01 X10.9621 Y17.4828
G01 X10.9354 Y17.4588
G01 X10.3431 Y16.8666
G01 X10.3431 Y16.9325
G01 X10.3387 Y17.0217
G01 X10.3377 Y17.0306
G01 X10.3250 Y17.1160
G01 X10.3232 Y17.1248
G01 X10.3013 Y17.2114
G01 X10.2703 Y17.2984
G01 X10.2668 Y17.3066
G01 X10.2285 Y17.3873
G01 X10.1795 Y17.4690
G01 X10.1227 Y17.5456
G01 X10.0628 Y17.6119
G01 X10.0566 Y17.6183
G01 X9.9881 Y17.6802
G01 X9.9164 Y17.7336
G01 X9.9065 Y17.7402
G01 X9.8350 Y17.7830
G01 X9.8245 Y17.7887
G01 X9.7436 Y17.8267
G01 X9.6596 Y17.8570
G01 X9.6482 Y17.8604
G01 X9.5615 Y17.8820
G01 X9.4672 Y17.8960
G01 X9.3720 Y17.9006
G01 X9.2768 Y17.8960
G01 X9.1825 Y17.8820
G01 X9.0958 Y17.8604
G01 X9.0844 Y17.8570
G01 X9.0004 Y17.8267
G01 X8.9195 Y17.7887
G01 X8.9090 Y17.7830
G01 X8.8325 Y17.7370
G01 X8.7559 Y17.6802
G01 X8.6896 Y17.6203
G01 X8.6812 Y17.6119
G01 X8.6213 Y17.5456
G01 X8.5645 Y17.4690
G01 X8.5155 Y17.3873
G01 X8.4772 Y17.3066
G01 X8.4726 Y17.2956
G01 X8.4445 Y17.2171
G01 X8.4418 Y17.2086
G01 X8.4195 Y17.1190
G01 X8.4063 Y17.0306
G01 X8.4051 Y17.0188
G01 X8.4009 Y16.9325
G01 X8.4009 Y14.6295
G01 X8.4051 Y14.5402
G01 X8.4063 Y14.5284
G01 X8.4195 Y14.4400
G01 X8.4418 Y14.3504
G01 X8.4445 Y14.3419
G01 X8.4748 Y14.2579
G01 X8.5128 Y14.1770
G01 X8.5185 Y14.1665
G01 X8.5613 Y14.0950
G01 X8.5679 Y14.0851
G01 X8.6213 Y14.0134
G01 X8.6853 Y13.9428
G01 X8.7559 Y13.8788
G01 X8.8325 Y13.8220
G01 X8.9142 Y13.7730
G01 X9.0004 Y13.7323
G01 X9.0901 Y13.7002
G01 X9.1767 Y13.6783
G01 X9.1884 Y13.6760
G01 X9.2709 Y13.6638
G01 X9.2827 Y13.6626
G01 X9.3720 Y13.6584
G01 X9.4613 Y13.6626
G01 X9.4698 Y13.6633
G00 Z2.0000
G00 X8.1346 Y14.5767
G01 F60.00
G01 Z-0.1200
G01 F120.00
G01 X8.1479 Y14.4203
G01 X8.2007 Y14.2170
G01 X8.2869 Y14.0256
G01 X8.4042 Y13.8514
G01 X8.5491 Y13.6994
G01 X8.7176 Y13.5741
G01 X8.9048 Y13.4789
G01 X9.1053 Y13.4166
G01 X9.2930 Y13.3918
G01 X9.3015 Y13.3903
G01 X9.3099 Y13.3883
G01 X9.3235 Y13.3836
G01 X9.3938 Y13.3524
G01 X9.4019 Y13.3482
G01 X9.4097 Y13.3433
G01 X9.4218 Y13.3340
G01 X9.4353 Y13.3215
G01 X12.7833 Y9.9735
G01 X12.7910 Y9.9650
G01 X12.7963 Y9.9581
G01 X12.8039 Y9.9459
G01 X12.8380 Y9.8836
G01 X12.8443 Y9.8702
G01 X12.8481 Y9.8589
G01 X12.8508 Y9.8473
G01 X12.8521 Y9.8385
G01 X12.8555 Y9.8053
G01 X12.8556 Y8.3947
G01 X12.8691 Y8.2313
G01 X12.9227 Y8.0180
G01 X13.0103 Y7.8164
G01 X13.1298 Y7.6317
G01 X13.2778 Y7.4691
G01 X13.4367 Y7.3436
G01 X13.4433 Y7.3380
G01 X13.4494 Y7.3319
G01 X13.4587 Y7.3209
G01 X13.5032 Y7.2582
G01 X13.5109 Y7.2451
G01 X13.5168 Y7.2311
G01 X13.5203 Y7.2195
G01 X13.5221 Y7.2106
G01 X13.5294 Y7.1668
G01 X13.5306 Y7.1525
G01 X13.5306 Y6.4590
G01 X13.5299 Y6.3826
G01 X13.5364 Y6.3521
G01 X13.5390 Y6.3365
G01 X13.5430 Y6.3023
G01 X13.5503 Y6.2812
G01 X13.5555 Y6.2628
G01 X13.5613 Y6.2374
G01 X13.5745 Y6.2090
G01 X13.5804 Y6.1944
G01 X13.5919 Y6.1620
G01 X13.6055 Y6.1398
G01 X13.6146 Y6.1230
G01 X13.6241 Y6.1027
G01 X13.6432 Y6.0780
G01 X13.6523 Y6.0650
G01 X13.6706 Y6.0360
G01 X13.7802 Y5.9257
G01 X13.7868 Y5.9195
G01 X15.5012 Y4.2050
G01 X15.5547 Y4.1505
G01 X15.5810 Y4.1335
G01 X15.5938 Y4.1243
G01 X15.6208 Y4.1030
G01 X15.6409 Y4.0932
G01 X15.6576 Y4.0839
G01 X15.6796 Y4.0700
G01 X15.7119 Y4.0581
G01 X15.7264 Y4.0519
G01 X15.7546 Y4.0383
G01 X15.7764 Y4.0332
G01 X15.7947 Y4.0278
G01 X15.8193 Y4.0191
G01 X15.8533 Y4.0147
G01 X15.8689 Y4.0119
G01 X15.8994 Y4.0049
G01 X16.0548 Y4.0043
G01 X16.0639 Y4.0046
G01 X52.3525 Y4.0046
G01 X52.4289 Y4.0039
G01 X52.4594 Y4.0104
G01 X52.4750 Y4.0130
G01 X52.5092 Y4.0170
G01 X52.5303 Y4.0243
G01 X52.5487 Y4.0295
G01 X52.5741 Y4.0353
G01 X52.6025 Y4.0485
G01 X52.6171 Y4.0544
G01 X52.6495 Y4.0659
G01 X52.6717 Y4.0795
G01 X52.6885 Y4.0886
G01 X52.7088 Y4.0981
G01 X52.7360 Y4.1190
G01 X52.7490 Y4.1280
G01 X52.7755 Y4.1446
G01 X52.8858 Y4.2542
G01 X52.8920 Y4.2608
G01 X56.8875 Y8.2562
G01 X56.9420 Y8.3097
G01 X56.9590 Y8.3360
G01 X56.9682 Y8.3488
G01 X56.9895 Y8.3758
G01 X56.9993 Y8.3959
G01 X57.0086 Y8.4126
G01 X57.0225 Y8.4346
G01 X57.0344 Y8.4669
G01 X57.0406 Y8.4814
G01 X57.0542 Y8.5096
G01 X57.0603 Y8.5350
G01 X57.0658 Y8.5532
G01 X57.0734 Y8.5743
G01 X57.0778 Y8.6083
G01 X57.0806 Y8.6239
G01 X57.0876 Y8.6544
G01 X57.0882 Y8.8098
G01 X57.0879 Y8.8189
G01 X57.0879 Y24.8643
G01 X57.0887 Y24.8787
G01 X57.0913 Y24.8928
G01 X57.1128 Y24.9665
G01 X57.1167 Y24.9778
G01 X57.1217 Y24.9886
G01 X57.1293 Y25.0013
G01 X57.1347 Y25.0084
G01 X57.1558 Y25.0343
G01 X59.6755 Y27.5543
G01 X59.6818 Y27.5602
G01 X59.6885 Y27.5656
G01 X59.7006 Y27.5735
G01 X59.7680 Y27.6103
G01 X59.7761 Y27.6141
G01 X59.7844 Y27.6173
G01 X59.7958 Y27.6206
G01 X59.8075 Y27.6227
G01 X59.8405 Y27.6263
G01 X59.8502 Y27.6266
G01 X64.3067 Y27.6266
G01 X64.3210 Y27.6254
G01 X64.3351 Y27.6225
G01 X64.4060 Y27.6017
G01 X64.4173 Y27.5978
G01 X64.4307 Y27.5914
G01 X64.4408 Y27.5852
G01 X64.4689 Y27.5629
G01 X64.4762 Y27.5565
G01 X65.8508 Y26.1820
G01 X65.8603 Y26.1713
G01 X65.8670 Y26.1619
G01 X65.8714 Y26.1544
G01 X65.9055 Y26.0921
G01 X65.9094 Y26.0841
G01 X65.9128 Y26.0759
G01 X65.9164 Y26.0645
G01 X65.9188 Y26.0529
G01 X65.9230 Y26.0138
G01 X65.9231 Y25.3176
G01 X65.9228 Y25.3090
G01 X65.9219 Y25.3004
G01 X65.9204 Y25.2919
G01 X65.9182 Y25.2835
G01 X65.8982 Y25.2154
G01 X65.8954 Y25.2070
G01 X65.8908 Y25.1961
G01 X65.8866 Y25.1883
G01 X65.8818 Y25.1808
G01 X65.8746 Y25.1714
G01 X65.8404 Y25.1344
G01 X65.8292 Y25.1238
G01 X65.6946 Y25.0225
G01 X65.5426 Y24.8635
G01 X65.5176 Y24.8271
G01 X65.5103 Y24.8183
G01 X65.5021 Y24.8101
G01 X65.4380 Y24.7577
G01 X65.4254 Y24.7495
G01 X65.4119 Y24.7430
G01 X65.3977 Y24.7381
G01 X65.3829 Y24.7351
G01 X65.3094 Y24.7266
G01 X65.2944 Y24.7258
G01 X65.2854 Y24.7262
G01 X65.2735 Y24.7278
G01 X65.2618 Y24.7305
G01 X65.2504 Y24.7345
G01 X65.2421 Y24.7381
G01 X65.1758 Y24.7707
G01 X65.1681 Y24.7751
G01 X65.1608 Y24.7800
G01 X65.1494 Y24.7893
G01 X65.1411 Y24.7977
G01 X65.1165 Y24.8268
G01 X65.1087 Y24.8378
G01 X64.9607 Y25.0004
G01 X64.7881 Y25.1367
G01 X64.5956 Y25.2430
G01 X64.3883 Y25.3164
G01 X64.1718 Y25.3550
G01 X63.9519 Y25.3577
G01 X63.7345 Y25.3244
G01 X63.5255 Y25.2561
G01 X63.3304 Y25.1545
G01 X63.1546 Y25.0225
G01 X63.0026 Y24.8635
G01 X62.8787 Y24.6818
G01 X62.7861 Y24.4824
G01 X62.7273 Y24.2705
G01 X62.7081 Y24.0910
G01 X62.7081 Y21.8632
G01 X62.7216 Y21.6998
G01 X62.7752 Y21.4865
G01 X62.8628 Y21.2849
G01 X62.9823 Y21.1002
G01 X63.1303 Y20.9376
G01 X63.2914 Y20.8103
G01 X63.3019 Y20.8004
G01 X63.3095 Y20.7917
G01 X63.3557 Y20.7267
G01 X63.3605 Y20.7189
G01 X63.3660 Y20.7081
G01 X63.3703 Y20.6967
G01 X63.3735 Y20.6850
G01 X63.3815 Y20.6381
G01 X63.3826 Y20.6296
G01 X63.3831 Y20.6181
G01 X63.3831 Y16.4996
G01 X63.3826 Y16.4909
G01 X63.3815 Y16.4823
G01 X63.3782 Y16.4683
G01 X63.3574 Y16.3973
G01 X63.3531 Y16.3860
G01 X63.3463 Y16.3726
G01 X63.3414 Y16.3650
G01 X63.3359 Y16.3578
G01 X63.3299 Y16.3510
G01 X63.3235 Y16.3447
G01 X63.2592 Y16.2916
G01 X63.2523 Y16.2864
G01 X63.2450 Y16.2816
G01 X63.2374 Y16.2773
G01 X63.2295 Y16.2737
G01 X63.0438 Y16.2003
G01 X62.8643 Y16.0914
G01 X62.7057 Y15.9538
G01 X62.5726 Y15.7914
G01 X62.4687 Y15.6089
G01 X62.3971 Y15.4115
G01 X62.3593 Y15.2026
G01 X62.3586 Y15.1893
G01 X62.3586 Y12.7352
G01 X62.3719 Y12.5788
G01 X62.4247 Y12.3755
G01 X62.5109 Y12.1841
G01 X62.6282 Y12.0099
G01 X62.7731 Y11.8579
G01 X62.9416 Y11.7326
G01 X63.1288 Y11.6374
G01 X63.3293 Y11.5751
G01 X63.5375 Y11.5476
G01 X63.7473 Y11.5554
G01 X63.9529 Y11.5986
G01 X64.1482 Y11.6757
G01 X64.3277 Y11.7846
G01 X64.4863 Y11.9222
G01 X64.6194 Y12.0846
G01 X64.6520 Y12.1419
G01 X64.6568 Y12.1491
G01 X64.6620 Y12.1560
G01 X64.6717 Y12.1666
G01 X64.7228 Y12.2159
G01 X64.7319 Y12.2238
G01 X64.7417 Y12.2308
G01 X64.7521 Y12.2368
G01 X64.7631 Y12.2417
G01 X64.7745 Y12.2455
G01 X64.7833 Y12.2476
G01 X64.8559 Y12.2620
G01 X64.8678 Y12.2634
G01 X64.8769 Y12.2638
G01 X64.8859 Y12.2634
G01 X64.8978 Y12.2619
G01 X64.9095 Y12.2592
G01 X64.9209 Y12.2554
G01 X64.9870 Y12.2294
G01 X64.9952 Y12.2258
G01 X65.0032 Y12.2216
G01 X65.0108 Y12.2168
G01 X65.0180 Y12.2115
G01 X65.0248 Y12.2057
G01 X65.0312 Y12.1993
G01 X65.0584 Y12.1702
G01 X65.0647 Y12.1629
G01 X65.0686 Y12.1578
G01 X65.1682 Y12.0099
G01 X65.3131 Y11.8579
G01 X65.4816 Y11.7326
G01 X65.6688 Y11.6374
G01 X65.8693 Y11.5751
G01 X66.0775 Y11.5476
G01 X66.2873 Y11.5554
G01 X66.4929 Y11.5986
G01 X66.6882 Y11.6757
G01 X66.7311 Y11.7017
G01 X66.8677 Y11.7846
G01 X67.0263 Y11.9222
G01 X67.1594 Y12.0846
G01 X67.2633 Y12.2671
G01 X67.3349 Y12.4645
G01 X67.3727 Y12.6734
G01 X67.3734 Y12.6867
G01 X67.3735 Y13.0343
G01 X67.3746 Y13.0457
G01 X67.3775 Y13.0599
G01 X67.3983 Y13.1308
G01 X67.4034 Y13.1449
G01 X67.4102 Y13.1583
G01 X67.4168 Y13.1683
G01 X67.4265 Y13.1799
G01 X67.4352 Y13.1882
G01 X67.4888 Y13.2347
G01 X67.4959 Y13.2404
G01 X67.5060 Y13.2471
G01 X67.5139 Y13.2514
G01 X67.5222 Y13.2552
G01 X67.5307 Y13.2583
G01 X67.5395 Y13.2608
G01 X67.5976 Y13.2735
G01 X67.6061 Y13.2748
G01 X67.6176 Y13.2756
G01 X69.1810 Y13.2756
G01 X69.1925 Y13.2751
G01 X69.2039 Y13.2735
G01 X69.2124 Y13.2715
G01 X69.2861 Y13.2499
G01 X69.2946 Y13.2468
G01 X69.3028 Y13.2431
G01 X69.3108 Y13.2388
G01 X69.3184 Y13.2339
G01 X69.3301 Y13.2246
G01 X69.3387 Y13.2161
G01 X69.3891 Y13.1579
G01 X69.3946 Y13.1506
G01 X69.3996 Y13.1430
G01 X69.4039 Y13.1351
G01 X69.4077 Y13.1268
G01 X69.4117 Y13.1154
G01 X69.4140 Y13.1066
G01 X69.4260 Y13.0514
G01 X69.4276 Y13.0400
G01 X69.4281 Y13.0285
G01 X69.4281 Y12.9495
G01 X69.4418 Y12.7702
G01 X69.4963 Y12.5349
G01 X69.5858 Y12.3106
G01 X69.7082 Y12.1024
G01 X69.8607 Y11.9151
G01 X70.0397 Y11.7531
G01 X70.2412 Y11.6199
G01 X70.4606 Y11.5188
G01 X70.6927 Y11.4520
G01 X70.9322 Y11.4212
G01 X71.1736 Y11.4268
G01 X71.4114 Y11.4690
G01 X71.6401 Y11.5466
G01 X71.8544 Y11.6579
G01 X72.0494 Y11.8004
G01 X72.2207 Y11.9707
G01 X72.3641 Y12.1650
G01 X72.4766 Y12.3787
G01 X72.5554 Y12.6070
G01 X72.5991 Y12.8460
G01 X72.6029 Y12.9182
G01 X72.6029 Y14.6725
G01 X72.5892 Y14.8518
G01 X72.5347 Y15.0871
G01 X72.4452 Y15.3114
G01 X72.3228 Y15.5196
G01 X72.1703 Y15.7069
G01 X71.9913 Y15.8689
G01 X71.7898 Y16.0021
G01 X71.5704 Y16.1032
G01 X71.3383 Y16.1700
G01 X71.0988 Y16.2008
G01 X70.8574 Y16.1952
G01 X70.6196 Y16.1530
G01 X70.3909 Y16.0754
G01 X70.1766 Y15.9641
G01 X69.9816 Y15.8216
G01 X69.8103 Y15.6513
G01 X69.6669 Y15.4570
G01 X69.5544 Y15.2433
G01 X69.4756 Y15.0150
G01 X69.4369 Y14.8031
G01 X69.4335 Y14.7891
G01 X69.4306 Y14.7809
G01 X69.4272 Y14.7730
G01 X69.3940 Y14.7070
G01 X69.3881 Y14.6965
G01 X69.3792 Y14.6844
G01 X69.3711 Y14.6755
G01 X69.3598 Y14.6656
G01 X69.3474 Y14.6571
G01 X69.2812 Y14.6182
G01 X69.2733 Y14.6144
G01 X69.2651 Y14.6112
G01 X69.2568 Y14.6085
G01 X69.2483 Y14.6065
G01 X69.2087 Y14.6013
G01 X69.1938 Y14.6004
G01 X67.6147 Y14.6005
G01 X67.6033 Y14.6016
G01 X67.5891 Y14.6045
G01 X67.5154 Y14.6261
G01 X67.5069 Y14.6292
G01 X67.4987 Y14.6329
G01 X67.4907 Y14.6372
G01 X67.4831 Y14.6421
G01 X67.4736 Y14.6495
G01 X67.4628 Y14.6599
G01 X67.4124 Y14.7181
G01 X67.4069 Y14.7254
G01 X67.4004 Y14.7356
G01 X67.3962 Y14.7437
G01 X67.3916 Y14.7549
G01 X67.3882 Y14.7665
G01 X67.3761 Y14.8217
G01 X67.3746 Y14.8303
G01 X67.3735 Y14.8417
G01 X67.3734 Y15.1408
G01 X67.3601 Y15.2972
G01 X67.3073 Y15.5005
G01 X67.2211 Y15.6919
G01 X67.1038 Y15.8661
G01 X66.9589 Y16.0181
G01 X66.7904 Y16.1434
G01 X66.6032 Y16.2386
G01 X66.4027 Y16.3009
G01 X66.1945 Y16.3284
G01 X65.9847 Y16.3206
G01 X65.7791 Y16.2774
G01 X65.5838 Y16.2003
G01 X65.4043 Y16.0914
G01 X65.2457 Y15.9538
G01 X65.1461 Y15.8323
G01 X65.1404 Y15.8258
G01 X65.1342 Y15.8197
G01 X65.1230 Y15.8107
G01 X65.0620 Y15.7690
G01 X65.0544 Y15.7642
G01 X65.0464 Y15.7600
G01 X65.0353 Y15.7553
G01 X65.0267 Y15.7525
G01 X65.0150 Y15.7498
G01 X65.0031 Y15.7483
G01 X64.9231 Y15.7460
G01 X64.9141 Y15.7463
G01 X64.9021 Y15.7478
G01 X64.8933 Y15.7497
G01 X64.8846 Y15.7522
G01 X64.8762 Y15.7554
G01 X64.8680 Y15.7591
G01 X64.8601 Y15.7635
G01 X64.7943 Y15.8035
G01 X64.7847 Y15.8107
G01 X64.7758 Y15.8188
G01 X64.7678 Y15.8278
G01 X64.7607 Y15.8375
G01 X64.7533 Y15.8506
G01 X64.7207 Y15.9171
G01 X64.7153 Y15.9310
G01 X64.7117 Y15.9455
G01 X64.7101 Y15.9574
G01 X64.7083 Y15.9787
G01 X64.7079 Y15.9890
G01 X64.7079 Y20.6204
G01 X64.7087 Y20.6348
G01 X64.7113 Y20.6489
G01 X64.7328 Y20.7226
G01 X64.7366 Y20.7338
G01 X64.7402 Y20.7419
G01 X64.7444 Y20.7497
G01 X64.7492 Y20.7572
G01 X64.7545 Y20.7643
G01 X64.7603 Y20.7710
G01 X64.7949 Y20.8080
G01 X64.8066 Y20.8180
G01 X64.9364 Y20.9155
G01 X65.0884 Y21.0745
G01 X65.1117 Y21.1086
G01 X65.1170 Y21.1154
G01 X65.1227 Y21.1218
G01 X65.1333 Y21.1316
G01 X65.1882 Y21.1766
G01 X65.2004 Y21.1854
G01 X65.2109 Y21.1913
G01 X65.2219 Y21.1961
G01 X65.2363 Y21.2006
G01 X65.2511 Y21.2033
G01 X65.3276 Y21.2120
G01 X65.3396 Y21.2122
G01 X65.3546 Y21.2107
G01 X65.3692 Y21.2075
G01 X65.3806 Y21.2035
G01 X65.3889 Y21.1999
G01 X65.4552 Y21.1673
G01 X65.4654 Y21.1613
G01 X65.4749 Y21.1545
G01 X65.4816 Y21.1487
G01 X65.4899 Y21.1403
G01 X65.5145 Y21.1112
G01 X65.5223 Y21.1002
G01 X65.6703 Y20.9376
G01 X65.8429 Y20.8013
G01 X66.0354 Y20.6950
G01 X66.2427 Y20.6216
G01 X66.4592 Y20.5830
G01 X66.6791 Y20.5803
G01 X66.8965 Y20.6136
G01 X67.1055 Y20.6819
G01 X67.3006 Y20.7835
G01 X67.4764 Y20.9155
G01 X67.6284 Y21.0745
G01 X67.6534 Y21.1109
G01 X67.6607 Y21.1197
G01 X67.6689 Y21.1279
G01 X67.7282 Y21.1766
G01 X67.7404 Y21.1854
G01 X67.7509 Y21.1913
G01 X67.7619 Y21.1961
G01 X67.7733 Y21.1999
G01 X67.7881 Y21.2029
G01 X67.8676 Y21.2120
G01 X67.8826 Y21.2120
G01 X67.8975 Y21.2102
G01 X67.9121 Y21.2066
G01 X67.9261 Y21.2012
G01 X67.9926 Y21.1686
G01 X68.0054 Y21.1613
G01 X68.0172 Y21.1526
G01 X68.0279 Y21.1425
G01 X68.0545 Y21.1112
G01 X68.0623 Y21.1002
G01 X68.2103 Y20.9376
G01 X68.3829 Y20.8013
G01 X68.5754 Y20.6950
G01 X68.7827 Y20.6216
G01 X68.9992 Y20.5830
G01 X69.2191 Y20.5803
G01 X69.4365 Y20.6136
G01 X69.6455 Y20.6819
G01 X69.8406 Y20.7835
G01 X70.0164 Y20.9155
G01 X70.1684 Y21.0745
G01 X70.2923 Y21.2562
G01 X70.3849 Y21.4556
G01 X70.4437 Y21.6675
G01 X70.4629 Y21.8470
G01 X70.4630 Y22.5605
G01 X70.4645 Y22.5749
G01 X70.4670 Y22.5861
G01 X70.4886 Y22.6599
G01 X70.4940 Y22.6737
G01 X70.4981 Y22.6817
G01 X70.5027 Y22.6893
G01 X70.5078 Y22.6966
G01 X70.5266 Y22.7199
G01 X70.5352 Y22.7295
G01 X73.5245 Y25.7187
G01 X73.5790 Y25.7722
G01 X73.5960 Y25.7985
G01 X73.6052 Y25.8113
G01 X73.6265 Y25.8383
G01 X73.6363 Y25.8584
G01 X73.6456 Y25.8751
G01 X73.6595 Y25.8971
G01 X73.6714 Y25.9294
G01 X73.6776 Y25.9439
G01 X73.6912 Y25.9721
G01 X73.6973 Y25.9975
G01 X73.7028 Y26.0157
G01 X73.7104 Y26.0368
G01 X73.7148 Y26.0708
G01 X73.7176 Y26.0864
G01 X73.7246 Y26.1169
G01 X73.7252 Y26.2723
G01 X73.7249 Y26.2814
G01 X73.7249 Y26.4072
G01 X73.7254 Y26.4187
G01 X73.7270 Y26.4301
G01 X73.7298 Y26.4413
G01 X73.7507 Y26.5124
G01 X73.7562 Y26.5266
G01 X73.7619 Y26.5373
G01 X73.7705 Y26.5499
G01 X73.7978 Y26.5817
G01 X73.8058 Y26.5900
G01 X73.9528 Y26.7177
G01 X74.0859 Y26.8801
G01 X74.1898 Y27.0626
G01 X74.2615 Y27.2600
G01 X74.2992 Y27.4689
G01 X74.2999 Y27.4822
G01 X74.2999 Y29.9363
G01 X74.2866 Y30.0927
G01 X74.2338 Y30.2960
G01 X74.1476 Y30.4874
G01 X74.0303 Y30.6616
G01 X73.8854 Y30.8136
G01 X73.8222 Y30.8606
G01 X73.8156 Y30.8662
G01 X73.8074 Y30.8743
G01 X73.8000 Y30.8832
G01 X73.7573 Y30.9399
G01 X73.7522 Y30.9472
G01 X73.7477 Y30.9549
G01 X73.7425 Y30.9656
G01 X73.7393 Y30.9739
G01 X73.7361 Y30.9853
G01 X73.7263 Y31.0385
G01 X73.7252 Y31.0478
G01 X73.7249 Y31.0572
G01 X73.7249 Y32.2154
G01 X73.7261 Y32.2298
G01 X73.7290 Y32.2439
G01 X73.7506 Y32.3176
G01 X73.7549 Y32.3289
G01 X73.7588 Y32.3370
G01 X73.7633 Y32.3449
G01 X73.7702 Y32.3547
G01 X73.7759 Y32.3617
G01 X73.7844 Y32.3702
G01 X73.8450 Y32.4225
G01 X73.8574 Y32.4310
G01 X73.8680 Y32.4367
G01 X73.8763 Y32.4402
G01 X73.8848 Y32.4432
G01 X73.8935 Y32.4454
G01 X73.9024 Y32.4470
G01 X73.9785 Y32.4578
G01 X73.9932 Y32.4583
G01 X74.0079 Y32.4571
G01 X74.0222 Y32.4540
G01 X74.0334 Y32.4503
G01 X74.0934 Y32.4256
G01 X74.1069 Y32.4190
G01 X74.1195 Y32.4108
G01 X74.2596 Y32.3066
G01 X74.4468 Y32.2114
G01 X74.6473 Y32.1491
G01 X74.8555 Y32.1216
G01 X75.0653 Y32.1294
G01 X75.2709 Y32.1726
G01 X75.4662 Y32.2497
G01 X75.6457 Y32.3586
G01 X75.8043 Y32.4962
G01 X75.9374 Y32.6586
G01 X75.9700 Y32.7159
G01 X75.9748 Y32.7231
G01 X75.9800 Y32.7300
G01 X75.9897 Y32.7406
G01 X76.0453 Y32.7940
G01 X76.0547 Y32.8014
G01 X76.0675 Y32.8094
G01 X76.0783 Y32.8146
G01 X76.0896 Y32.8186
G01 X76.1013 Y32.8216
G01 X76.1709 Y32.8354
G01 X76.1798 Y32.8369
G01 X76.1918 Y32.8377
G01 X76.2039 Y32.8374
G01 X76.2158 Y32.8359
G01 X76.2275 Y32.8332
G01 X76.2389 Y32.8294
G01 X76.3050 Y32.8034
G01 X76.3132 Y32.7998
G01 X76.3212 Y32.7956
G01 X76.3288 Y32.7908
G01 X76.3383 Y32.7836
G01 X76.3450 Y32.7776
G01 X76.3786 Y32.7418
G01 X76.3866 Y32.7318
G01 X76.4862 Y32.5839
G01 X76.6311 Y32.4319
G01 X76.6943 Y32.3849
G01 X76.7031 Y32.3774
G01 X76.7129 Y32.3668
G01 X76.7592 Y32.3056
G01 X76.7659 Y32.2958
G01 X76.7715 Y32.2854
G01 X76.7751 Y32.2772
G01 X76.7781 Y32.2688
G01 X76.7811 Y32.2573
G01 X76.7902 Y32.2070
G01 X76.7913 Y32.1977
G01 X76.7916 Y32.1883
G01 X76.7916 Y29.4310
G01 X76.7909 Y29.3546
G01 X76.7974 Y29.3241
G01 X76.8000 Y29.3085
G01 X76.8040 Y29.2743
G01 X76.8113 Y29.2532
G01 X76.8165 Y29.2348
G01 X76.8223 Y29.2094
G01 X76.8355 Y29.1810
G01 X76.8414 Y29.1664
G01 X76.8529 Y29.1340
G01 X76.8647 Y29.1150
G01 X76.8738 Y29.0982
G01 X76.8820 Y29.0813
G01 X76.8854 Y29.0732
G01 X76.8898 Y29.0592
G01 X76.9023 Y29.0031
G01 X76.9039 Y28.9944
G01 X76.9048 Y28.9857
G01 X76.9051 Y28.9769
G01 X76.9051 Y27.5307
G01 X76.9184 Y27.3743
G01 X76.9712 Y27.1710
G01 X77.0574 Y26.9796
G01 X77.1747 Y26.8054
G01 X77.3196 Y26.6534
G01 X77.3851 Y26.6046
G01 X77.3956 Y26.5948
G01 X77.4050 Y26.5838
G01 X77.4495 Y26.5247
G01 X77.4559 Y26.5147
G01 X77.4613 Y26.5042
G01 X77.4657 Y26.4931
G01 X77.4689 Y26.4817
G01 X77.4782 Y26.4315
G01 X77.4795 Y26.4223
G01 X77.4801 Y26.4098
G01 X77.4801 Y25.0744
G01 X77.4798 Y25.0657
G01 X77.4789 Y25.0571
G01 X77.4760 Y25.0430
G01 X77.4552 Y24.9721
G01 X77.4513 Y24.9609
G01 X77.4464 Y24.9501
G01 X77.4387 Y24.9374
G01 X77.4263 Y24.9204
G01 X77.3866 Y24.8719
G01 X77.2827 Y24.6894
G01 X77.2111 Y24.4920
G01 X77.1733 Y24.2831
G01 X77.1726 Y24.2698
G01 X77.1726 Y21.8157
G01 X77.1859 Y21.6593
G01 X77.2387 Y21.4560
G01 X77.3249 Y21.2646
G01 X77.4422 Y21.0904
G01 X77.5871 Y20.9384
G01 X77.7556 Y20.8131
G01 X77.9428 Y20.7179
G01 X78.1433 Y20.6556
G01 X78.3515 Y20.6281
G01 X78.5613 Y20.6359
G01 X78.7669 Y20.6791
G01 X78.9622 Y20.7562
G01 X79.1417 Y20.8651
G01 X79.3003 Y21.0027
G01 X79.4334 Y21.1651
G01 X79.5373 Y21.3476
G01 X79.6090 Y21.5450
G01 X79.6467 Y21.7539
G01 X79.6474 Y21.7672
G01 X79.6474 Y24.2213
G01 X79.6341 Y24.3777
G01 X79.5813 Y24.5810
G01 X79.5657 Y24.6156
G01 X79.4951 Y24.7724
G01 X79.3778 Y24.9466
G01 X79.2329 Y25.0986
G01 X79.0644 Y25.2239
G01 X78.9400 Y25.2872
G01 X78.9300 Y25.2929
G01 X78.9228 Y25.2978
G01 X78.9118 Y25.3070
G01 X78.8601 Y25.3557
G01 X78.8538 Y25.3622
G01 X78.8479 Y25.3691
G01 X78.8409 Y25.3790
G01 X78.8349 Y25.3896
G01 X78.8312 Y25.3978
G01 X78.8263 Y25.4122
G01 X78.8083 Y25.4786
G01 X78.8061 Y25.4901
G01 X78.8049 Y25.5046
G01 X78.8049 Y26.4072
G01 X78.8057 Y26.4216
G01 X78.8083 Y26.4358
G01 X78.8298 Y26.5094
G01 X78.8338 Y26.5210
G01 X78.8375 Y26.5293
G01 X78.8419 Y26.5373
G01 X78.8469 Y26.5450
G01 X78.8524 Y26.5523
G01 X78.8778 Y26.5817
G01 X78.8879 Y26.5919
G01 X79.0328 Y26.7177
G01 X79.1659 Y26.8801
G01 X79.2698 Y27.0626
G01 X79.3415 Y27.2600
G01 X79.3792 Y27.4689
G01 X79.3799 Y27.4822
G01 X79.3799 Y29.9363
G01 X79.3666 Y30.0927
G01 X79.3138 Y30.2960
G01 X79.2276 Y30.4874
G01 X79.1103 Y30.6616
G01 X78.9654 Y30.8136
G01 X78.7969 Y30.9389
G01 X78.6097 Y31.0341
G01 X78.4092 Y31.0964
G01 X78.3282 Y31.1071
G01 X78.3197 Y31.1088
G01 X78.3113 Y31.1110
G01 X78.2978 Y31.1161
G01 X78.2329 Y31.1448
G01 X78.2248 Y31.1488
G01 X78.2145 Y31.1550
G01 X78.2049 Y31.1622
G01 X78.1960 Y31.1703
G01 X78.1880 Y31.1793
G01 X78.1809 Y31.1890
G01 X78.1387 Y31.2532
G01 X78.1345 Y31.2609
G01 X78.1309 Y31.2689
G01 X78.1279 Y31.2771
G01 X78.1248 Y31.2884
G01 X78.1232 Y31.2970
G01 X78.1177 Y31.3338
G01 X78.1164 Y31.3487
G01 X78.1164 Y32.1857
G01 X78.1169 Y32.1972
G01 X78.1185 Y32.2086
G01 X78.1213 Y32.2198
G01 X78.1413 Y32.2879
G01 X78.1442 Y32.2966
G01 X78.1477 Y32.3051
G01 X78.1534 Y32.3158
G01 X78.1602 Y32.3260
G01 X78.1659 Y32.3331
G01 X78.1912 Y32.3623
G01 X78.1994 Y32.3704
G01 X78.3443 Y32.4962
G01 X78.4774 Y32.6586
G01 X78.5116 Y32.7183
G01 X78.5182 Y32.7278
G01 X78.5277 Y32.7386
G01 X78.5830 Y32.7920
G01 X78.5947 Y32.8014
G01 X78.6048 Y32.8079
G01 X78.6156 Y32.8134
G01 X78.6268 Y32.8177
G01 X78.6413 Y32.8216
G01 X78.7109 Y32.8354
G01 X78.7198 Y32.8369
G01 X78.7349 Y32.8378
G01 X78.7439 Y32.8374
G01 X78.7528 Y32.8364
G01 X78.7646 Y32.8340
G01 X78.7761 Y32.8304
G01 X78.8450 Y32.8034
G01 X78.8585 Y32.7971
G01 X78.8663 Y32.7925
G01 X78.8736 Y32.7873
G01 X78.8806 Y32.7817
G01 X78.8871 Y32.7755
G01 X78.9164 Y32.7442
G01 X78.9247 Y32.7344
G01 X79.0262 Y32.5839
G01 X79.1711 Y32.4319
G01 X79.3396 Y32.3066
G01 X79.5268 Y32.2114
G01 X79.7273 Y32.1491
G01 X79.9355 Y32.1216
G01 X80.1453 Y32.1294
G01 X80.3509 Y32.1726
G01 X80.5462 Y32.2497
G01 X80.7257 Y32.3586
G01 X80.8843 Y32.4962
G01 X81.0174 Y32.6586
G01 X81.0503 Y32.7164
G01 X81.0550 Y32.7236
G01 X81.0603 Y32.7305
G01 X81.0700 Y32.7411
G01 X81.1211 Y32.7904
G01 X81.1302 Y32.7983
G01 X81.1400 Y32.8053
G01 X81.1504 Y32.8113
G01 X81.1614 Y32.8162
G01 X81.1728 Y32.8200
G01 X81.1816 Y32.8221
G01 X81.2542 Y32.8365
G01 X81.2661 Y32.8379
G01 X81.2751 Y32.8382
G01 X81.2841 Y32.8379
G01 X81.2961 Y32.8364
G01 X81.3078 Y32.8337
G01 X81.3192 Y32.8298
G01 X81.3853 Y32.8039
G01 X81.3935 Y32.8003
G01 X81.4014 Y32.7961
G01 X81.4090 Y32.7913
G01 X81.4209 Y32.7822
G01 X81.4295 Y32.7738
G01 X81.4567 Y32.7447
G01 X81.4649 Y32.7348
G01 X81.5667 Y32.5840
G01 X81.7113 Y32.4324
G01 X81.8797 Y32.3071
G01 X82.0668 Y32.2120
G01 X82.1589 Y32.1834
G01 X82.1589 Y32.4663
G01 X82.0762 Y32.5055
G01 X81.9995 Y32.5513
G01 X81.9896 Y32.5579
G01 X81.9179 Y32.6113
G01 X81.8516 Y32.6712
G01 X81.8432 Y32.6796
G01 X81.7833 Y32.7459
G01 X81.7265 Y32.8225
G01 X81.6805 Y32.8990
G01 X81.6748 Y32.9095
G01 X81.6368 Y32.9904
G01 X81.6047 Y33.0801
G01 X81.5815 Y33.1725
G01 X81.5683 Y33.2609
G01 X81.5671 Y33.2727
G01 X81.5629 Y33.3620
G01 X81.5629 Y35.6620
G01 X81.5675 Y35.7572
G01 X81.5810 Y35.8485
G01 X81.5828 Y35.8573
G01 X81.6047 Y35.9439
G01 X81.6346 Y36.0281
G01 X81.6392 Y36.0391
G01 X81.6775 Y36.1198
G01 X81.7233 Y36.1965
G01 X81.7299 Y36.2064
G01 X81.7833 Y36.2781
G01 X81.8473 Y36.3487
G01 X81.9134 Y36.4088
G01 X81.9226 Y36.4164
G01 X81.9945 Y36.4695
G01 X82.0710 Y36.5155
G01 X82.0815 Y36.5212
G01 X82.1589 Y36.5577
G01 X82.1589 Y36.8437
G01 X81.9819 Y36.7738
G01 X81.8025 Y36.6649
G01 X81.6440 Y36.5273
G01 X81.5111 Y36.3652
G01 X81.4783 Y36.3077
G01 X81.4719 Y36.2981
G01 X81.4665 Y36.2913
G01 X81.4586 Y36.2829
G01 X81.4053 Y36.2316
G01 X81.3936 Y36.2221
G01 X81.3835 Y36.2156
G01 X81.3755 Y36.2114
G01 X81.3672 Y36.2079
G01 X81.3587 Y36.2049
G01 X81.3500 Y36.2026
G01 X81.2714 Y36.1871
G01 X81.2565 Y36.1858
G01 X81.2444 Y36.1861
G01 X81.2355 Y36.1872
G01 X81.2266 Y36.1888
G01 X81.2179 Y36.1912
G01 X81.2094 Y36.1942
G01 X81.1378 Y36.2225
G01 X81.1246 Y36.2295
G01 X81.1123 Y36.2380
G01 X81.1055 Y36.2439
G01 X81.0991 Y36.2502
G01 X81.0719 Y36.2793
G01 X81.0636 Y36.2892
G01 X80.9618 Y36.4401
G01 X80.8169 Y36.5921
G01 X80.7537 Y36.6391
G01 X80.7449 Y36.6466
G01 X80.7389 Y36.6528
G01 X80.7315 Y36.6617
G01 X80.6853 Y36.7232
G01 X80.6806 Y36.7308
G01 X80.6765 Y36.7386
G01 X80.6729 Y36.7468
G01 X80.6699 Y36.7552
G01 X80.6669 Y36.7667
G01 X80.6583 Y36.8140
G01 X80.6570 Y36.8232
G01 X80.6564 Y36.8325
G01 X80.6564 Y37.6045
G01 X80.6571 Y37.6809
G01 X80.6506 Y37.7114
G01 X80.6480 Y37.7270
G01 X80.6440 Y37.7612
G01 X80.6356 Y37.7859
G01 X80.6305 Y37.8043
G01 X80.6257 Y37.8261
G01 X80.6125 Y37.8545
G01 X80.6066 Y37.8691
G01 X80.5951 Y37.9015
G01 X80.5833 Y37.9205
G01 X80.5742 Y37.9372
G01 X80.5629 Y37.9608
G01 X80.5438 Y37.9855
G01 X80.5347 Y37.9985
G01 X80.5164 Y38.0275
G01 X80.4068 Y38.1378
G01 X80.4002 Y38.1440
G01 X79.6333 Y38.9110
G01 X79.5798 Y38.9655
G01 X79.5535 Y38.9825
G01 X79.5407 Y38.9917
G01 X79.5137 Y39.0130
G01 X79.4936 Y39.0228
G01 X79.4769 Y39.0321
G01 X79.4549 Y39.0460
G01 X79.4226 Y39.0579
G01 X79.4081 Y39.0641
G01 X79.3799 Y39.0777
G01 X79.3545 Y39.0838
G01 X79.3363 Y39.0893
G01 X79.3152 Y39.0969
G01 X79.2842 Y39.1008
G01 X79.2686 Y39.1036
G01 X79.2351 Y39.1111
G01 X79.0797 Y39.1117
G01 X79.0706 Y39.1114
G01 X72.3095 Y39.1114
G01 X72.2331 Y39.1121
G01 X72.2026 Y39.1056
G01 X72.1870 Y39.1030
G01 X72.1528 Y39.0990
G01 X72.1317 Y39.0917
G01 X72.1133 Y39.0865
G01 X72.0879 Y39.0807
G01 X72.0595 Y39.0675
G01 X72.0449 Y39.0616
G01 X72.0125 Y39.0501
G01 X71.9903 Y39.0365
G01 X71.9735 Y39.0274
G01 X71.9532 Y39.0179
G01 X71.9285 Y38.9988
G01 X71.9155 Y38.9897
G01 X71.8865 Y38.9714
G01 X71.8164 Y38.9018
G01 X71.8076 Y38.8943
G01 X71.7982 Y38.8876
G01 X71.7907 Y38.8832
G01 X71.7283 Y38.8494
G01 X71.7175 Y38.8442
G01 X71.7062 Y38.8401
G01 X71.6945 Y38.8372
G01 X71.6826 Y38.8354
G01 X71.6706 Y38.8348
G01 X71.6616 Y38.8351
G01 X71.5847 Y38.8411
G01 X71.5699 Y38.8439
G01 X71.5611 Y38.8465
G01 X71.5526 Y38.8497
G01 X71.5417 Y38.8549
G01 X71.5110 Y38.8718
G01 X71.5013 Y38.8776
G01 X71.4174 Y38.9399
G01 X71.2302 Y39.0351
G01 X71.0297 Y39.0974
G01 X70.8215 Y39.1249
G01 X70.6117 Y39.1171
G01 X70.4061 Y39.0739
G01 X70.2108 Y38.9968
G01 X70.0313 Y38.8879
G01 X69.8727 Y38.7503
G01 X69.7396 Y38.5879
G01 X69.6357 Y38.4054
G01 X69.5641 Y38.2080
G01 X69.5263 Y37.9991
G01 X69.5256 Y37.9858
G01 X69.5256 Y35.5317
G01 X69.5389 Y35.3753
G01 X69.5917 Y35.1720
G01 X69.6779 Y34.9806
G01 X69.7952 Y34.8064
G01 X69.9401 Y34.6544
G01 X70.1086 Y34.5291
G01 X70.2958 Y34.4339
G01 X70.4963 Y34.3716
G01 X70.7045 Y34.3441
G01 X70.9143 Y34.3519
G01 X71.1199 Y34.3951
G01 X71.3152 Y34.4722
G01 X71.4947 Y34.5811
G01 X71.6533 Y34.7187
G01 X71.7864 Y34.8811
G01 X71.8903 Y35.0636
G01 X71.9619 Y35.2610
G01 X71.9997 Y35.4699
G01 X72.0004 Y35.4832
G01 X72.0004 Y37.1098
G01 X72.0007 Y37.1184
G01 X72.0016 Y37.1270
G01 X72.0031 Y37.1355
G01 X72.0053 Y37.1439
G01 X72.0261 Y37.2149
G01 X72.0315 Y37.2287
G01 X72.0370 Y37.2392
G01 X72.0436 Y37.2492
G01 X72.0641 Y37.2749
G01 X72.0705 Y37.2822
G01 X72.5066 Y37.7182
G01 X72.5179 Y37.7273
G01 X72.5301 Y37.7349
G01 X72.5950 Y37.7703
G01 X72.6031 Y37.7741
G01 X72.6142 Y37.7782
G01 X72.6228 Y37.7806
G01 X72.6345 Y37.7827
G01 X72.6675 Y37.7863
G01 X72.6772 Y37.7866
G01 X78.7818 Y37.7866
G01 X78.7904 Y37.7863
G01 X78.8019 Y37.7850
G01 X78.8131 Y37.7825
G01 X78.8897 Y37.7599
G01 X78.8980 Y37.7567
G01 X78.9087 Y37.7514
G01 X78.9188 Y37.7452
G01 X78.9259 Y37.7398
G01 X78.9494 Y37.7209
G01 X78.9565 Y37.7143
G01 X79.2593 Y37.4115
G01 X79.2688 Y37.4008
G01 X79.2770 Y37.3889
G01 X79.3140 Y37.3216
G01 X79.3191 Y37.3109
G01 X79.3232 Y37.2998
G01 X79.3268 Y37.2853
G01 X79.3281 Y37.2765
G01 X79.3315 Y37.2433
G01 X79.3316 Y36.8383
G01 X79.3313 Y36.8297
G01 X79.3300 Y36.8182
G01 X79.3275 Y36.8070
G01 X79.3067 Y36.7361
G01 X79.3015 Y36.7217
G01 X79.2961 Y36.7108
G01 X79.2913 Y36.7030
G01 X79.2841 Y36.6932
G01 X79.2587 Y36.6638
G01 X79.2507 Y36.6555
G01 X79.1037 Y36.5278
G01 X78.9706 Y36.3654
G01 X78.9380 Y36.3081
G01 X78.9332 Y36.3009
G01 X78.9280 Y36.2940
G01 X78.9183 Y36.2834
G01 X78.8650 Y36.2320
G01 X78.8557 Y36.2243
G01 X78.8458 Y36.2176
G01 X78.8324 Y36.2106
G01 X78.8212 Y36.2063
G01 X78.8067 Y36.2024
G01 X78.7341 Y36.1880
G01 X78.7222 Y36.1866
G01 X78.7071 Y36.1864
G01 X78.6922 Y36.1881
G01 X78.6776 Y36.1917
G01 X78.6691 Y36.1946
G01 X78.5975 Y36.2230
G01 X78.5843 Y36.2299
G01 X78.5768 Y36.2349
G01 X78.5697 Y36.2404
G01 X78.5588 Y36.2507
G01 X78.5316 Y36.2798
G01 X78.5233 Y36.2896
G01 X78.4218 Y36.4401
G01 X78.2769 Y36.5921
G01 X78.1084 Y36.7174
G01 X77.9212 Y36.8126
G01 X77.7207 Y36.8749
G01 X77.5125 Y36.9024
G01 X77.3027 Y36.8946
G01 X77.0971 Y36.8514
G01 X76.9018 Y36.7743
G01 X76.7223 Y36.6654
G01 X76.5637 Y36.5278
G01 X76.4306 Y36.3654
G01 X76.3980 Y36.3081
G01 X76.3932 Y36.3009
G01 X76.3880 Y36.2940
G01 X76.3783 Y36.2834
G01 X76.3272 Y36.2341
G01 X76.3205 Y36.2281
G01 X76.3108 Y36.2208
G01 X76.3005 Y36.2146
G01 X76.2897 Y36.2094
G01 X76.2784 Y36.2054
G01 X76.2667 Y36.2024
G01 X76.1911 Y36.1875
G01 X76.1762 Y36.1863
G01 X76.1611 Y36.1869
G01 X76.1463 Y36.1893
G01 X76.1347 Y36.1926
G01 X76.0575 Y36.2230
G01 X76.0495 Y36.2269
G01 X76.0417 Y36.2315
G01 X76.0297 Y36.2404
G01 X76.0188 Y36.2507
G01 X75.9916 Y36.2798
G01 X75.9833 Y36.2896
G01 X75.8818 Y36.4401
G01 X75.7369 Y36.5921
G01 X75.5684 Y36.7174
G01 X75.3812 Y36.8126
G01 X75.1807 Y36.8749
G01 X74.9725 Y36.9024
G01 X74.7627 Y36.8946
G01 X74.5571 Y36.8514
G01 X74.3618 Y36.7743
G01 X74.1823 Y36.6654
G01 X74.0237 Y36.5278
G01 X73.8906 Y36.3654
G01 X73.7867 Y36.1829
G01 X73.7151 Y35.9855
G01 X73.6773 Y35.7766
G01 X73.6766 Y35.7633
G01 X73.6766 Y34.3108
G01 X73.6754 Y34.2965
G01 X73.6732 Y34.2852
G01 X73.6509 Y34.2086
G01 X73.6478 Y34.2002
G01 X73.6442 Y34.1921
G01 X73.6368 Y34.1792
G01 X73.6317 Y34.1719
G01 X73.6129 Y34.1486
G01 X73.6043 Y34.1390
G01 X72.6005 Y33.1353
G01 X72.5460 Y33.0818
G01 X72.5290 Y33.0555
G01 X72.5198 Y33.0427
G01 X72.4985 Y33.0157
G01 X72.4887 Y32.9956
G01 X72.4794 Y32.9789
G01 X72.4655 Y32.9569
G01 X72.4536 Y32.9246
G01 X72.4474 Y32.9101
G01 X72.4338 Y32.8819
G01 X72.4277 Y32.8565
G01 X72.4222 Y32.8383
G01 X72.4146 Y32.8172
G01 X72.4107 Y32.7862
G01 X72.4079 Y32.7706
G01 X72.4004 Y32.7371
G01 X72.3998 Y32.5817
G01 X72.4001 Y32.5726
G01 X72.4001 Y31.0598
G01 X72.3993 Y31.0454
G01 X72.3974 Y31.0341
G01 X72.3952 Y31.0257
G01 X72.3734 Y30.9517
G01 X72.3700 Y30.9432
G01 X72.3661 Y30.9350
G01 X72.3615 Y30.9271
G01 X72.3563 Y30.9195
G01 X72.3506 Y30.9124
G01 X72.3272 Y30.8853
G01 X72.3171 Y30.8751
G01 X72.1722 Y30.7493
G01 X72.0391 Y30.5869
G01 X71.9352 Y30.4044
G01 X71.8636 Y30.2070
G01 X71.8258 Y29.9981
G01 X71.8251 Y29.9848
G01 X71.8251 Y27.5307
G01 X71.8384 Y27.3743
G01 X71.8912 Y27.1710
G01 X71.9774 Y26.9796
G01 X72.0947 Y26.8054
G01 X72.2420 Y26.6510
G01 X72.2513 Y26.6400
G01 X72.2562 Y26.6329
G01 X72.2606 Y26.6254
G01 X72.2972 Y26.5544
G01 X72.3025 Y26.5403
G01 X72.3055 Y26.5287
G01 X72.3074 Y26.5168
G01 X72.3080 Y26.5048
G01 X72.3075 Y26.4928
G01 X72.3004 Y26.4191
G01 X72.2984 Y26.4075
G01 X72.2962 Y26.3989
G01 X72.2934 Y26.3905
G01 X72.2899 Y26.3823
G01 X72.2829 Y26.3694
G01 X72.2517 Y26.3220
G01 X72.2461 Y26.3147
G01 X72.2379 Y26.3056
G01 X70.6333 Y24.7010
G01 X70.6225 Y24.6914
G01 X70.6107 Y24.6832
G01 X70.5434 Y24.6463
G01 X70.5325 Y24.6410
G01 X70.5212 Y24.6369
G01 X70.5125 Y24.6346
G01 X70.5007 Y24.6324
G01 X70.4887 Y24.6315
G01 X70.4766 Y24.6318
G01 X70.4028 Y24.6371
G01 X70.3880 Y24.6395
G01 X70.3793 Y24.6418
G01 X70.3707 Y24.6447
G01 X70.3571 Y24.6510
G01 X70.3493 Y24.6556
G01 X70.3419 Y24.6607
G01 X70.2827 Y24.7051
G01 X70.2759 Y24.7108
G01 X70.2675 Y24.7193
G01 X70.2600 Y24.7286
G01 X70.2510 Y24.7415
G01 X70.1887 Y24.8378
G01 X70.0407 Y25.0004
G01 X69.8681 Y25.1367
G01 X69.6756 Y25.2430
G01 X69.4683 Y25.3164
G01 X69.2518 Y25.3550
G01 X69.0319 Y25.3577
G01 X68.8145 Y25.3244
G01 X68.6055 Y25.2561
G01 X68.4104 Y25.1545
G01 X68.2346 Y25.0225
G01 X68.0826 Y24.8635
G01 X68.0593 Y24.8294
G01 X68.0540 Y24.8226
G01 X68.0463 Y24.8141
G01 X68.0377 Y24.8064
G01 X67.9804 Y24.7595
G01 X67.9731 Y24.7542
G01 X67.9628 Y24.7481
G01 X67.9519 Y24.7430
G01 X67.9434 Y24.7399
G01 X67.9347 Y24.7374
G01 X67.9229 Y24.7351
G01 X67.8464 Y24.7263
G01 X67.8344 Y24.7258
G01 X67.8194 Y24.7268
G01 X67.8105 Y24.7284
G01 X67.8018 Y24.7305
G01 X67.7932 Y24.7334
G01 X67.7849 Y24.7368
G01 X67.7158 Y24.7707
G01 X67.7081 Y24.7751
G01 X67.6984 Y24.7817
G01 X67.6894 Y24.7893
G01 X67.6811 Y24.7977
G01 X67.6565 Y24.8268
G01 X67.6487 Y24.8378
G01 X67.5007 Y25.0004
G01 X67.3418 Y25.1259
G01 X67.3352 Y25.1315
G01 X67.3291 Y25.1376
G01 X67.3233 Y25.1440
G01 X67.3181 Y25.1509
G01 X67.2736 Y25.2139
G01 X67.2690 Y25.2217
G01 X67.2650 Y25.2299
G01 X67.2598 Y25.2442
G01 X67.2569 Y25.2559
G01 X67.2495 Y25.2999
G01 X67.2484 Y25.3084
G01 X67.2479 Y25.3199
G01 X67.2479 Y26.3750
G01 X67.2486 Y26.4514
G01 X67.2421 Y26.4820
G01 X67.2395 Y26.4976
G01 X67.2355 Y26.5317
G01 X67.2282 Y26.5528
G01 X67.2230 Y26.5712
G01 X67.2172 Y26.5966
G01 X67.2040 Y26.6250
G01 X67.1981 Y26.6396
G01 X67.1866 Y26.6720
G01 X67.1748 Y26.6910
G01 X67.1657 Y26.7077
G01 X67.1544 Y26.7313
G01 X67.1353 Y26.7560
G01 X67.1262 Y26.7690
G01 X67.1079 Y26.7980
G01 X66.9983 Y26.9083
G01 X66.9917 Y26.9145
G01 X65.1553 Y28.7510
G01 X65.1018 Y28.8055
G01 X65.0755 Y28.8225
G01 X65.0627 Y28.8317
G01 X65.0357 Y28.8530
G01 X65.0156 Y28.8628
G01 X64.9989 Y28.8721
G01 X64.9769 Y28.8860
G01 X64.9446 Y28.8979
G01 X64.9301 Y28.9041
G01 X64.9019 Y28.9177
G01 X64.8765 Y28.9238
G01 X64.8583 Y28.9293
G01 X64.8372 Y28.9369
G01 X64.8062 Y28.9408
G01 X64.7906 Y28.9436
G01 X64.7571 Y28.9511
G01 X64.6017 Y28.9517
G01 X64.5926 Y28.9514
G01 X59.4825 Y28.9514
G01 X59.4061 Y28.9521
G01 X59.3756 Y28.9456
G01 X59.3600 Y28.9430
G01 X59.3258 Y28.9390
G01 X59.3047 Y28.9317
G01 X59.2863 Y28.9265
G01 X59.2609 Y28.9207
G01 X59.2325 Y28.9075
G01 X59.2179 Y28.9016
G01 X59.1855 Y28.8901
G01 X59.1633 Y28.8765
G01 X59.1465 Y28.8674
G01 X59.1262 Y28.8579
G01 X59.1015 Y28.8388
G01 X59.0885 Y28.8297
G01 X59.0595 Y28.8114
G01 X58.9492 Y28.7018
G01 X58.9430 Y28.6952
G01 X55.9635 Y25.7158
G01 X55.9090 Y25.6623
G01 X55.8920 Y25.6360
G01 X55.8828 Y25.6232
G01 X55.8615 Y25.5962
G01 X55.8517 Y25.5761
G01 X55.8424 Y25.5594
G01 X55.8285 Y25.5374
G01 X55.8166 Y25.5051
G01 X55.8104 Y25.4906
G01 X55.7968 Y25.4624
G01 X55.7907 Y25.4370
G01 X55.7852 Y25.4188
G01 X55.7776 Y25.3977
G01 X55.7737 Y25.3667
G01 X55.7709 Y25.3511
G01 X55.7634 Y25.3176
G01 X55.7628 Y25.1622
G01 X55.7631 Y25.1531
G01 X55.7631 Y9.1077
G01 X55.7626 Y9.0962
G01 X55.7610 Y9.0848
G01 X55.7582 Y9.0736
G01 X55.7382 Y9.0055
G01 X55.7354 Y8.9970
G01 X55.7320 Y8.9888
G01 X55.7265 Y8.9782
G01 X55.7199 Y8.9683
G01 X55.6994 Y8.9426
G01 X55.6908 Y8.9330
G01 X52.1595 Y5.4017
G01 X52.1488 Y5.3922
G01 X52.1369 Y5.3840
G01 X52.0643 Y5.3443
G01 X52.0506 Y5.3387
G01 X52.0420 Y5.3361
G01 X52.0333 Y5.3342
G01 X51.9977 Y5.3300
G01 X51.9848 Y5.3294
G01 X16.3527 Y5.3294
G01 X16.3383 Y5.3302
G01 X16.3242 Y5.3328
G01 X16.2476 Y5.3551
G01 X16.2338 Y5.3605
G01 X16.2232 Y5.3660
G01 X16.2133 Y5.3726
G01 X16.1876 Y5.3931
G01 X16.1803 Y5.3995
G01 X14.9277 Y6.6520
G01 X14.9200 Y6.6605
G01 X14.9131 Y6.6697
G01 X14.9085 Y6.6771
G01 X14.8703 Y6.7472
G01 X14.8667 Y6.7553
G01 X14.8638 Y6.7637
G01 X14.8608 Y6.7752
G01 X14.8593 Y6.7840
G01 X14.8557 Y6.8170
G01 X14.8554 Y6.8267
G01 X14.8554 Y7.1519
G01 X14.8562 Y7.1663
G01 X14.8588 Y7.1804
G01 X14.8811 Y7.2569
G01 X14.8853 Y7.2680
G01 X14.8905 Y7.2786
G01 X14.8967 Y7.2887
G01 X14.9039 Y7.2981
G01 X14.9381 Y7.3351
G01 X14.9493 Y7.3457
G01 X15.0839 Y7.4470
G01 X15.2359 Y7.6060
G01 X15.2612 Y7.6428
G01 X15.2666 Y7.6495
G01 X15.2746 Y7.6579
G01 X15.2811 Y7.6636
G01 X15.3408 Y7.7123
G01 X15.3534 Y7.7204
G01 X15.3669 Y7.7270
G01 X15.3811 Y7.7318
G01 X15.3959 Y7.7348
G01 X15.4694 Y7.7434
G01 X15.4814 Y7.7442
G01 X15.4934 Y7.7438
G01 X15.5053 Y7.7422
G01 X15.5170 Y7.7394
G01 X15.5284 Y7.7355
G01 X15.5367 Y7.7318
G01 X15.6030 Y7.6992
G01 X15.6132 Y7.6933
G01 X15.6227 Y7.6864
G01 X15.6316 Y7.6786
G01 X15.6377 Y7.6722
G01 X15.6623 Y7.6431
G01 X15.6703 Y7.6319
G01 X15.8180 Y7.4696
G01 X15.9908 Y7.3331
G01 X16.1829 Y7.2270
G01 X16.3579 Y7.1651
G01 X16.3579 Y7.4483
G01 X16.3286 Y7.4587
G01 X16.3204 Y7.4621
G01 X16.2334 Y7.5032
G01 X16.2255 Y7.5073
G01 X16.1379 Y7.5599
G01 X16.0558 Y7.6206
G01 X16.0490 Y7.6264
G01 X15.9799 Y7.6890
G01 X15.9715 Y7.6974
G01 X15.9050 Y7.7710
G01 X15.8441 Y7.8529
G01 X15.8392 Y7.8604
G01 X15.7913 Y7.9404
G01 X15.7857 Y7.9509
G01 X15.7434 Y8.0406
G01 X15.7080 Y8.1396
G01 X15.6824 Y8.2415
G01 X15.6677 Y8.3396
G01 X15.6666 Y8.3514
G01 X15.6619 Y8.4505
G01 X15.6619 Y10.5505
G01 X15.6670 Y10.6555
G01 X15.6824 Y10.7595
G01 X15.7064 Y10.8557
G01 X15.7098 Y10.8671
G01 X15.7434 Y10.9604
G01 X15.7857 Y11.0501
G01 X15.7913 Y11.0606
G01 X15.8424 Y11.1456
G01 X15.9013 Y11.2253
G01 X15.9069 Y11.2323
G01 X15.9715 Y11.3036
G01 X15.9799 Y11.3120
G01 X16.0535 Y11.3785
G01 X16.1354 Y11.4394
G01 X16.1429 Y11.4443
G01 X16.2229 Y11.4922
G01 X16.2307 Y11.4965
G01 X16.3204 Y11.5389
G01 X16.3286 Y11.5423
G01 X16.3579 Y11.5527
G01 X16.3579 Y11.8344
G01 X16.2130 Y11.7870
G01 X16.0180 Y11.6855
G01 X15.8423 Y11.5535
G01 X15.6906 Y11.3948
G01 X15.6671 Y11.3605
G01 X15.6618 Y11.3537
G01 X15.6561 Y11.3472
G01 X15.6455 Y11.3374
G01 X15.5882 Y11.2905
G01 X15.5784 Y11.2836
G01 X15.5679 Y11.2777
G01 X15.5541 Y11.2719
G01 X15.5425 Y11.2684
G01 X15.5277 Y11.2658
G01 X15.4542 Y11.2573
G01 X15.4392 Y11.2569
G01 X15.4272 Y11.2579
G01 X15.4154 Y11.2601
G01 X15.4010 Y11.2644
G01 X15.3899 Y11.2692
G01 X15.3236 Y11.3018
G01 X15.3134 Y11.3077
G01 X15.3039 Y11.3146
G01 X15.2972 Y11.3204
G01 X15.2889 Y11.3288
G01 X15.2643 Y11.3579
G01 X15.2562 Y11.3693
G01 X15.1082 Y11.5319
G01 X14.9356 Y11.6682
G01 X14.7431 Y11.7745
G01 X14.5358 Y11.8479
G01 X14.3193 Y11.8865
G01 X14.0994 Y11.8892
G01 X13.8820 Y11.8559
G01 X13.6730 Y11.7876
G01 X13.4779 Y11.6860
G01 X13.3446 Y11.5859
G01 X13.3325 Y11.5780
G01 X13.3249 Y11.5739
G01 X13.3170 Y11.5704
G01 X13.2450 Y11.5434
G01 X13.2305 Y11.5394
G01 X13.2157 Y11.5372
G01 X13.2006 Y11.5368
G01 X13.1857 Y11.5384
G01 X13.1044 Y11.5559
G01 X13.0957 Y11.5586
G01 X13.0871 Y11.5620
G01 X13.0789 Y11.5660
G01 X13.0710 Y11.5706
G01 X13.0634 Y11.5758
G01 X13.0322 Y11.5992
G01 X13.0214 Y11.6088
G01 X10.6165 Y14.0137
G01 X10.6069 Y14.0245
G01 X10.5987 Y14.0363
G01 X10.5618 Y14.1037
G01 X10.5554 Y14.1172
G01 X10.5516 Y14.1285
G01 X10.5489 Y14.1401
G01 X10.5474 Y14.1519
G01 X10.5470 Y14.1639
G01 X10.5519 Y14.2396
G01 X10.5534 Y14.2519
G01 X10.5553 Y14.2610
G01 X10.5579 Y14.2699
G01 X10.5709 Y14.3060
G01 X10.6087 Y14.5149
G01 X10.6094 Y14.5282
G01 X10.6094 Y15.5333
G01 X10.6102 Y15.5477
G01 X10.6128 Y15.5618
G01 X10.6351 Y15.6384
G01 X10.6405 Y15.6522
G01 X10.6460 Y15.6627
G01 X10.6526 Y15.6727
G01 X10.6751 Y15.7009
G01 X10.6817 Y15.7080
G01 X11.0542 Y16.0805
G01 X11.0628 Y16.0883
G01 X11.0696 Y16.0936
G01 X11.0793 Y16.0998
G01 X11.1468 Y16.1366
G01 X11.1550 Y16.1405
G01 X11.1634 Y16.1437
G01 X11.1721 Y16.1462
G01 X11.1809 Y16.1482
G01 X11.1958 Y16.1499
G01 X11.2079 Y16.1499
G01 X11.2847 Y16.1444
G01 X11.2936 Y16.1432
G01 X11.3025 Y16.1414
G01 X11.3111 Y16.1388
G01 X11.3196 Y16.1357
G01 X11.3331 Y16.1291
G01 X11.3432 Y16.1226
G01 X11.4025 Y16.0783
G01 X11.4094 Y16.0727
G01 X11.4200 Y16.0622
G01 X11.4276 Y16.0529
G01 X11.4356 Y16.0404
G01 X11.4409 Y16.0297
G01 X11.4679 Y15.9590
G01 X11.4724 Y15.9443
G01 X11.4750 Y15.9291
G01 X11.4821 Y15.8438
G01 X11.5357 Y15.6305
G01 X11.6233 Y15.4289
G01 X11.7428 Y15.2442
G01 X11.8908 Y15.0816
G01 X12.0634 Y14.9453
G01 X12.2559 Y14.8390
G01 X12.4632 Y14.7656
G01 X12.6797 Y14.7270
G01 X12.8996 Y14.7243
G01 X13.1170 Y14.7576
G01 X13.3260 Y14.8259
G01 X13.5211 Y14.9275
G01 X13.6969 Y15.0595
G01 X13.8489 Y15.2185
G01 X13.8722 Y15.2526
G01 X13.8775 Y15.2594
G01 X13.8832 Y15.2658
G01 X13.8938 Y15.2756
G01 X13.9487 Y15.3206
G01 X13.9559 Y15.3261
G01 X13.9661 Y15.3325
G01 X13.9768 Y15.3379
G01 X13.9881 Y15.3421
G01 X13.9997 Y15.3453
G01 X14.0116 Y15.3473
G01 X14.0821 Y15.3554
G01 X14.0941 Y15.3562
G01 X14.1061 Y15.3558
G01 X14.1180 Y15.3542
G01 X14.1297 Y15.3515
G01 X14.1411 Y15.3475
G01 X14.1494 Y15.3439
G01 X14.2157 Y15.3113
G01 X14.2259 Y15.3053
G01 X14.2354 Y15.2985
G01 X14.2443 Y15.2907
G01 X14.2504 Y15.2843
G01 X14.2750 Y15.2552
G01 X14.2828 Y15.2442
G01 X14.4308 Y15.0816
G01 X14.6034 Y14.9453
G01 X14.7959 Y14.8390
G01 X15.0032 Y14.7656
G01 X15.2197 Y14.7270
G01 X15.4396 Y14.7243
G01 X15.6570 Y14.7576
G01 X15.8660 Y14.8259
G01 X16.0611 Y14.9275
G01 X16.1975 Y15.0299
G01 X16.2046 Y15.0348
G01 X16.2146 Y15.0406
G01 X16.2277 Y15.0464
G01 X16.2942 Y15.0714
G01 X16.3028 Y15.0742
G01 X16.3145 Y15.0770
G01 X16.3234 Y15.0783
G01 X16.3354 Y15.0790
G01 X16.3444 Y15.0788
G01 X16.3594 Y15.0769
G01 X16.4317 Y15.0613
G01 X16.4433 Y15.0582
G01 X16.4518 Y15.0551
G01 X16.4600 Y15.0514
G01 X16.4679 Y15.0471
G01 X16.4779 Y15.0412
G01 X16.4960 Y15.0295
G01 X16.5113 Y15.0185
G01 X16.5358 Y14.9990
G01 X16.5559 Y14.9892
G01 X16.5726 Y14.9799
G01 X16.5946 Y14.9660
G01 X16.6269 Y14.9541
G01 X16.6414 Y14.9479
G01 X16.6696 Y14.9343
G01 X16.6915 Y14.9292
G01 X16.7097 Y14.9238
G01 X16.7343 Y14.9151
G01 X16.7683 Y14.9107
G01 X16.7839 Y14.9079
G01 X16.8144 Y14.9009
G01 X16.9766 Y14.9003
G01 X16.9884 Y14.8997
G01 X16.9973 Y14.8984
G01 X17.0060 Y14.8966
G01 X17.0146 Y14.8941
G01 X17.0241 Y14.8904
G01 X17.0540 Y14.8850
G01 X17.0626 Y14.8831
G01 X17.0739 Y14.8796
G01 X17.0821 Y14.8762
G01 X17.0901 Y14.8723
G01 X17.0977 Y14.8678
G01 X17.1096 Y14.8590
G01 X17.1669 Y14.8068
G01 X17.1733 Y14.8002
G01 X17.1809 Y14.7908
G01 X17.1976 Y14.7644
G01 X17.3028 Y14.6594
G01 X17.4293 Y14.5814
G01 X17.5712 Y14.5344
G01 X17.6563 Y14.5256
G01 X18.9946 Y14.5256
G01 X19.0809 Y14.5346
G01 X19.2227 Y14.5819
G01 X19.3491 Y14.6601
G01 X19.4541 Y14.7653
G01 X19.5321 Y14.8918
G01 X19.5791 Y15.0337
G01 X19.5879 Y15.1188
G01 X19.5879 Y16.0071
G01 X19.5789 Y16.0934
G01 X19.5316 Y16.2352
G01 X19.4534 Y16.3616
G01 X19.3482 Y16.4666
G01 X19.2217 Y16.5446
G01 X19.0798 Y16.5916
G01 X18.9947 Y16.6004
G01 X17.6564 Y16.6004
G01 X17.5701 Y16.5914
G01 X17.4283 Y16.5441
G01 X17.3019 Y16.4659
G01 X17.2820 Y16.4463
G01 X17.2752 Y16.4409
G01 X17.2681 Y16.4360
G01 X17.2607 Y16.4316
G01 X17.1984 Y16.3975
G01 X17.1903 Y16.3934
G01 X17.1820 Y16.3900
G01 X17.1734 Y16.3872
G01 X17.1646 Y16.3851
G01 X17.1498 Y16.3830
G01 X17.1407 Y16.3826
G01 X17.1317 Y16.3829
G01 X17.0579 Y16.3882
G01 X17.0459 Y16.3899
G01 X17.0341 Y16.3929
G01 X17.0227 Y16.3970
G01 X17.0092 Y16.4037
G01 X16.9564 Y16.4374
G01 X16.9472 Y16.4443
G01 X16.9386 Y16.4521
G01 X16.7557 Y16.6350
G01 X16.7462 Y16.6457
G01 X16.7411 Y16.6527
G01 X16.7351 Y16.6626
G01 X16.7010 Y16.7249
G01 X16.6947 Y16.7383
G01 X16.6901 Y16.7525
G01 X16.6877 Y16.7641
G01 X16.6840 Y16.7968
G01 X16.6834 Y16.8097
G01 X16.6835 Y17.8331
G01 X16.6846 Y17.8446
G01 X16.6875 Y17.8587
G01 X16.7083 Y17.9296
G01 X16.7111 Y17.9381
G01 X16.7159 Y17.9492
G01 X16.7218 Y17.9597
G01 X16.7287 Y17.9696
G01 X16.7365 Y17.9787
G01 X16.7452 Y17.9870
G01 X16.8035 Y18.0373
G01 X16.8108 Y18.0426
G01 X16.8185 Y18.0474
G01 X16.8265 Y18.0515
G01 X16.8376 Y18.0561
G01 X16.8462 Y18.0588
G01 X16.8579 Y18.0614
G01 X16.9312 Y18.0720
G01 X16.9402 Y18.0729
G01 X16.9552 Y18.0730
G01 X16.9672 Y18.0717
G01 X16.9789 Y18.0693
G01 X16.9904 Y18.0657
G01 X16.9988 Y18.0623
G01 X17.0686 Y18.0302
G01 X17.0763 Y18.0259
G01 X17.0837 Y18.0210
G01 X17.0906 Y18.0156
G01 X17.0972 Y18.0097
G01 X17.1052 Y18.0011
G01 X17.1299 Y17.9722
G01 X17.1373 Y17.9625
G01 X17.1982 Y17.8646
G01 X17.3033 Y17.7597
G01 X17.4297 Y17.6818
G01 X17.5711 Y17.6349
G01 X17.6562 Y17.6262
G01 X17.9504 Y17.6261
G01 X17.9504 Y17.8919
G01 X17.7005 Y17.8919
G01 X17.6701 Y17.8932
G01 X17.6612 Y17.8940
G01 X17.6310 Y17.8984
G01 X17.6223 Y17.9003
G01 X17.5928 Y17.9078
G01 X17.5640 Y17.9180
G01 X17.5557 Y17.9213
G01 X17.5282 Y17.9343
G01 X17.5204 Y17.9386
G01 X17.4968 Y17.9528
G01 X17.4697 Y17.9724
G01 X17.4605 Y17.9800
G01 X17.4381 Y18.0006
G01 X17.4175 Y18.0230
G01 X17.4099 Y18.0322
G01 X17.3919 Y18.0568
G01 X17.3761 Y18.0829
G01 X17.3718 Y18.0907
G01 X17.3576 Y18.1210
G01 X17.3472 Y18.1496
G01 X17.3445 Y18.1581
G01 X17.3371 Y18.1877
G01 X17.3319 Y18.2207
G01 X17.3309 Y18.2296
G01 X17.3294 Y18.2600
G01 X17.3294 Y18.2879
G01 X16.9780 Y18.2879
G01 X16.9515 Y18.2804
G01 X16.9430 Y18.2788
G01 X16.9344 Y18.2779
G01 X16.9257 Y18.2776
G01 X16.8547 Y18.2776
G01 X16.8457 Y18.2779
G01 X16.8338 Y18.2794
G01 X16.8220 Y18.2821
G01 X16.8106 Y18.2859
G01 X16.7997 Y18.2908
G01 X16.7892 Y18.2968
G01 X16.7295 Y18.3352
G01 X16.7221 Y18.3404
G01 X16.7129 Y18.3480
G01 X16.7065 Y18.3544
G01 X16.6988 Y18.3635
G01 X16.6936 Y18.3708
G01 X16.6875 Y18.3812
G01 X16.6606 Y18.4330
G01 X16.6569 Y18.4407
G01 X16.6538 Y18.4486
G01 X16.6505 Y18.4594
G01 X16.6163 Y18.5955
G01 X16.5287 Y18.7971
G01 X16.4092 Y18.9818
G01 X16.2612 Y19.1444
G01 X16.0886 Y19.2807
G01 X15.8961 Y19.3870
G01 X15.6888 Y19.4604
G01 X15.4723 Y19.4990
G01 X15.2524 Y19.5017
G01 X15.0350 Y19.4684
G01 X14.8260 Y19.4001
G01 X14.6309 Y19.2985
G01 X14.4551 Y19.1665
G01 X14.3031 Y19.0075
G01 X14.2798 Y18.9734
G01 X14.2745 Y18.9666
G01 X14.2688 Y18.9602
G01 X14.2582 Y18.9504
G01 X14.1985 Y18.9017
G01 X14.1885 Y18.8950
G01 X14.1779 Y18.8894
G01 X14.1668 Y18.8848
G01 X14.1523 Y18.8807
G01 X14.1404 Y18.8787
G01 X14.0699 Y18.8706
G01 X14.0609 Y18.8699
G01 X14.0519 Y18.8698
G01 X14.0429 Y18.8705
G01 X14.0310 Y18.8724
G01 X14.0194 Y18.8754
G01 X14.0081 Y18.8796
G01 X13.9337 Y18.9161
G01 X13.9237 Y18.9223
G01 X13.9121 Y18.9313
G01 X13.9057 Y18.9374
G01 X13.8997 Y18.9439
G01 X13.8770 Y18.9708
G01 X13.8692 Y18.9818
G01 X13.7212 Y19.1444
G01 X13.5623 Y19.2699
G01 X13.5557 Y19.2755
G01 X13.5476 Y19.2837
G01 X13.5403 Y19.2926
G01 X13.4975 Y19.3528
G01 X13.4910 Y19.3631
G01 X13.4868 Y19.3712
G01 X13.4822 Y19.3824
G01 X13.4795 Y19.3911
G01 X13.4769 Y19.4029
G01 X13.4696 Y19.4467
G01 X13.4687 Y19.4553
G01 X13.4684 Y19.4639
G01 X13.4684 Y23.5993
G01 X13.4689 Y23.6108
G01 X13.4711 Y23.6250
G01 X13.4733 Y23.6334
G01 X13.4933 Y23.7015
G01 X13.4961 Y23.7100
G01 X13.4995 Y23.7182
G01 X13.5050 Y23.7288
G01 X13.5116 Y23.7387
G01 X13.5321 Y23.7644
G01 X13.5407 Y23.7740
G01 X18.0830 Y28.3163
G01 X18.0893 Y28.3222
G01 X18.0960 Y28.3276
G01 X18.1081 Y28.3355
G01 X18.1755 Y28.3723
G01 X18.1863 Y28.3773
G01 X18.1976 Y28.3811
G01 X18.2062 Y28.3832
G01 X18.2150 Y28.3847
G01 X18.2480 Y28.3883
G01 X18.2577 Y28.3886
G01 X21.0493 Y28.3886
G01 X21.0637 Y28.3878
G01 X21.0779 Y28.3852
G01 X21.1516 Y28.3637
G01 X21.1602 Y28.3609
G01 X21.1685 Y28.3574
G01 X21.1765 Y28.3533
G01 X21.1842 Y28.3486
G01 X21.1916 Y28.3433
G01 X21.2007 Y28.3355
G01 X21.2070 Y28.3291
G01 X21.2594 Y28.2685
G01 X21.2647 Y28.2611
G01 X21.2709 Y28.2508
G01 X21.2749 Y28.2426
G01 X21.2782 Y28.2341
G01 X21.2817 Y28.2225
G01 X21.2937 Y28.1673
G01 X21.2953 Y28.1587
G01 X21.2962 Y28.1501
G01 X21.2965 Y28.1415
G01 X21.2965 Y27.9452
G01 X21.3099 Y27.7818
G01 X21.3635 Y27.5685
G01 X21.4512 Y27.3669
G01 X21.5706 Y27.1822
G01 X21.7186 Y27.0196
G01 X21.8912 Y26.8833
G01 X22.0838 Y26.7770
G01 X22.2911 Y26.7036
G01 X22.5076 Y26.6650
G01 X22.7275 Y26.6623
G01 X22.9448 Y26.6956
G01 X23.1539 Y26.7639
G01 X23.3489 Y26.8655
G01 X23.5248 Y26.9975
G01 X23.6767 Y27.1565
G01 X23.6846 Y27.1675
G01 X23.6942 Y27.1782
G01 X23.7028 Y27.1859
G01 X23.7577 Y27.2309
G01 X23.7649 Y27.2364
G01 X23.7750 Y27.2428
G01 X23.7858 Y27.2482
G01 X23.7970 Y27.2525
G01 X23.8087 Y27.2556
G01 X23.8205 Y27.2576
G01 X23.8911 Y27.2658
G01 X23.9000 Y27.2665
G01 X23.9091 Y27.2665
G01 X23.9181 Y27.2659
G01 X23.9300 Y27.2640
G01 X23.9416 Y27.2609
G01 X23.9529 Y27.2567
G01 X24.0248 Y27.2215
G01 X24.0355 Y27.2153
G01 X24.0430 Y27.2099
G01 X24.0523 Y27.2019
G01 X24.0664 Y27.1876
G01 X24.2189 Y27.0201
G01 X24.3917 Y26.8836
G01 X24.5838 Y26.7775
G01 X24.7587 Y26.7156
G01 X24.7587 Y26.9988
G01 X24.7295 Y27.0092
G01 X24.7212 Y27.0126
G01 X24.6342 Y27.0537
G01 X24.6263 Y27.0578
G01 X24.5388 Y27.1104
G01 X24.4566 Y27.1711
G01 X24.4498 Y27.1769
G01 X24.3807 Y27.2395
G01 X24.3723 Y27.2479
G01 X24.3058 Y27.3215
G01 X24.2449 Y27.4034
G01 X24.2400 Y27.4109
G01 X24.1921 Y27.4909
G01 X24.1865 Y27.5014
G01 X24.1442 Y27.5911
G01 X24.1088 Y27.6901
G01 X24.0833 Y27.7920
G01 X24.0686 Y27.8901
G01 X24.0674 Y27.9019
G01 X24.0627 Y28.0010
G01 X24.0627 Y30.1010
G01 X24.0679 Y30.2060
G01 X24.0833 Y30.3100
G01 X24.1072 Y30.4062
G01 X24.1107 Y30.4176
G01 X24.1442 Y30.5109
G01 X24.1865 Y30.6006
G01 X24.1921 Y30.6111
G01 X24.2432 Y30.6961
G01 X24.3022 Y30.7758
G01 X24.3078 Y30.7828
G01 X24.3723 Y30.8541
G01 X24.3807 Y30.8625
G01 X24.4543 Y30.9290
G01 X24.5363 Y30.9899
G01 X24.5438 Y30.9948
G01 X24.6237 Y31.0427
G01 X24.6316 Y31.0470
G01 X24.7212 Y31.0894
G01 X24.7295 Y31.0928
G01 X24.7587 Y31.1032
G01 X24.7587 Y31.3849
G01 X24.6139 Y31.3375
G01 X24.4189 Y31.2360
G01 X24.2434 Y31.1042
G01 X24.0915 Y30.9453
G01 X24.0837 Y30.9346
G01 X24.0741 Y30.9238
G01 X24.0656 Y30.9161
G01 X24.0083 Y30.8692
G01 X23.9985 Y30.8623
G01 X23.9880 Y30.8564
G01 X23.9798 Y30.8527
G01 X23.9713 Y30.8496
G01 X23.9597 Y30.8464
G01 X23.9508 Y30.8448
G01 X23.8743 Y30.8360
G01 X23.8623 Y30.8355
G01 X23.8532 Y30.8359
G01 X23.8443 Y30.8370
G01 X23.8354 Y30.8387
G01 X23.8267 Y30.8411
G01 X23.8182 Y30.8442
G01 X23.8100 Y30.8478
G01 X23.7463 Y30.8791
G01 X23.7355 Y30.8851
G01 X23.7253 Y30.8921
G01 X23.7160 Y30.9002
G01 X23.7038 Y30.9124
G01 X23.5491 Y31.0824
G01 X23.3902 Y31.2079
G01 X23.3794 Y31.2175
G01 X23.3735 Y31.2238
G01 X23.3681 Y31.2306
G01 X23.3236 Y31.2933
G01 X23.3160 Y31.3064
G01 X23.3100 Y31.3204
G01 X23.3073 Y31.3291
G01 X23.3047 Y31.3409
G01 X23.2974 Y31.3847
G01 X23.2962 Y31.3990
G01 X23.2962 Y32.0936
G01 X23.2965 Y32.1023
G01 X23.2979 Y32.1137
G01 X23.3003 Y32.1250
G01 X23.3211 Y32.1959
G01 X23.3262 Y32.2098
G01 X23.3329 Y32.2231
G01 X23.3394 Y32.2330
G01 X23.3599 Y32.2587
G01 X23.3686 Y32.2684
G01 X27.1060 Y36.0057
G01 X27.1605 Y36.0592
G01 X27.1775 Y36.0855
G01 X27.1867 Y36.0983
G01 X27.2080 Y36.1253
G01 X27.2178 Y36.1454
G01 X27.2271 Y36.1621
G01 X27.2410 Y36.1841
G01 X27.2529 Y36.2164
G01 X27.2591 Y36.2309
G01 X27.2727 Y36.2591
G01 X27.2788 Y36.2845
G01 X27.2843 Y36.3027
G01 X27.2919 Y36.3238
G01 X27.2963 Y36.3578
G01 X27.2991 Y36.3734
G01 X27.3061 Y36.4039
G01 X27.3067 Y36.5593
G01 X27.3064 Y36.5684
G01 X27.3064 Y40.7582
G01 X27.3067 Y40.7668
G01 X27.3080 Y40.7783
G01 X27.3105 Y40.7895
G01 X27.3322 Y40.8634
G01 X27.3353 Y40.8720
G01 X27.3390 Y40.8803
G01 X27.3434 Y40.8883
G01 X27.3484 Y40.8960
G01 X27.3539 Y40.9033
G01 X27.3793 Y40.9327
G01 X27.3894 Y40.9429
G01 X27.5343 Y41.0687
G01 X27.6674 Y41.2311
G01 X27.7713 Y41.4136
G01 X27.8429 Y41.6110
G01 X27.8807 Y41.8199
G01 X27.8814 Y41.8332
G01 X27.8814 Y44.2873
G01 X27.8681 Y44.4437
G01 X27.8153 Y44.6470
G01 X27.7291 Y44.8384
G01 X27.6118 Y45.0126
G01 X27.6063 Y45.0185
G01 X27.4669 Y45.1646
G01 X27.2984 Y45.2899
G01 X27.1112 Y45.3851
G01 X26.9107 Y45.4474
G01 X26.7025 Y45.4749
G01 X26.4927 Y45.4671
G01 X26.2871 Y45.4239
G01 X26.0918 Y45.3468
G01 X25.9123 Y45.2379
G01 X25.7537 Y45.1003
G01 X25.6206 Y44.9379
G01 X25.5167 Y44.7554
G01 X25.4451 Y44.5580
G01 X25.4073 Y44.3491
G01 X25.4066 Y44.3358
G01 X25.4066 Y42.8862
G01 X25.4063 Y42.8776
G01 X25.4054 Y42.8690
G01 X25.4039 Y42.8605
G01 X25.4017 Y42.8521
G01 X25.3817 Y42.7840
G01 X25.3767 Y42.7700
G01 X25.3714 Y42.7593
G01 X25.3652 Y42.7492
G01 X25.3598 Y42.7421
G01 X25.3409 Y42.7186
G01 X25.3343 Y42.7115
G01 X25.3105 Y42.6877
G01 X25.3040 Y42.6820
G01 X25.2948 Y42.6751
G01 X25.2849 Y42.6691
G01 X25.2226 Y42.6350
G01 X25.2119 Y42.6299
G01 X25.2036 Y42.6267
G01 X25.1922 Y42.6234
G01 X25.1805 Y42.6213
G01 X25.1475 Y42.6177
G01 X25.1378 Y42.6174
G01 X23.7086 Y42.6174
G01 X23.6971 Y42.6179
G01 X23.6857 Y42.6195
G01 X23.6773 Y42.6215
G01 X23.6008 Y42.6440
G01 X23.5899 Y42.6484
G01 X23.5821 Y42.6524
G01 X23.5745 Y42.6569
G01 X23.5650 Y42.6638
G01 X23.5541 Y42.6736
G01 X23.5151 Y42.7133
G01 X23.5090 Y42.7199
G01 X23.5001 Y42.7319
G01 X23.4789 Y42.7661
G01 X23.3737 Y42.8711
G01 X23.2472 Y42.9491
G01 X23.1053 Y42.9961
G01 X23.0202 Y43.0049
G01 X21.6319 Y43.0049
G01 X21.5456 Y42.9959
G01 X21.4038 Y42.9486
G01 X21.2774 Y42.8704
G01 X21.2653 Y42.8591
G01 X21.2585 Y42.8538
G01 X21.2513 Y42.8491
G01 X21.1814 Y42.8107
G01 X21.1678 Y42.8047
G01 X21.1593 Y42.8020
G01 X21.1507 Y42.7998
G01 X21.1389 Y42.7980
G01 X21.1055 Y42.7945
G01 X20.2328 Y42.7944
G01 X20.2215 Y42.7952
G01 X20.1778 Y42.8015
G01 X20.1668 Y42.8042
G01 X20.1200 Y42.8178
G01 X20.0997 Y42.8194
G01 X18.3263 Y42.8194
G01 X18.3061 Y42.8178
G01 X18.1729 Y42.7791
G01 X18.0560 Y42.7100
G01 X17.9600 Y42.6140
G01 X17.8909 Y42.4971
G01 X17.8522 Y42.3640
G01 X17.8506 Y42.3437
G01 X17.8506 Y41.9203
G01 X17.8522 Y41.9000
G01 X17.8909 Y41.7669
G01 X17.9620 Y41.6466
G01 X17.9699 Y41.6352
G01 X17.9755 Y41.6248
G01 X17.9790 Y41.6168
G01 X18.0043 Y41.5524
G01 X18.0073 Y41.5439
G01 X18.0096 Y41.5352
G01 X18.0113 Y41.5263
G01 X18.0123 Y41.5173
G01 X18.0127 Y41.5083
G01 X18.0121 Y41.4963
G01 X18.0103 Y41.4844
G01 X17.9958 Y41.4118
G01 X17.9915 Y41.3973
G01 X17.9869 Y41.3862
G01 X17.9811 Y41.3756
G01 X17.9678 Y41.3548
G01 X17.9613 Y41.3461
G01 X17.8909 Y41.2271
G01 X17.8522 Y41.0940
G01 X17.8506 Y41.0737
G01 X17.8506 Y40.6503
G01 X17.8522 Y40.6300
G01 X17.8909 Y40.4969
G01 X17.9620 Y40.3766
G01 X17.9699 Y40.3652
G01 X17.9755 Y40.3548
G01 X17.9790 Y40.3468
G01 X18.0063 Y40.2768
G01 X18.0089 Y40.2681
G01 X18.0108 Y40.2593
G01 X18.0120 Y40.2503
G01 X18.0126 Y40.2413
G01 X18.0123 Y40.2293
G01 X18.0109 Y40.2174
G01 X17.9958 Y40.1418
G01 X17.9915 Y40.1273
G01 X17.9869 Y40.1162
G01 X17.9811 Y40.1056
G01 X17.9678 Y40.0848
G01 X17.9613 Y40.0761
G01 X17.8909 Y39.9571
G01 X17.8522 Y39.8240
G01 X17.8506 Y39.8037
G01 X17.8506 Y39.3803
G01 X17.8522 Y39.3600
G01 X17.8909 Y39.2269
G01 X17.9618 Y39.1070
G01 X17.9702 Y39.0949
G01 X17.9757 Y39.0846
G01 X17.9793 Y39.0765
G01 X18.0066 Y39.0064
G01 X18.0092 Y38.9977
G01 X18.0111 Y38.9889
G01 X18.0128 Y38.9739
G01 X18.0126 Y38.9589
G01 X18.0106 Y38.9440
G01 X17.9961 Y38.8714
G01 X17.9938 Y38.8627
G01 X17.9897 Y38.8513
G01 X17.9859 Y38.8431
G01 X17.9814 Y38.8352
G01 X17.9663 Y38.8116
G01 X17.9603 Y38.8034
G01 X17.8974 Y38.6971
G01 X18.2369 Y38.6971
G01 X18.2550 Y38.7082
G01 X18.2655 Y38.7138
G01 X18.2842 Y38.7225
G01 X18.3093 Y38.7315
G01 X18.3351 Y38.7379
G01 X18.3555 Y38.7411
G01 X18.3644 Y38.7421
G01 X18.3880 Y38.7431
G01 X20.0410 Y38.7431
G01 X20.0646 Y38.7418
G01 X20.0850 Y38.7390
G01 X20.0938 Y38.7373
G01 X20.1167 Y38.7315
G01 X20.1390 Y38.7236
G01 X20.1472 Y38.7201
G01 X20.1658 Y38.7111
G01 X20.1862 Y38.6991
G01 X20.1935 Y38.6940
G01 X20.2100 Y38.6816
G01 X20.2297 Y38.6637
G01 X20.2476 Y38.6440
G01 X20.2600 Y38.6275
G01 X20.2651 Y38.6202
G01 X20.2785 Y38.5972
G01 X20.2873 Y38.5785
G01 X20.2906 Y38.5702
G01 X20.2966 Y38.5535
G01 X20.2991 Y38.5450
G01 X20.3039 Y38.5249
G01 X20.3071 Y38.5045
G01 X20.3081 Y38.4956
G01 X20.3091 Y38.4720
G01 X20.3091 Y38.1720
G01 X20.3081 Y38.1484
G01 X20.3071 Y38.1395
G01 X20.3039 Y38.1191
G01 X20.2975 Y38.0933
G01 X20.2885 Y38.0682
G01 X20.2798 Y38.0495
G01 X20.2757 Y38.0416
G01 X20.2618 Y38.0189
G01 X20.2495 Y38.0023
G01 X20.2437 Y37.9955
G01 X20.2318 Y37.9824
G01 X20.2254 Y37.9762
G01 X20.2100 Y37.9624
G01 X20.1935 Y37.9500
G01 X20.1862 Y37.9449
G01 X20.1684 Y37.9343
G01 X20.1605 Y37.9302
G01 X20.1418 Y37.9215
G01 X20.1167 Y37.9125
G01 X20.0909 Y37.9061
G01 X20.0646 Y37.9022
G01 X20.0380 Y37.9009
G01 X19.5881 Y37.9009
G01 X19.5881 Y37.6352
G01 X20.0996 Y37.6352
G01 X20.1197 Y37.6367
G01 X20.2527 Y37.6753
G01 X20.3694 Y37.7443
G01 X20.4654 Y37.8402
G01 X20.5345 Y37.9569
G01 X20.5732 Y38.0899
G01 X20.5749 Y38.1104
G01 X20.5749 Y38.1868
G01 X20.5761 Y38.2012
G01 X20.5776 Y38.2097
G01 X20.5798 Y38.2181
G01 X20.5998 Y38.2862
G01 X20.6037 Y38.2975
G01 X20.6088 Y38.3085
G01 X20.6149 Y38.3188
G01 X20.6220 Y38.3285
G01 X20.6301 Y38.3374
G01 X20.6367 Y38.3436
G01 X20.6926 Y38.3920
G01 X20.7023 Y38.3992
G01 X20.7139 Y38.4061
G01 X20.7066 Y38.4104
G01 X20.6469 Y38.4488
G01 X20.6370 Y38.4558
G01 X20.6279 Y38.4638
G01 X20.6196 Y38.4727
G01 X20.6140 Y38.4799
G01 X20.6074 Y38.4901
G01 X20.5788 Y38.5427
G01 X20.5730 Y38.5560
G01 X20.5703 Y38.5642
G01 X20.5345 Y38.6871
G01 X20.4657 Y38.8034
G01 X20.4610 Y38.8097
G01 X20.4563 Y38.8170
G01 X20.4521 Y38.8246
G01 X20.4484 Y38.8324
G01 X20.4214 Y38.9012
G01 X20.4184 Y38.9097
G01 X20.4161 Y38.9184
G01 X20.4144 Y38.9273
G01 X20.4131 Y38.9422
G01 X20.4136 Y38.9573
G01 X20.4154 Y38.9692
G01 X20.4299 Y39.0417
G01 X20.4331 Y39.0534
G01 X20.4363 Y39.0619
G01 X20.4401 Y39.0701
G01 X20.4446 Y39.0780
G01 X20.4581 Y39.0991
G01 X20.4648 Y39.1080
G01 X20.5351 Y39.2269
G01 X20.5555 Y39.2971
G01 X20.5607 Y39.3105
G01 X20.5674 Y39.3233
G01 X20.5996 Y39.3738
G01 X20.5789 Y39.4481
G01 X20.5766 Y39.4597
G01 X20.5755 Y39.4714
G01 X20.5754 Y39.8037
G01 X20.5738 Y39.8240
G01 X20.5351 Y39.9571
G01 X20.4640 Y40.0774
G01 X20.4561 Y40.0888
G01 X20.4505 Y40.0992
G01 X20.4470 Y40.1072
G01 X20.4217 Y40.1716
G01 X20.4187 Y40.1801
G01 X20.4164 Y40.1888
G01 X20.4147 Y40.1977
G01 X20.4135 Y40.2097
G01 X20.4134 Y40.2187
G01 X20.4139 Y40.2277
G01 X20.4151 Y40.2366
G01 X20.4296 Y40.3092
G01 X20.4317 Y40.3180
G01 X20.4355 Y40.3295
G01 X20.4405 Y40.3405
G01 X20.4449 Y40.3484
G01 X20.4582 Y40.3692
G01 X20.4647 Y40.3779
G01 X20.5351 Y40.4969
G01 X20.5738 Y40.6301
G01 X20.5754 Y40.6503
G01 X20.5754 Y41.0737
G01 X20.5738 Y41.0940
G01 X20.5557 Y41.1563
G01 X20.5538 Y41.1648
G01 X20.5525 Y41.1733
G01 X20.5516 Y41.1877
G01 X20.5518 Y41.2587
G01 X20.5525 Y41.2707
G01 X20.5549 Y41.2855
G01 X20.5592 Y41.2999
G01 X20.5652 Y41.3137
G01 X20.5713 Y41.3241
G01 X20.6098 Y41.3837
G01 X20.6168 Y41.3935
G01 X20.6248 Y41.4025
G01 X20.6313 Y41.4088
G01 X20.6407 Y41.4163
G01 X20.6482 Y41.4213
G01 X20.6615 Y41.4283
G01 X20.7262 Y41.4576
G01 X20.7376 Y41.4621
G01 X20.7495 Y41.4654
G01 X20.7586 Y41.4671
G01 X20.7677 Y41.4681
G01 X20.7881 Y41.4695
G01 X20.8532 Y41.4696
G01 X20.8618 Y41.4691
G01 X20.8732 Y41.4675
G01 X20.8844 Y41.4647
G01 X20.9554 Y41.4439
G01 X20.9639 Y41.4408
G01 X20.9748 Y41.4357
G01 X20.9827 Y41.4312
G01 X20.9901 Y41.4262
G01 X20.9995 Y41.4186
G01 X21.0059 Y41.4123
G01 X21.0565 Y41.3542
G01 X21.0654 Y41.3425
G01 X21.0715 Y41.3325
G01 X21.0765 Y41.3219
G01 X21.0837 Y41.3038
G01 X21.0949 Y41.2703
G01 X21.1731 Y41.1439
G01 X21.2783 Y41.0389
G01 X21.4048 Y40.9609
G01 X21.5467 Y40.9139
G01 X21.6318 Y40.9051
G01 X23.0201 Y40.9051
G01 X23.1064 Y40.9141
G01 X23.2482 Y40.9614
G01 X23.3746 Y41.0396
G01 X23.4796 Y41.1448
G01 X23.5015 Y41.1800
G01 X23.5066 Y41.1870
G01 X23.5142 Y41.1957
G01 X23.5204 Y41.2017
G01 X23.5732 Y41.2492
G01 X23.5799 Y41.2548
G01 X23.5896 Y41.2616
G01 X23.5998 Y41.2673
G01 X23.6078 Y41.2710
G01 X23.6188 Y41.2750
G01 X23.6274 Y41.2772
G01 X23.6819 Y41.2896
G01 X23.6907 Y41.2913
G01 X23.6997 Y41.2923
G01 X23.7087 Y41.2926
G01 X25.4558 Y41.2926
G01 X25.4701 Y41.2914
G01 X25.4815 Y41.2892
G01 X25.5580 Y41.2669
G01 X25.5663 Y41.2639
G01 X25.5745 Y41.2602
G01 X25.5848 Y41.2545
G01 X25.5922 Y41.2495
G01 X25.6036 Y41.2401
G01 X25.6465 Y41.1980
G01 X25.6562 Y41.1861
G01 X25.6762 Y41.1564
G01 X25.8211 Y41.0044
G01 X25.8843 Y40.9574
G01 X25.8931 Y40.9499
G01 X25.9029 Y40.9393
G01 X25.9510 Y40.8757
G01 X25.9574 Y40.8657
G01 X25.9628 Y40.8552
G01 X25.9672 Y40.8441
G01 X25.9711 Y40.8298
G01 X25.9797 Y40.7825
G01 X25.9813 Y40.7702
G01 X25.9816 Y40.7608
G01 X25.9816 Y36.8572
G01 X25.9808 Y36.8428
G01 X25.9782 Y36.8287
G01 X25.9549 Y36.7493
G01 X25.9517 Y36.7410
G01 X25.9478 Y36.7329
G01 X25.9402 Y36.7202
G01 X25.9179 Y36.6921
G01 X25.9093 Y36.6825
G01 X22.1719 Y32.9451
G01 X22.1173 Y32.8916
G01 X22.1003 Y32.8653
G01 X22.0911 Y32.8525
G01 X22.0698 Y32.8255
G01 X22.0600 Y32.8054
G01 X22.0507 Y32.7888
G01 X22.0368 Y32.7667
G01 X22.0249 Y32.7345
G01 X22.0187 Y32.7199
G01 X22.0051 Y32.6917
G01 X21.9991 Y32.6664
G01 X21.9936 Y32.6481
G01 X21.9860 Y32.6271
G01 X21.9820 Y32.5961
G01 X21.9793 Y32.5805
G01 X21.9717 Y32.5470
G01 X21.9712 Y32.3915
G01 X21.9715 Y32.3825
G01 X21.9715 Y31.3996
G01 X21.9706 Y31.3852
G01 X21.9693 Y31.3767
G01 X21.9674 Y31.3683
G01 X21.9466 Y31.2974
G01 X21.9438 Y31.2890
G01 X21.9404 Y31.2808
G01 X21.9349 Y31.2703
G01 X21.9302 Y31.2628
G01 X21.9230 Y31.2534
G01 X21.8887 Y31.2164
G01 X21.8776 Y31.2058
G01 X21.7429 Y31.1045
G01 X21.5910 Y30.9455
G01 X21.4670 Y30.7638
G01 X21.3744 Y30.5644
G01 X21.3157 Y30.3525
G01 X21.2965 Y30.1730
G01 X21.2965 Y29.9605
G01 X21.2962 Y29.9519
G01 X21.2953 Y29.9433
G01 X21.2937 Y29.9347
G01 X21.2916 Y29.9264
G01 X21.2716 Y29.8582
G01 X21.2676 Y29.8469
G01 X21.2611 Y29.8333
G01 X21.2548 Y29.8231
G01 X21.2454 Y29.8114
G01 X21.2369 Y29.8028
G01 X21.1764 Y29.7505
G01 X21.1639 Y29.7419
G01 X21.1532 Y29.7362
G01 X21.1391 Y29.7307
G01 X21.1274 Y29.7275
G01 X21.0723 Y29.7155
G01 X21.0637 Y29.7142
G01 X21.0522 Y29.7134
G01 X17.8900 Y29.7134
G01 X17.8136 Y29.7141
G01 X17.7830 Y29.7076
G01 X17.7674 Y29.7050
G01 X17.7333 Y29.7010
G01 X17.7122 Y29.6937
G01 X17.6938 Y29.6885
G01 X17.6684 Y29.6827
G01 X17.6400 Y29.6695
G01 X17.6254 Y29.6636
G01 X17.5930 Y29.6521
G01 X17.5740 Y29.6403
G01 X17.5573 Y29.6312
G01 X17.5337 Y29.6199
G01 X17.5090 Y29.6008
G01 X17.4960 Y29.5917
G01 X17.4670 Y29.5734
G01 X17.3567 Y29.4638
G01 X17.3505 Y29.4572
G01 X12.3440 Y24.4508
G01 X12.2895 Y24.3973
G01 X12.2725 Y24.3710
G01 X12.2633 Y24.3582
G01 X12.2420 Y24.3312
G01 X12.2322 Y24.3111
G01 X12.2229 Y24.2944
G01 X12.2090 Y24.2724
G01 X12.1971 Y24.2401
G01 X12.1909 Y24.2256
G01 X12.1773 Y24.1974
G01 X12.1712 Y24.1720
G01 X12.1657 Y24.1538
G01 X12.1581 Y24.1327
G01 X12.1542 Y24.1017
G01 X12.1514 Y24.0861
G01 X12.1439 Y24.0526
G01 X12.1433 Y23.8972
G01 X12.1436 Y23.8881
G01 X12.1436 Y19.4616
G01 X12.1428 Y19.4472
G01 X12.1415 Y19.4387
G01 X12.1395 Y19.4303
G01 X12.1187 Y19.3594
G01 X12.1137 Y19.3455
G01 X12.1099 Y19.3375
G01 X12.1055 Y19.3298
G01 X12.0970 Y19.3177
G01 X12.0912 Y19.3110
G01 X12.0566 Y19.2740
G01 X12.0449 Y19.2640
G01 X11.9151 Y19.1665
G01 X11.7631 Y19.0075
G01 X11.6392 Y18.8258
G01 X11.5466 Y18.6264
G01 X11.4878 Y18.4145
G01 X11.4686 Y18.2350
G01 X11.4686 Y18.0860
G01 X11.4681 Y18.0745
G01 X11.4670 Y18.0659
G01 X11.4645 Y18.0547
G01 X11.4429 Y17.9809
G01 X11.4374 Y17.9669
G01 X11.4302 Y17.9537
G01 X11.4215 Y17.9414
G01 X11.4134 Y17.9325
G01 X11.4068 Y17.9263
G01 X11.3485 Y17.8760
G01 X11.3360 Y17.8674
G01 X11.3225 Y17.8605
G01 X11.3111 Y17.8561
G01 X11.3024 Y17.8537
G01 X11.2467 Y17.8416
G01 X11.2352 Y17.8397
G01 X11.2207 Y17.8389
G01 X11.1438 Y17.8397
G01 X11.0715 Y17.8235
G01 X10.9986 Y17.8077
G01 X10.9318 Y17.7760
G01 X10.8641 Y17.7444
G01 X10.7734 Y17.6734
G01 X10.7446 Y17.6504
G01 X10.7325 Y17.6385
G01 X10.7212 Y17.6295
G01 X10.7090 Y17.6219
G01 X10.6464 Y17.5884
G01 X10.6383 Y17.5844
G01 X10.6271 Y17.5801
G01 X10.6155 Y17.5769
G01 X10.6036 Y17.5748
G01 X10.5916 Y17.5740
G01 X10.5796 Y17.5743
G01 X10.5088 Y17.5799
G01 X10.4999 Y17.5809
G01 X10.4882 Y17.5833
G01 X10.4768 Y17.5868
G01 X10.4658 Y17.5915
G01 X10.4552 Y17.5972
G01 X10.4430 Y17.6058
G01 X10.3811 Y17.6550
G01 X10.3707 Y17.6647
G01 X10.3632 Y17.6734
G01 X10.3398 Y17.7076
G01 X10.1949 Y17.8596
G01 X10.0264 Y17.9849
G01 X9.8392 Y18.0801
G01 X9.6387 Y18.1424
G01 X9.4305 Y18.1699
G01 X9.2207 Y18.1621
G01 X9.0151 Y18.1189
G01 X8.8198 Y18.0418
G01 X8.6403 Y17.9329
G01 X8.4817 Y17.7953
G01 X8.3486 Y17.6329
G01 X8.2447 Y17.4504
G01 X8.1731 Y17.2530
G01 X8.1353 Y17.0441
G01 X8.1346 Y17.0308
G01 X8.1346 Y14.5767
G00 Z2.0000
G00 X10.4163 Y17.4155
G01 F60.00
G01 Z-0.1200
G01 F120.00
G01 X10.4342 Y17.3775
G01 X10.4399 Y17.3638
G01 X10.4706 Y17.2783
G01 X10.4771 Y17.2576
G01 X10.6127 Y17.3932
G01 X10.5955 Y17.3923
G01 X10.5729 Y17.3926
G01 X10.4872 Y17.3994
G01 X10.4723 Y17.4013
G01 X10.4503 Y17.4055
G01 X10.4358 Y17.4092
G01 X10.4163 Y17.4155
G00 Z2.0000
G00 X11.4305 Y17.7122
G01 F60.00
G01 Z-0.1200
G01 F120.00
G01 X11.4415 Y17.7076
G01 X11.4749 Y17.6919
G01 X11.5531 Y17.6917
G01 X11.5531 Y17.8159
G01 X11.5423 Y17.8044
G01 X11.5315 Y17.7940
G01 X11.4722 Y17.7425
G01 X11.4544 Y17.7283
G01 X11.4420 Y17.7195
G01 X11.4305 Y17.7122
G00 Z2.0000
G00 X11.5531 Y16.1859
G01 F60.00
G01 Z-0.1200
G01 F120.00
G01 X11.5531 Y16.5350
G01 X11.3894 Y16.5350
G01 X11.1858 Y16.3313
G01 X11.2013 Y16.3318
G01 X11.2163 Y16.3314
G01 X11.2946 Y16.3259
G01 X11.3096 Y16.3245
G01 X11.3245 Y16.3223
G01 X11.3466 Y16.3176
G01 X11.3611 Y16.3136
G01 X11.3824 Y16.3063
G01 X11.3963 Y16.3005
G01 X11.4165 Y16.2906
G01 X11.4360 Y16.2791
G01 X11.4485 Y16.2707
G01 X11.5114 Y16.2237
G01 X11.5231 Y16.2145
G01 X11.5398 Y16.1996
G01 X11.5531 Y16.1859
G00 Z2.0000
G00 X14.2228 Y15.5102
G01 F60.00
G01 Z-0.1200
G01 F120.00
G01 X14.1945 Y15.5700
G01 X14.1885 Y15.5835
G01 X14.1831 Y15.5974
G01 X14.1517 Y15.6852
G01 X14.1471 Y15.6993
G01 X14.1431 Y15.7136
G01 X14.1187 Y15.8113
G01 X14.1147 Y15.8332
G01 X14.1010 Y15.9254
G01 X14.0992 Y15.9402
G01 X14.0981 Y15.9550
G01 X14.0935 Y16.0481
G01 X14.0931 Y16.0630
G01 X14.0931 Y18.1630
G01 X14.0935 Y18.1779
G01 X14.0981 Y18.2710
G01 X14.0992 Y18.2858
G01 X14.1010 Y18.3006
G01 X14.1147 Y18.3928
G01 X14.1172 Y18.4074
G01 X14.1205 Y18.4219
G01 X14.1431 Y18.5124
G01 X14.1471 Y18.5267
G01 X14.1517 Y18.5408
G01 X14.1831 Y18.6286
G01 X14.1885 Y18.6425
G01 X14.1945 Y18.6560
G01 X14.2206 Y18.7112
G01 X14.1984 Y18.7049
G01 X14.1837 Y18.7016
G01 X14.1688 Y18.6992
G01 X14.0834 Y18.6893
G01 X14.0683 Y18.6883
G01 X14.0533 Y18.6880
G01 X14.0383 Y18.6886
G01 X14.0233 Y18.6898
G01 X14.0010 Y18.6931
G01 X13.9862 Y18.6962
G01 X13.9717 Y18.7000
G01 X13.9574 Y18.7045
G01 X13.9433 Y18.7098
G01 X13.9292 Y18.7158
G01 X13.9575 Y18.6560
G01 X13.9635 Y18.6425
G01 X13.9689 Y18.6286
G01 X14.0003 Y18.5408
G01 X14.0049 Y18.5267
G01 X14.0089 Y18.5124
G01 X14.0333 Y18.4147
G01 X14.0373 Y18.3928
G01 X14.0510 Y18.3006
G01 X14.0528 Y18.2858
G01 X14.0539 Y18.2710
G01 X14.0585 Y18.1779
G01 X14.0589 Y18.1630
G01 X14.0589 Y16.0630
G01 X14.0585 Y16.0481
G01 X14.0539 Y15.9550
G01 X14.0528 Y15.9402
G01 X14.0510 Y15.9254
G01 X14.0373 Y15.8332
G01 X14.0348 Y15.8186
G01 X14.0315 Y15.8041
G01 X14.0089 Y15.7136
G01 X14.0049 Y15.6993
G01 X14.0003 Y15.6852
G01 X13.9689 Y15.5974
G01 X13.9635 Y15.5835
G01 X13.9575 Y15.5700
G01 X13.9314 Y15.5148
G01 X13.9536 Y15.5211
G01 X13.9683 Y15.5244
G01 X13.9832 Y15.5268
G01 X14.0686 Y15.5367
G01 X14.0837 Y15.5377
G01 X14.0987 Y15.5380
G01 X14.1137 Y15.5374
G01 X14.1287 Y15.5362
G01 X14.1436 Y15.5342
G01 X14.1658 Y15.5298
G01 X14.1803 Y15.5260
G01 X14.1946 Y15.5215
G01 X14.2087 Y15.5162
G01 X14.2228 Y15.5102
G00 Z2.0000
G00 X16.3052 Y15.5884
G01 F60.00
G01 Z-0.1200
G01 F120.00
G01 X16.6108 Y15.2828
G01 X16.6351 Y15.2605
G01 X16.6443 Y15.2530
G01 X16.6684 Y15.2352
G01 X16.6759 Y15.2303
G01 X16.7042 Y15.2135
G01 X16.7393 Y15.1969
G01 X16.7760 Y15.1838
G01 X16.8079 Y15.1756
G01 X16.8195 Y15.1733
G01 X16.8492 Y15.1689
G01 X16.8581 Y15.1682
G01 X16.8910 Y15.1667
G01 X17.3294 Y15.1667
G01 X17.3295 Y15.1571
G01 X17.3311 Y15.1266
G01 X17.3355 Y15.0965
G01 X17.3378 Y15.0848
G01 X17.3445 Y15.0581
G01 X17.3472 Y15.0496
G01 X17.3576 Y15.0210
G01 X17.3732 Y14.9880
G01 X17.3919 Y14.9568
G01 X17.4136 Y14.9275
G01 X17.4381 Y14.9006
G01 X17.4650 Y14.8761
G01 X17.4943 Y14.8544
G01 X17.5204 Y14.8386
G01 X17.5309 Y14.8330
G01 X17.5557 Y14.8213
G01 X17.5640 Y14.8180
G01 X17.5928 Y14.8078
G01 X17.6223 Y14.8003
G01 X17.6310 Y14.7984
G01 X17.6641 Y14.7936
G01 X17.7005 Y14.7919
G01 X18.9505 Y14.7919
G01 X18.9869 Y14.7936
G01 X19.0200 Y14.7984
G01 X19.0525 Y14.8062
G01 X19.0639 Y14.8097
G01 X19.0925 Y14.8201
G01 X19.1255 Y14.8357
G01 X19.1517 Y14.8512
G01 X19.1616 Y14.8578
G01 X19.1860 Y14.8761
G01 X19.2129 Y14.9006
G01 X19.2374 Y14.9275
G01 X19.2557 Y14.9519
G01 X19.2623 Y14.9618
G01 X19.2778 Y14.9880
G01 X19.2934 Y15.0210
G01 X19.3038 Y15.0496
G01 X19.3073 Y15.0610
G01 X19.3151 Y15.0935
G01 X19.3199 Y15.1266
G01 X19.3216 Y15.1630
G01 X19.3216 Y15.9630
G01 X19.3199 Y15.9994
G01 X19.3151 Y16.0325
G01 X19.3132 Y16.0412
G01 X19.3057 Y16.0707
G01 X19.2955 Y16.0995
G01 X19.2910 Y16.1105
G01 X19.2778 Y16.1380
G01 X19.2623 Y16.1642
G01 X19.2557 Y16.1741
G01 X19.2374 Y16.1985
G01 X19.2170 Y16.2211
G01 X19.2086 Y16.2295
G01 X19.1860 Y16.2499
G01 X19.1616 Y16.2682
G01 X19.1517 Y16.2748
G01 X19.1255 Y16.2903
G01 X19.0980 Y16.3035
G01 X19.0898 Y16.3070
G01 X19.0582 Y16.3182
G01 X19.0229 Y16.3270
G01 X18.9869 Y16.3324
G01 X18.9535 Y16.3341
G01 X17.7005 Y16.3341
G01 X17.6641 Y16.3324
G01 X17.6310 Y16.3276
G01 X17.6223 Y16.3257
G01 X17.5928 Y16.3182
G01 X17.5640 Y16.3080
G01 X17.5557 Y16.3047
G01 X17.5309 Y16.2930
G01 X17.5204 Y16.2874
G01 X17.4943 Y16.2716
G01 X17.4650 Y16.2499
G01 X17.4381 Y16.2254
G01 X17.4136 Y16.1985
G01 X17.3919 Y16.1692
G01 X17.3732 Y16.1380
G01 X17.3576 Y16.1050
G01 X17.3472 Y16.0764
G01 X17.3445 Y16.0679
G01 X17.3378 Y16.0412
G01 X17.3355 Y16.0295
G01 X17.3311 Y15.9994
G01 X17.3295 Y15.9689
G01 X17.3294 Y15.9593
G01 X17.0551 Y15.9593
G01 X16.4171 Y16.5973
G01 X16.4171 Y18.1630
G01 X16.4122 Y18.2650
G01 X16.4113 Y18.2739
G01 X16.3966 Y18.3720
G01 X16.3726 Y18.4682
G01 X16.3692 Y18.4796
G01 X16.3356 Y18.5729
G01 X16.2933 Y18.6626
G01 X16.2877 Y18.6731
G01 X16.2366 Y18.7581
G01 X16.1740 Y18.8425
G01 X16.1075 Y18.9161
G01 X16.0991 Y18.9245
G01 X16.0300 Y18.9871
G01 X16.0208 Y18.9947
G01 X15.9411 Y19.0536
G01 X15.8509 Y19.1077
G01 X15.7559 Y19.1526
G01 X15.6569 Y19.1880
G01 X15.5550 Y19.2136
G01 X15.4569 Y19.2283
G01 X15.4451 Y19.2294
G01 X15.3519 Y19.2340
G01 X15.3401 Y19.2340
G01 X15.2410 Y19.2290
G01 X15.1370 Y19.2136
G01 X15.0351 Y19.1880
G01 X14.9388 Y19.1537
G01 X14.9307 Y19.1502
G01 X14.8411 Y19.1077
G01 X14.7559 Y19.0568
G01 X14.7460 Y19.0502
G01 X14.6665 Y18.9910
G01 X14.5929 Y18.9245
G01 X14.5845 Y18.9161
G01 X14.5180 Y18.8425
G01 X14.4588 Y18.7630
G01 X14.4522 Y18.7531
G01 X14.4013 Y18.6679
G01 X14.3588 Y18.5783
G01 X14.3542 Y18.5674
G01 X14.3210 Y18.4739
G01 X14.2967 Y18.3778
G01 X14.2949 Y18.3690
G01 X14.2800 Y18.2680
G01 X14.2749 Y18.1630
G01 X14.2749 Y16.0600
G01 X14.2800 Y15.9580
G01 X14.2954 Y15.8540
G01 X14.3210 Y15.7521
G01 X14.3553 Y15.6558
G01 X14.3588 Y15.6477
G01 X14.3987 Y15.5634
G01 X14.4043 Y15.5529
G01 X14.4554 Y15.4679
G01 X14.5180 Y15.3835
G01 X14.5886 Y15.3056
G01 X14.6620 Y15.2389
G01 X14.6712 Y15.2313
G01 X14.7509 Y15.1724
G01 X14.8359 Y15.1213
G01 X14.8464 Y15.1157
G01 X14.9361 Y15.0734
G01 X15.0351 Y15.0380
G01 X15.1312 Y15.0137
G01 X15.1429 Y15.0114
G01 X15.2410 Y14.9970
G01 X15.3430 Y14.9919
G01 X15.3519 Y14.9920
G01 X15.4451 Y14.9966
G01 X15.4569 Y14.9977
G01 X15.5550 Y15.0124
G01 X15.6569 Y15.0380
G01 X15.7504 Y15.0712
G01 X15.7613 Y15.0758
G01 X15.8509 Y15.1183
G01 X15.9386 Y15.1707
G01 X15.9460 Y15.1758
G01 X16.0208 Y15.2313
G01 X16.0300 Y15.2389
G01 X16.1034 Y15.3056
G01 X16.1721 Y15.3812
G01 X16.1777 Y15.3882
G01 X16.2332 Y15.4630
G01 X16.2383 Y15.4704
G01 X16.2892 Y15.5555
G01 X16.3052 Y15.5884
G00 Z2.0000
G00 X16.3377 Y15.2989
G01 F60.00
G01 Z-0.1200
G01 F120.00
G01 X16.3191 Y15.2740
G01 X16.3069 Y15.2593
G01 X16.3260 Y15.2606
G01 X16.3410 Y15.2607
G01 X16.3635 Y15.2596
G01 X16.3787 Y15.2578
G01 X16.3377 Y15.2989
G00 Z2.0000
G00 X17.0661 Y16.2054
G01 F60.00
G01 Z-0.1200
G01 F120.00
G01 X17.1304 Y16.1410
G01 X17.1773 Y16.1410
G01 X17.1897 Y16.1746
G01 X17.2051 Y16.2079
G01 X17.1938 Y16.2057
G01 X17.1790 Y16.2034
G01 X17.1640 Y16.2018
G01 X17.1490 Y16.2010
G01 X17.1264 Y16.2012
G01 X17.0661 Y16.2054
G00 Z2.0000
G00 X16.5970 Y18.2079
G01 F60.00
G01 Z-0.1200
G01 F120.00
G01 X16.5988 Y18.1704
G01 X16.5989 Y18.0975
G01 X16.6097 Y18.1090
G01 X16.6205 Y18.1194
G01 X16.6668 Y18.1595
G01 X16.6250 Y18.1865
G01 X16.6128 Y18.1952
G01 X16.5970 Y18.2079
G00 Z2.0000
G00 X17.0636 Y19.0381
G01 F60.00
G01 Z-0.1200
G01 F120.00
G01 X17.3294 Y19.0381
G01 X17.3294 Y19.0660
G01 X17.3307 Y19.0934
G01 X17.3315 Y19.1023
G01 X17.3365 Y19.1354
G01 X17.3445 Y19.1679
G01 X17.3555 Y19.1995
G01 X17.3600 Y19.2105
G01 X17.3732 Y19.2380
G01 X17.3903 Y19.2667
G01 X17.4099 Y19.2938
G01 X17.4175 Y19.3030
G01 X17.4381 Y19.3254
G01 X17.4650 Y19.3499
G01 X17.4894 Y19.3682
G01 X17.4993 Y19.3748
G01 X17.5255 Y19.3903
G01 X17.5557 Y19.4047
G01 X17.5871 Y19.4163
G01 X17.5985 Y19.4198
G01 X17.6281 Y19.4270
G01 X17.6582 Y19.4316
G01 X17.6671 Y19.4326
G01 X17.7005 Y19.4341
G01 X17.9504 Y19.4341
G01 X17.9504 Y19.6998
G01 X17.6565 Y19.6998
G01 X17.5704 Y19.6909
G01 X17.4287 Y19.6437
G01 X17.3024 Y19.5656
G01 X17.1972 Y19.4602
G01 X17.1193 Y19.3338
G01 X17.0723 Y19.1920
G01 X17.0637 Y19.1073
G01 X17.0636 Y19.0381
G00 Z2.0000
G00 X18.7006 Y19.6999
G01 F60.00
G01 Z-0.1200
G01 F120.00
G01 X18.7006 Y19.4341
G01 X18.9505 Y19.4341
G01 X18.9839 Y19.4326
G01 X18.9928 Y19.4316
G01 X19.0229 Y19.4270
G01 X19.0525 Y19.4198
G01 X19.0639 Y19.4163
G01 X19.0953 Y19.4047
G01 X19.1255 Y19.3903
G01 X19.1517 Y19.3748
G01 X19.1616 Y19.3682
G01 X19.1860 Y19.3499
G01 X19.2129 Y19.3254
G01 X19.2335 Y19.3030
G01 X19.2411 Y19.2938
G01 X19.2607 Y19.2667
G01 X19.2778 Y19.2380
G01 X19.2910 Y19.2105
G01 X19.2955 Y19.1995
G01 X19.3065 Y19.1679
G01 X19.3145 Y19.1354
G01 X19.3195 Y19.1023
G01 X19.3203 Y19.0934
G01 X19.3216 Y19.0660
G01 X19.3216 Y19.0381
G01 X19.5873 Y19.0381
G01 X19.5873 Y19.1072
G01 X19.5784 Y19.1931
G01 X19.5312 Y19.3348
G01 X19.4528 Y19.4614
G01 X19.3477 Y19.5663
G01 X19.2213 Y19.6442
G01 X19.0795 Y19.6912
G01 X18.9946 Y19.6999
G01 X18.7006 Y19.6999
G00 Z2.0000
G00 X18.7006 Y17.6262
G01 F60.00
G01 Z-0.1200
G01 F120.00
G01 X18.9945 Y17.6262
G01 X19.0806 Y17.6351
G01 X19.2223 Y17.6823
G01 X19.3486 Y17.7604
G01 X19.4538 Y17.8658
G01 X19.5317 Y17.9922
G01 X19.5787 Y18.1340
G01 X19.5873 Y18.2187
G01 X19.5874 Y18.2879
G01 X19.3216 Y18.2879
G01 X19.3216 Y18.2600
G01 X19.3203 Y18.2326
G01 X19.3195 Y18.2237
G01 X19.3145 Y18.1906
G01 X19.3065 Y18.1581
G01 X19.2955 Y18.1265
G01 X19.2910 Y18.1155
G01 X19.2778 Y18.0880
G01 X19.2607 Y18.0593
G01 X19.2411 Y18.0322
G01 X19.2335 Y18.0230
G01 X19.2129 Y18.0006
G01 X19.1860 Y17.9761
G01 X19.1616 Y17.9578
G01 X19.1517 Y17.9512
G01 X19.1255 Y17.9357
G01 X19.0953 Y17.9213
G01 X19.0639 Y17.9097
G01 X19.0525 Y17.9062
G01 X19.0229 Y17.8990
G01 X18.9928 Y17.8944
G01 X18.9839 Y17.8934
G01 X18.9505 Y17.8919
G01 X18.7006 Y17.8919
G01 X18.7006 Y17.6262
G00 Z2.0000
G00 X22.0861 Y19.2026
G01 F60.00
G01 Z-0.1200
G01 F120.00
G01 X22.3693 Y19.2026
G01 X22.3797 Y19.2319
G01 X22.3831 Y19.2401
G01 X22.4255 Y19.3298
G01 X22.4298 Y19.3376
G01 X22.4792 Y19.4201
G01 X22.4843 Y19.4275
G01 X22.5435 Y19.5070
G01 X22.6100 Y19.5806
G01 X22.6162 Y19.5870
G01 X22.6920 Y19.6555
G01 X22.7715 Y19.7147
G01 X22.7814 Y19.7213
G01 X22.8614 Y19.7692
G01 X22.8719 Y19.7748
G01 X22.9616 Y19.8171
G01 X23.0549 Y19.8507
G01 X23.0663 Y19.8541
G01 X23.1567 Y19.8768
G01 X23.1684 Y19.8791
G01 X23.2665 Y19.8935
G01 X23.3656 Y19.8985
G01 X24.0464 Y19.8986
G01 X24.0464 Y20.1644
G01 X23.3158 Y20.1644
G01 X23.1526 Y20.1509
G01 X22.9394 Y20.0974
G01 X22.7378 Y20.0098
G01 X22.5532 Y19.8904
G01 X22.3903 Y19.7422
G01 X22.2541 Y19.5697
G01 X22.1480 Y19.3776
G01 X22.0861 Y19.2026
G00 Z2.0000
G00 X23.3055 Y17.5775
G01 F60.00
G01 Z-0.1200
G01 F120.00
G01 X23.2561 Y17.5800
G01 X23.2413 Y17.5815
G01 X23.1344 Y17.5973
G01 X23.1126 Y17.6020
G01 X23.0149 Y17.6265
G01 X22.9937 Y17.6332
G01 X22.9059 Y17.6646
G01 X22.8920 Y17.6700
G01 X22.8785 Y17.6760
G01 X22.7979 Y17.7141
G01 X22.8036 Y17.6920
G01 X22.8076 Y17.6698
G01 X22.8175 Y17.5844
G01 X22.8185 Y17.5693
G01 X22.8187 Y17.5543
G01 X22.8182 Y17.5393
G01 X22.8170 Y17.5243
G01 X22.8150 Y17.5094
G01 X22.8123 Y17.4946
G01 X22.8088 Y17.4799
G01 X22.8046 Y17.4655
G01 X22.7997 Y17.4513
G01 X22.7950 Y17.4395
G01 X22.8785 Y17.4790
G01 X22.8920 Y17.4850
G01 X22.9059 Y17.4904
G01 X22.9937 Y17.5218
G01 X23.0149 Y17.5285
G01 X23.1126 Y17.5530
G01 X23.1344 Y17.5577
G01 X23.2413 Y17.5735
G01 X23.2561 Y17.5750
G01 X23.3055 Y17.5775
G00 Z2.0000
G00 X23.7822 Y15.0746
G01 F60.00
G01 Z-0.1200
G01 F120.00
G01 X23.7936 Y15.0638
G01 X23.8040 Y15.0530
G01 X23.8435 Y15.0076
G01 X23.8435 Y15.0746
G01 X23.7822 Y15.0746
G00 Z2.0000
G00 X24.9995 Y15.0133
G01 F60.00
G01 Z-0.1200
G01 F120.00
G01 X25.0102 Y15.0246
G01 X25.0210 Y15.0350
G01 X25.0666 Y15.0746
G01 X24.9995 Y15.0746
G01 X24.9995 Y15.0133
G00 Z2.0000
G00 X26.0452 Y17.4408
G01 F60.00
G01 Z-0.1200
G01 F120.00
G01 X26.0393 Y17.4636
G01 X26.0353 Y17.4858
G01 X26.0254 Y17.5713
G01 X26.0245 Y17.5863
G01 X26.0242 Y17.6013
G01 X26.0247 Y17.6164
G01 X26.0260 Y17.6313
G01 X26.0280 Y17.6463
G01 X26.0307 Y17.6610
G01 X26.0342 Y17.6757
G01 X26.0384 Y17.6901
G01 X26.0433 Y17.7044
G01 X26.0476 Y17.7153
G01 X25.9645 Y17.6760
G01 X25.9510 Y17.6700
G01 X25.9371 Y17.6646
G01 X25.8493 Y17.6332
G01 X25.8281 Y17.6265
G01 X25.7304 Y17.6020
G01 X25.7086 Y17.5973
G01 X25.6017 Y17.5815
G01 X25.5869 Y17.5800
G01 X25.5375 Y17.5775
G01 X25.5869 Y17.5750
G01 X25.6017 Y17.5735
G01 X25.7086 Y17.5577
G01 X25.7304 Y17.5530
G01 X25.8281 Y17.5285
G01 X25.8493 Y17.5218
G01 X25.9371 Y17.4904
G01 X25.9510 Y17.4850
G01 X25.9645 Y17.4790
G01 X26.0452 Y17.4408
G00 Z2.0000
G00 X28.8133 Y17.1313
G01 F60.00
G01 Z-0.1200
G01 F120.00
G01 X28.8288 Y17.1318
G01 X28.8513 Y17.1310
G01 X28.9221 Y17.1259
G01 X28.9446 Y17.1235
G01 X28.9668 Y17.1194
G01 X28.9813 Y17.1157
G01 X29.0028 Y17.1089
G01 X29.0169 Y17.1035
G01 X29.0306 Y17.0973
G01 X29.0506 Y17.0869
G01 X29.0635 Y17.0791
G01 X29.0820 Y17.0663
G01 X29.1389 Y17.0237
G01 X29.1507 Y17.0144
G01 X29.1675 Y16.9994
G01 X29.1781 Y16.9887
G01 X29.1876 Y16.9780
G01 X29.1877 Y17.3039
G01 X29.1892 Y17.3359
G01 X29.1903 Y17.3507
G01 X29.1957 Y17.3897
G01 X29.1982 Y17.4044
G01 X29.2075 Y17.4427
G01 X29.2137 Y17.4641
G01 X29.2244 Y17.4942
G01 X29.2297 Y17.5081
G01 X29.2462 Y17.5438
G01 X29.2565 Y17.5636
G01 X29.2728 Y17.5911
G01 X29.2808 Y17.6037
G01 X29.3040 Y17.6355
G01 X29.3191 Y17.6543
G01 X29.2979 Y17.6558
G01 X29.2830 Y17.6577
G01 X29.2608 Y17.6620
G01 X29.2463 Y17.6658
G01 X29.1642 Y17.6914
G01 X29.1431 Y17.6995
G01 X29.1227 Y17.7090
G01 X29.1030 Y17.7201
G01 X29.0904 Y17.7283
G01 X29.0782 Y17.7371
G01 X29.0608 Y17.7514
G01 X29.0498 Y17.7617
G01 X29.0342 Y17.7781
G01 X29.0000 Y17.8188
G01 X29.0000 Y17.5575
G01 X28.9983 Y17.5157
G01 X28.9964 Y17.4935
G01 X28.9903 Y17.4520
G01 X28.9874 Y17.4375
G01 X28.9772 Y17.3969
G01 X28.9705 Y17.3756
G01 X28.9588 Y17.3432
G01 X28.9531 Y17.3295
G01 X28.9384 Y17.2983
G01 X28.9318 Y17.2850
G01 X28.9244 Y17.2721
G01 X28.9067 Y17.2426
G01 X28.8940 Y17.2242
G01 X28.8688 Y17.1908
G01 X28.8591 Y17.1796
G01 X28.8359 Y17.1541
G01 X28.8133 Y17.1313
G00 Z2.0000
G00 X29.0000 Y19.0799
G01 F60.00
G01 Z-0.1200
G01 F120.00
G01 X29.0107 Y19.0912
G01 X29.0215 Y19.1016
G01 X29.0808 Y19.1531
G01 X29.0924 Y19.1626
G01 X29.1045 Y19.1716
G01 X29.1170 Y19.1800
G01 X29.1299 Y19.1877
G01 X29.1499 Y19.1981
G01 X29.1637 Y19.2042
G01 X29.1777 Y19.2095
G01 X29.1993 Y19.2163
G01 X29.2139 Y19.2199
G01 X29.2361 Y19.2239
G01 X29.3063 Y19.2341
G01 X29.3216 Y19.2359
G01 X29.3085 Y19.2516
G01 X29.2850 Y19.2832
G01 X29.2728 Y19.3019
G01 X29.2529 Y19.3359
G01 X29.2357 Y19.3713
G01 X29.2270 Y19.3918
G01 X29.2137 Y19.4289
G01 X29.2094 Y19.4431
G01 X29.2061 Y19.4560
G01 X29.0000 Y19.4560
G01 X29.0000 Y19.0799
G00 Z2.0000
G00 X29.8125 Y20.9971
G01 F60.00
G01 Z-0.1200
G01 F120.00
G01 X29.8018 Y20.9858
G01 X29.7899 Y20.9744
G01 X29.8125 Y20.9744
G01 X29.8125 Y20.9971
G00 Z2.0000
G00 X30.9875 Y20.9744
G01 F60.00
G01 Z-0.1200
G01 F120.00
G01 X30.9786 Y20.9836
G01 X30.9685 Y20.9952
G01 X30.9685 Y20.9744
G01 X30.9875 Y20.9744
G00 Z2.0000
G00 X31.6709 Y20.8525
G01 F60.00
G01 Z-0.1200
G01 F120.00
G01 X31.6538 Y20.8419
G01 X31.6337 Y20.8315
G01 X31.6130 Y20.8226
G01 X31.5917 Y20.8153
G01 X31.5772 Y20.8113
G01 X31.5010 Y20.7925
G01 X31.4791 Y20.7884
G01 X31.4559 Y20.7860
G01 X31.4631 Y20.7779
G01 X31.4725 Y20.7664
G01 X31.4960 Y20.7348
G01 X31.5043 Y20.7224
G01 X31.5245 Y20.6886
G01 X31.5348 Y20.6688
G01 X31.5513 Y20.6331
G01 X31.5566 Y20.6192
G01 X31.5680 Y20.5870
G01 X31.6442 Y20.5870
G01 X31.6436 Y20.6055
G01 X31.6440 Y20.6204
G01 X31.6481 Y20.7037
G01 X31.6492 Y20.7185
G01 X31.6510 Y20.7333
G01 X31.6644 Y20.8231
G01 X31.6673 Y20.8377
G01 X31.6709 Y20.8525
G00 Z2.0000
G00 X32.7965 Y21.9926
G01 F60.00
G01 Z-0.1200
G01 F120.00
G01 X32.7816 Y21.9930
G01 X32.6983 Y21.9971
G01 X32.6835 Y21.9982
G01 X32.6687 Y22.0000
G01 X32.5789 Y22.0134
G01 X32.5571 Y22.0180
G01 X32.4690 Y22.0402
G01 X32.4548 Y22.0445
G01 X32.4132 Y22.0593
G01 X32.4196 Y22.0442
G01 X32.4247 Y22.0300
G01 X32.4291 Y22.0156
G01 X32.4343 Y21.9937
G01 X32.4482 Y21.9240
G01 X32.4507 Y21.9092
G01 X32.4526 Y21.8943
G01 X32.4536 Y21.8793
G01 X32.4539 Y21.8567
G01 X32.4531 Y21.8417
G01 X32.4505 Y21.8193
G01 X32.4479 Y21.8045
G01 X32.4426 Y21.7826
G01 X32.4356 Y21.7611
G01 X32.4077 Y21.6897
G01 X32.4548 Y21.7065
G01 X32.4690 Y21.7108
G01 X32.5571 Y21.7330
G01 X32.5789 Y21.7376
G01 X32.6687 Y21.7510
G01 X32.6835 Y21.7528
G01 X32.6983 Y21.7539
G01 X32.7816 Y21.7580
G01 X32.7965 Y21.7584
G01 X35.1039 Y21.7583
G01 X35.1947 Y21.7539
G01 X35.2095 Y21.7528
G01 X35.2243 Y21.7510
G01 X35.3141 Y21.7376
G01 X35.3359 Y21.7330
G01 X35.4240 Y21.7108
G01 X35.4382 Y21.7065
G01 X35.4798 Y21.6917
G01 X35.4734 Y21.7068
G01 X35.4683 Y21.7210
G01 X35.4639 Y21.7354
G01 X35.4587 Y21.7573
G01 X35.4448 Y21.8270
G01 X35.4423 Y21.8418
G01 X35.4398 Y21.8642
G01 X35.4391 Y21.8792
G01 X35.4391 Y21.8943
G01 X35.4399 Y21.9093
G01 X35.4425 Y21.9317
G01 X35.4451 Y21.9465
G01 X35.4504 Y21.9684
G01 X35.4574 Y21.9899
G01 X35.4853 Y22.0613
G01 X35.4382 Y22.0445
G01 X35.4240 Y22.0402
G01 X35.3359 Y22.0180
G01 X35.3141 Y22.0134
G01 X35.2243 Y22.0000
G01 X35.2095 Y21.9982
G01 X35.1947 Y21.9971
G01 X35.1039 Y21.9927
G01 X32.7965 Y21.9926
G00 Z2.0000
G00 X32.7965 Y22.1744
G01 F60.00
G01 Z-0.1200
G01 F120.00
G01 X35.0995 Y22.1744
G01 X35.1917 Y22.1790
G01 X35.2860 Y22.1930
G01 X35.3784 Y22.2162
G01 X35.4681 Y22.2483
G01 X35.5543 Y22.2890
G01 X35.6360 Y22.3380
G01 X35.7126 Y22.3948
G01 X35.7832 Y22.4588
G01 X35.8472 Y22.5294
G01 X35.9040 Y22.6060
G01 X35.9530 Y22.6877
G01 X35.9937 Y22.7739
G01 X36.0258 Y22.8636
G01 X36.0490 Y22.9560
G01 X36.0630 Y23.0503
G01 X36.0676 Y23.1455
G01 X36.0630 Y23.2407
G01 X36.0490 Y23.3350
G01 X36.0258 Y23.4274
G01 X35.9937 Y23.5171
G01 X35.9557 Y23.5980
G01 X35.9500 Y23.6085
G01 X35.9040 Y23.6850
G01 X35.8509 Y23.7569
G01 X35.8433 Y23.7661
G01 X35.7832 Y23.8322
G01 X35.7171 Y23.8923
G01 X35.7079 Y23.8999
G01 X35.6360 Y23.9530
G01 X35.5595 Y23.9990
G01 X35.5490 Y24.0047
G01 X35.4681 Y24.0427
G01 X35.3841 Y24.0730
G01 X35.3727 Y24.0764
G01 X35.2860 Y24.0980
G01 X35.1976 Y24.1112
G01 X35.1858 Y24.1124
G01 X35.0965 Y24.1166
G01 X32.7935 Y24.1166
G01 X32.7013 Y24.1120
G01 X32.6070 Y24.0980
G01 X32.5146 Y24.0748
G01 X32.4249 Y24.0427
G01 X32.3387 Y24.0020
G01 X32.2570 Y23.9530
G01 X32.1804 Y23.8962
G01 X32.1141 Y23.8363
G01 X32.1057 Y23.8279
G01 X32.0497 Y23.7661
G01 X32.0421 Y23.7569
G01 X31.9890 Y23.6850
G01 X31.9400 Y23.6033
G01 X31.8993 Y23.5171
G01 X31.8672 Y23.4274
G01 X31.8440 Y23.3350
G01 X31.8308 Y23.2466
G01 X31.8296 Y23.2348
G01 X31.8255 Y23.1514
G01 X31.8255 Y23.1396
G01 X31.8300 Y23.0503
G01 X31.8440 Y22.9560
G01 X31.8672 Y22.8636
G01 X31.8971 Y22.7794
G01 X31.9017 Y22.7684
G01 X31.9373 Y22.6930
G01 X31.9430 Y22.6825
G01 X31.9890 Y22.6060
G01 X32.0458 Y22.5294
G01 X32.1098 Y22.4588
G01 X32.1804 Y22.3948
G01 X32.2570 Y22.3380
G01 X32.3387 Y22.2890
G01 X32.4249 Y22.2483
G01 X32.5089 Y22.2180
G01 X32.5203 Y22.2146
G01 X32.6012 Y22.1943
G01 X32.6129 Y22.1920
G01 X32.7013 Y22.1790
G01 X32.7965 Y22.1744
G00 Z2.0000
G00 X32.7965 Y24.5326
G01 F60.00
G01 Z-0.1200
G01 F120.00
G01 X32.7816 Y24.5330
G01 X32.6983 Y24.5371
G01 X32.6835 Y24.5382
G01 X32.6687 Y24.5400
G01 X32.5789 Y24.5534
G01 X32.5571 Y24.5580
G01 X32.4690 Y24.5802
G01 X32.4548 Y24.5845
G01 X32.4132 Y24.5993
G01 X32.4196 Y24.5842
G01 X32.4247 Y24.5700
G01 X32.4291 Y24.5556
G01 X32.4343 Y24.5337
G01 X32.4482 Y24.4640
G01 X32.4507 Y24.4492
G01 X32.4526 Y24.4343
G01 X32.4536 Y24.4193
G01 X32.4539 Y24.3967
G01 X32.4531 Y24.3817
G01 X32.4505 Y24.3593
G01 X32.4463 Y24.3371
G01 X32.4426 Y24.3226
G01 X32.4356 Y24.3011
G01 X32.4077 Y24.2297
G01 X32.4548 Y24.2465
G01 X32.4690 Y24.2508
G01 X32.5571 Y24.2730
G01 X32.5789 Y24.2776
G01 X32.6687 Y24.2910
G01 X32.6835 Y24.2928
G01 X32.6983 Y24.2939
G01 X32.7816 Y24.2980
G01 X32.7965 Y24.2984
G01 X35.1039 Y24.2983
G01 X35.1947 Y24.2939
G01 X35.2095 Y24.2928
